;Header Start

;FLAVOR:Marlin
;TIME:6666
;Filament used: 0m
;Layer height: 0.16
;MINX:2.14748e+06
;MINY:2.14748e+06
;MINZ:2.14748e+06
;MAXX:-2.14748e+06
;MAXY:-2.14748e+06
;MAXZ:-2.14748e+06


;header_type: 3dp
;thumbnail: data:image/png;base64,iVBORw0KGgoAAAANSUhEUgAAASwAAACWCAYAAABkW7XSAAAKUklEQVR4Xu2dz08VVxSAL0p0U02MC5VHokg0rjQSQ2OjO0Eb6H/QEn/sWlQau7ELuxPrxl+0u7qg/ROqic+lK5C6MsZgAU14gAs3WmI0KM2ZdnB4gce8+968e8/cb5IJoPfOPfc7J593rsObpvn5t4uGAwIQgIACAk0IS0GWCBECEIgIICwKAQIQUEMAYalJFYFCAAIIixqAAATUEEBYalJFoBCAAMKiBiAAATUEEJaaVBEoBCCAsKgBCEBADQGEpSZVBAoBCCAsagACEFBDAGGpSRWBQgACCIsagAAE1BBAWGpSRaAQgADCogYgAAE1BBCWmlQRKAQggLCoAQhAQA0BhKUmVQQKAQggLGoAAhBQQwBhqUkVgUIAAgiLGoAABNQQQFhqUkWgEIAAwqIGIAABNQQQlppUESgEIICwqAEIQEANAYSlJlUECgEIICxqAAIQUEMAYalJFYFCAAIIixqAAATUEEBYalJFoBCAAMKiBiAAATUEEJaaVBEoBCCAsKgBCEBADQGEpSZVBAoBCCAsagACEFBDAGGpSRWBQgACCIsagAAE1BBAWGpSRaAQgADCogYgAAE1BBCWmlQRKAQggLCoAQhAQA0BhKUmVQQKAQggLGoAAhBQQwBhqUkVgUIAAgiLGoAABNQQQFhqUkWgEIAAwqIGIAABNQQQlppUESgEIICwqAEIQEANAYSlJlUECgEIICxqAAIQUEMAYalJFYFCAAIIixqAAATUEEBYalJFoBCAAMKiBiAAATUEEJaaVPkX6IMHD6KgWlsL0Vf5uampaVmgR44cWfp5eroUfX/06FH/JkNEKgggLBVpch/k4OBlc+DAAXP16s+mpaXFtLa2mnXr1kWnSCoWVbmwFhcXo+Dlq5wfP36MzlKpZA4f/sI8evSXOXXqDBJzn2IVESAsFWlyG+Tt27+ZK1cGzbZt20yhUFgmq9nZ2WWrqtWEFUtrx44dS9Kanp6OxCV9Tp48ZU6fPuN2oozuPQGE5X2K3Ad4586fpli8Z5qbm6MV1dzcXCSZmZmZKLikpERA8SFySx7xaktWaPL99u3bI3ktLCyY7u7jpqen1/1kicBrAgjL6/T4EVy5sCrdCla6JVzp1hBh+ZFjLVEgLC2ZchhnI4TV1dVtenu/cjhLhtZAAGFpyJLjGJ89GzdDQ7fM+vXrzZMnT8z79++jfax4NZX8vtIKS/as5JCvcku4c+dOs2XLFvPhwwfT33/W7Nmz1/FMGd53AgjL9wx5EJ8Ia2DgfLR/9fjxY/Pq1au6RLV161Yjm/Dt7e3m0qWfEFZdqOb7Iggr3/mty+xkdSWnHO/evaursDZu3BhdV1ZYcnJAoBIBhEV9rEkAYa2JiAYNIoCwGgRa8zB9fV+b0dFRVliak5iT2BFWThKZ5TQaIazOzk4zPPxHltPg2jkggLBykMSsp4CwsibM9dMSQFhpSQXcbt++T48bZLXpLnifPh0PmDJTT0MAYaWhFHgbhBV4AXg0fYTlUTJ8DGV0dMT09X2zFBorLB+zFE5MCCucXFvNtJHCGh7+3XR2fm4VJ53CIICwwsiz9SwRljU6OmZAAGFlADVPl0w+NCrzyvKWkKfd81Q52cwFYWXDNTdXRVi5SWUuJoKwcpHG7CaRfAaLFVZ2nLlyOgIIKx2nYFs1Ulg87R5smaWeOMJKjSrMhggrzLz7OmuE5WtmPIkr+dBo1reEcn2edvck8Z6GgbA8TYwvYZUL682bN0bOehybNm0yciYPhFUPsvm9BsLKb25rnln5M1hyQYRVM1YuUAMBhFUDvLx3dSEsnnbPe1XVNj+EVRu/XPdGWLlOr8rJISyVaWtM0MmHRuN9q3rtX8kMNmzYEE1E9rH4bPfG5FT7KAhLewYzjF+ENTh4uW6b7GuFKgK7ePFHc+HCD2s15e8DJYCwAk18mmlv3vxZmmZRG3ntvDz4Ke8ajN9NKO8efPHihRkZGTEvX75Mfa3Xr/9J3ZaGYRFAWGHlO/Vsx8fHzaFDHanbS8OWlpZlL1iVP5NX0T98+LCq64yNPTJ79/JS1aqgBdIYYQWSaJtpnj37nSkWi2Z2dtame9V9Dh48aPbv329u3fql6r50CIMAwgojz1azFGE1NzdHr6ifm5szY2Nj0XVmZmasrlfeSVZkcsrR0dERvbJ+YWEBYdWFbj4vgrDymde6zEqEJbISaclr6mVvKj5FWvFeValUSjVeoVCI2omkZH8recqto8hKpMUKKxXOIBshrCDTnm7SlYSVlFfyarHE4j8TKSWPclHFPyOsdDkJvRXCCr0CKswfYVEcvhFAWL5lxKN4ksKSlVP5bWG8yqp1hSWrK1lpcUvoUfI9DQVheZoYH8JCWD5kgRiW/YM4P/92+SYDfCDwPwGERSn4RoAVlm8Z8Sie/v5vo/8hlLNRt4RyWzg09KtHFAjFJwIIy6dseBZLLCx5tEH2r7Lcw5J9rPg5LITlWSF4FA7C8igZvoWCsHzLCPEgLGpgVQI3b143k5OT0cOjjVph7d6925w7N0BWILAiAYRFYSAsakANAYSlJlWND5QVVuOZM2JlAgiLClmVwI0b18zU1BS3hNSINwQQljep8C8QF8Jqa2sz589/7x8MIvKCAMLyIg1+BoGw/MxLyFEhrJCzv8bcsxKWPHMlR/KTGuLnsFhhUZCVCCAs6sNqD0s6xQ+SJi+Q5uNlEBZFZ0sAYdmSC6Df9evXzPPnnzbdk7+eUy9hxZ/UEK+wdu1qMwMD7GEFUF5WU0RYVtjC6HT37h1TLN5b+l/ClYQlJJKrqmpXWOXC6urqNj09vWEAZpZVE0BYVSMLq4O8m3ByciKSVq3Cij99NHlLmBSWyOrEiS/DAsxsqyKAsKrCFWbjiYm/zf37xejXdJL7VvJ9NSusSsI6dqzLHD9+IkzAzDo1AYSVGhUNJyYmzNTUZHTG8rIVlvzOYFvbf2d7eztwIZCKAMJKhYlGKxEQccWHPBEvh2zSx4dsoCcPeWRBDpEUBwRsCCAsG2r0gQAEnBBAWE6wMygEIGBDAGHZUKMPBCDghADCcoKdQSEAARsCCMuGGn0gAAEnBBCWE+wMCgEI2BBAWDbU6AMBCDghgLCcYGdQCEDAhgDCsqFGHwhAwAkBhOUEO4NCAAI2BBCWDTX6QAACTgggLCfYGRQCELAhgLBsqNEHAhBwQgBhOcHOoBCAgA0BhGVDjT4QgIATAgjLCXYGhQAEbAggLBtq9IEABJwQQFhOsDMoBCBgQwBh2VCjDwQg4IQAwnKCnUEhAAEbAgjLhhp9IAABJwQQlhPsDAoBCNgQQFg21OgDAQg4IYCwnGBnUAhAwIYAwrKhRh8IQMAJAYTlBDuDQgACNgQQlg01+kAAAk4IICwn2BkUAhCwIYCwbKjRBwIQcEIAYTnBzqAQgIANAYRlQ40+EICAEwIIywl2BoUABGwIICwbavSBAAScEEBYTrAzKAQgYEMAYdlQow8EIOCEAMJygp1BIQABGwIIy4YafSAAAScEEJYT7AwKAQjYEPgXncPtMcbLqmIAAAAASUVORK5CYII=
;file_total_lines: 85958
;estimated_time(s): 10866.92
;nozzle_temperature(°C): 205
;build_plate_temperature(°C): 70
;work_speed(mm/minute): 3000
;max_x(mm): 11.500000000000002
;max_y(mm): 59.749999999999964
;max_z(mm): 20.00000190734864
;min_x(mm): -11.499999999999995
;min_y(mm): -59.749999999999964
;min_z(mm): 0

;Header End

; G-code for 3dp engraving
; Generated by Snapmaker Luban 4.1.3
; Tue Jan 04 2022 10:48:1

M82 ;absolute extrusion mode
;Start GCode begin
M104 S205
M140 S70
G28 ;home
G90 ;absolute positioning
G1 X-10 Y-10 F3000
G1 Z0 F1800
M109 S205;Wait for Hotend Temperature
M190 S70;Wait for Bed Temperature
G92 E0
G1 E20 F200
G92 E0
;Start GCode end
G92 E0
G92 E0
G1 F1500 E-5
;LAYER_COUNT:124
;LAYER:0
M107
G0 F1440 X105.625 Y66.972 Z0.28
;TYPE:SKIRT
G1 F1500 E0
G1 F2400 X106.097 Y66.324 E0.05599
G1 X106.475 Y65.859 E0.09785
G1 X106.981 Y65.317 E0.14964
G1 X107.43 Y64.885 E0.19316
G1 X108.135 Y64.299 E0.25719
G1 X108.536 Y64.003 E0.292
G1 X109.256 Y63.54 E0.35179
G1 X109.703 Y63.288 E0.38763
G1 X110.399 Y62.952 E0.44162
G1 X110.994 Y62.701 E0.48672
G1 X111.681 Y62.469 E0.53737
G1 X112.289 Y62.298 E0.58148
G1 X113.034 Y62.143 E0.63463
G1 X113.654 Y62.048 E0.67844
G1 X114.441 Y61.985 E0.73359
G1 X115.061 Y61.967 E0.77691
G1 X115.893 Y62.004 E0.83508
G1 X116.423 Y62.058 E0.87229
G1 X117.202 Y62.188 E0.92745
G1 X117.81 Y62.322 E0.97094
G1 X118.497 Y62.527 E1.02101
G1 X119.13 Y62.749 E1.06787
G1 X119.807 Y63.045 E1.11947
G1 X120.356 Y63.32 E1.16236
G1 X121.065 Y63.74 E1.21992
G1 X121.556 Y64.066 E1.26108
G1 X122.208 Y64.571 E1.31869
G1 X122.612 Y64.922 E1.35607
G1 X123.193 Y65.497 E1.41316
G1 X123.601 Y65.947 E1.45559
G1 X124.099 Y66.582 E1.51195
G1 X124.423 Y67.044 E1.55137
G1 X124.877 Y67.796 E1.61272
G1 X125.112 Y68.242 E1.64793
G1 X125.464 Y69.033 E1.7084
G1 X125.651 Y69.526 E1.74523
G1 X125.879 Y70.269 E1.79951
G1 X126.02 Y70.837 E1.84039
G1 X126.166 Y71.659 E1.8987
G1 X126.238 Y72.248 E1.94015
G1 X126.276 Y73.01 E1.99344
G1 X126.277 Y73.647 E2.03793
G1 X126.225 Y74.372 E2.0887
G1 X126.147 Y75.04 E2.13567
G1 X125.922 Y76.282 E2.22383
G1 X125.709 Y77.397 E2.30312
G1 X125.27 Y80.109 E2.49501
G1 X124.912 Y82.802 E2.68476
G1 X124.631 Y85.496 E2.87395
G1 X124.42 Y88.276 E3.06868
G1 X124.292 Y90.983 E3.25796
G1 X124.241 Y93.683 E3.44658
G1 X124.299 Y97.591 E3.71957
G1 X126.91 Y172.202 E8.93406
G1 X126.928 Y173.074 E8.99498
G1 X126.914 Y173.731 E9.04088
G1 X126.901 Y173.936 E9.05523
G1 X126.805 Y174.945 E9.12602
G1 X126.712 Y175.522 E9.16684
G1 X126.579 Y176.102 E9.20841
G1 X126.527 Y176.292 E9.22216
G1 X126.285 Y177.091 E9.28048
G1 X126.088 Y177.629 E9.32049
G1 X125.823 Y178.255 E9.36797
G1 X125.498 Y178.914 E9.41929
G1 X125.426 Y179.043 E9.42961
G1 X125.119 Y179.564 E9.47185
G1 X124.781 Y180.075 E9.51464
G1 X124.425 Y180.559 E9.55661
G1 X124.057 Y181.01 E9.59727
G1 X123.638 Y181.466 E9.64052
G1 X123.048 Y182.044 E9.69821
G1 X122.811 Y182.255 E9.72037
G1 X122.169 Y182.773 E9.77799
G1 X121.677 Y183.125 E9.82024
G1 X121.208 Y183.43 E9.85932
G1 X120.839 Y183.644 E9.88911
G1 X120.077 Y184.036 E9.94897
G1 X119.408 Y184.334 E10.00012
G1 X119.266 Y184.388 E10.01073
G1 X118.678 Y184.597 E10.05432
G1 X118.079 Y184.773 E10.09792
G1 X117.757 Y184.849 E10.12103
G1 X117.167 Y184.972 E10.16313
G1 X116.656 Y185.058 E10.19932
G1 X116.106 Y185.128 E10.23805
G1 X115.695 Y185.157 E10.26682
G1 X115.093 Y185.178 E10.3089
G1 X114.535 Y185.168 E10.34788
G1 X113.915 Y185.128 E10.39127
G1 X113.306 Y185.056 E10.4341
G1 X112.708 Y184.95 E10.47652
G1 X111.888 Y184.76 E10.53531
G1 X111.393 Y184.619 E10.57126
G1 X110.799 Y184.411 E10.61522
G1 X110.414 Y184.255 E10.64424
G1 X109.649 Y183.904 E10.70303
G1 X109.362 Y183.755 E10.72561
G1 X108.625 Y183.325 E10.78521
G1 X107.997 Y182.907 E10.8379
G1 X107.341 Y182.393 E10.89611
G1 X106.868 Y181.972 E10.94034
G1 X106.507 Y181.626 E10.97526
G1 X106.104 Y181.194 E11.01653
G1 X105.714 Y180.736 E11.05854
G1 X105.405 Y180.336 E11.09385
G1 X105.32 Y180.218 E11.10401
G1 X104.986 Y179.732 E11.14519
G1 X104.693 Y179.252 E11.18447
G1 X104.397 Y178.714 E11.22736
G1 X104.138 Y178.179 E11.26888
G1 X103.892 Y177.583 E11.31391
G1 X103.624 Y176.819 E11.37046
G1 X103.405 Y176.052 E11.42618
G1 X103.373 Y175.91 E11.43634
G1 X103.256 Y175.342 E11.47685
G1 X103.166 Y174.752 E11.51854
G1 X103.106 Y174.17 E11.5594
G1 X103.077 Y173.564 E11.60178
G1 X103.076 Y172.747 E11.65884
G1 X103.087 Y172.258 E11.69301
G1 X105.703 Y97.545 E16.91463
G1 X105.76 Y94.823 E17.10479
G1 X105.739 Y92.076 E17.29667
G1 X105.641 Y89.33 E17.48859
G1 X105.468 Y86.626 E17.67784
G1 X105.214 Y83.884 E17.87017
G1 X104.888 Y81.19 E18.05971
G1 X104.479 Y78.46 E18.25252
G1 X103.878 Y75.18 E18.48543
G1 X103.844 Y74.945 E18.50202
G1 X103.75 Y74.074 E18.56321
G1 X103.721 Y73.541 E18.60049
G1 X103.732 Y72.729 E18.65721
G1 X103.773 Y72.127 E18.69935
G1 X103.884 Y71.33 E18.75556
G1 X103.992 Y70.776 E18.79498
G1 X104.193 Y70.02 E18.84962
G1 X104.382 Y69.436 E18.89249
G1 X104.712 Y68.621 E18.95391
G1 X104.937 Y68.145 E18.99068
G1 X105.297 Y67.497 E19.04246
G1 X105.625 Y66.972 E19.08569
G0 F1440 X112.421 Y139.245
;TYPE:SUPPORT
G1 F2400 X113.606 Y139.883 E19.1797
G1 X112.722 Y140.417 E19.25183
G1 X112.722 Y139.74 E19.29912
G1 X112.421 Y139.245 E19.33958
G0 F1440 X112.722 Y144.177
G1 F2400 X113.281 Y144.657 E19.39104
G1 X112.149 Y144.845 E19.47119
G1 X112.722 Y144.177 E19.53266
G1 F1500 E14.53266
G0 F1440 X117.556 Y143.726
G0 X118.138 Y142.325
G1 F1500 E19.53266
G1 F2400 X118.792 Y142.678 E19.58457
G1 X118.792 Y143.741 E19.65882
G1 X117.875 Y143.893 E19.72374
G1 X118.138 Y142.325 E19.83479
G1 F1500 E14.83479
G0 F1440 X117.556 Y143.726
G0 X116.497 Y143.877
G0 X111.128 Y148.964
G1 F1500 E19.83479
G1 F2400 X110.473 Y149.5 E19.89391
G1 X110.473 Y148.831 E19.94063
G1 X111.128 Y148.964 E19.98732
G0 F1440 X113.876 Y158.254
G1 F2400 X115.096 Y158.502 E20.07427
G1 X114.442 Y159.037 E20.13329
G1 X114.442 Y158.95 E20.13936
G1 X113.876 Y158.254 E20.20202
G0 F1440 X118.507 Y159.195
G1 F2400 X118.792 Y159.253 E20.22234
G1 X118.792 Y159.546 E20.2428
G1 X118.507 Y159.195 E20.27438
G1 F1500 E15.27438
G0 F1440 X118.715 Y162.333
G0 X118.508 Y164.125
G1 F1500 E20.27438
G1 F2400 X118.472 Y164.185 E20.27927
G1 X118.256 Y164.414 E20.30126
G1 X118.107 Y164.518 E20.31395
G1 X117.924 Y164.607 E20.32816
G1 X117.659 Y164.683 E20.34742
G1 X117.424 Y164.705 E20.3639
G1 X117.922 Y164.569 E20.39996
G1 X118.508 Y164.125 E20.45131
G0 F1440 X116.158 Y170.644
G1 F2400 X116.533 Y170.85 E20.4812
G1 X116.911 Y171.135 E20.51426
G1 X117.195 Y171.432 E20.54296
G1 X117.463 Y171.819 E20.57584
G1 X117.64 Y172.166 E20.60305
G1 X117.773 Y172.599 E20.63469
G1 X117.84 Y173.021 E20.66453
G1 X117.84 Y173.456 E20.69492
G1 X117.77 Y173.904 E20.72659
G1 X117.639 Y174.328 E20.75758
G1 X117.461 Y174.691 E20.78582
G1 X117.192 Y175.076 E20.81863
G1 X116.9 Y175.376 E20.84787
G1 X116.547 Y175.639 E20.87861
G1 X116.181 Y175.843 E20.90788
G1 X115.756 Y175.994 E20.93938
G1 X115.357 Y176.079 E20.96788
G1 X114.832 Y176.094 E21.00456
G1 X114.446 Y176.053 E21.03167
G1 X114.062 Y175.943 E21.05957
G1 X113.631 Y175.747 E21.09264
G1 X113.275 Y175.52 E21.12213
G1 X112.938 Y175.213 E21.15397
G1 X112.685 Y174.906 E21.18176
G1 X112.448 Y174.516 E21.21363
G1 X112.276 Y174.079 E21.24644
G1 X112.18 Y173.689 E21.27449
G1 X112.146 Y173.197 E21.30894
G1 X112.172 Y172.855 E21.33289
G1 X112.287 Y172.388 E21.36649
G1 X112.442 Y172.01 E21.39502
G1 X112.669 Y171.617 E21.42672
G1 X112.976 Y171.246 E21.46035
G1 X113.273 Y170.975 E21.48844
G1 X113.625 Y170.753 E21.5175
G1 X114.029 Y170.572 E21.54842
G1 X114.463 Y170.452 E21.57988
G1 X114.832 Y170.405 E21.60586
G1 X115.359 Y170.421 E21.64268
G1 X115.786 Y170.513 E21.67319
G1 X116.158 Y170.644 E21.70074
G0 F1440 X115.367 Y170.688
G1 F2400 X114.674 Y170.688 E21.74914
G0 F1440 X114.681 Y170.687
G1 F2400 X114.681 Y175.817 E22.10745
G0 F1440 X117.348 Y174.332
G1 F2400 X117.348 Y172.165 E22.25881
G0 F1440 X117.579 Y173.355
G1 F2400 X112.416 Y173.355 E22.61943
G1 F1500 E17.61943
;MESH:/Users/florian/Library/Application Support/snapmaker-luban/Tmp/98989376_47894000.stl
G0 F1440 X116.217 Y164.245
G0 X116.717 Y162.747
G0 X117.151 Y162.397
;TYPE:WALL-INNER
G1 F1500 E22.61943
G1 F2400 X117.15 Y162.461 E22.6239
G1 X117.077 Y162.832 E22.65031
G1 X116.909 Y162.828 E22.66204
G1 X116.708 Y162.764 E22.67678
G1 X116.658 Y162.725 E22.68121
G1 X116.393 Y162.517 E22.70474
G1 X116.227 Y162.204 E22.72948
G1 X116.11 Y161.539 E22.77664
G1 X116.084 Y161.068 E22.80959
G1 X116.07 Y160.79 E22.82903
G1 X116.068 Y160.618 E22.84105
G1 X116.103 Y160.625
G1 X116.376 Y160.68 E22.85497
G1 X117.172 Y160.843 E22.91172
G1 X117.172 Y161.711 E22.97235
G1 X117.151 Y162.397 E23.02029
G0 F1440 X117.052 Y162.395
G0 X116.131 Y160.695
G0 X115.522 Y159.894
;TYPE:WALL-OUTER
G1 F2400 X115.703 Y159.93 E23.03318
G1 X117.772 Y160.353 E23.18068
G1 X117.772 Y161.729 E23.27679
G1 X117.749 Y162.514 E23.33164
G1 X117.673 Y163.006 E23.36641
G1 X117.56 Y163.214 E23.38294
G1 X117.359 Y163.376 E23.40097
G1 X117.16 Y163.435 E23.41547
G1 X116.808 Y163.426 E23.44007
G1 X116.438 Y163.308 E23.46719
G1 X116.058 Y163.042 E23.49959
G1 X115.897 Y162.863 E23.51641
G1 X115.663 Y162.421 E23.55134
G1 X115.569 Y162.059 E23.57746
G1 X115.513 Y161.6 E23.60976
G1 X115.47 Y160.805 E23.66537
G1 X115.464 Y160.374 E23.69547
G1 X115.462 Y160.189 E23.70591
G1 X115.462 Y159.882 E23.72735
G1 X115.522 Y159.894
G0 F1440 X115.703 Y159.93
G0 X115.718 Y159.933
G0 X116.131 Y160.695
G0 X116.627 Y161.317
;TYPE:SKIN
G1 F2400 X116.634 Y161.606 E23.74943
G1 X116.676 Y162.214 E23.79597
G0 F1440 X116.876 Y161.283
G1 F2400 X116.626 Y161.032 E23.80422
G0 F1440 X116.7 Y161.324
G1 F1500 E18.80422
G0 F1440 X116.393 Y159.087
G0 X115.177 Y150.188
G0 X119.142 Y150.932
G0 X115.062 Y149.341
G0 X114.363 Y144.22
G0 X114.155 Y142.858
G0 X114.391 Y142.633
;TYPE:WALL-INNER
G1 F1500 E23.80422
G1 F2400 X114.342 Y142.641 E23.80768
G1 X114.342 Y142.567 E23.80976
G1 X114.342 Y142.311 E23.8214
G1 X114.477 Y142.382 E23.82204
G1 X114.83 Y142.567 E23.84067
G1 X114.391 Y142.633 E23.84986
G0 F1440 X116.583 Y142.865
G0 X116.726 Y142.884
;TYPE:WALL-OUTER
G1 F2400 X113.742 Y143.34 E24.0607
G1 X113.742 Y141.319 E24.20186
G1 X116.726 Y142.884 E24.43721
G0 F1440 X116.529 Y142.914
G1 F1500 E19.43721
G0 F1440 X116.486 Y142.87
G0 X117.181 Y145.733
G0 X121.277 Y148.477
;TYPE:WALL-INNER
G1 F1500 E24.43721
G1 F2400 X114.204 Y147.039 E24.94134
G1 X121.186 Y145.877 E25.43571
G1 X121.277 Y148.477 E25.61743
G0 F1440 X121.292 Y153.561
G1 F2400 X121.292 Y148.91 E25.94228
G1 X121.453 Y153.555 E25.98574
G1 X121.575 Y157.004 E26.2268
G1 X121.581 Y157.2 E26.24049
G1 X121.77 Y162.588 E26.61705
G1 X121.79 Y163.136 E26.65536
G1 X121.81 Y163.722 E26.69631
G1 X122.135 Y172.978 E27.34321
G1 X122.121 Y173.721 E27.39511
G1 X122.042 Y174.426 E27.44466
G1 X121.886 Y175.131 E27.49509
G1 X121.674 Y175.783 E27.54298
G1 X121.374 Y176.462 E27.59483
G1 X121.02 Y177.086 E27.64494
G1 X120.6 Y177.677 E27.69558
G1 X120.14 Y178.204 E27.74444
G1 X119.63 Y178.682 E27.79326
G1 X119.055 Y179.125 E27.84396
G1 X118.444 Y179.503 E27.89414
G1 X117.809 Y179.813 E27.9435
G1 X117.147 Y180.059 E27.99282
G1 X116.434 Y180.243 E28.04426
G1 X115.714 Y180.353 E28.09513
G1 X115 Y180.388 E28.14506
G1 X114.287 Y180.353 E28.19492
G1 X113.568 Y180.243 E28.24572
G1 X112.903 Y180.073 E28.29366
G1 X112.206 Y179.818 E28.3455
G1 X111.592 Y179.521 E28.39314
G1 X110.974 Y179.144 E28.4437
G1 X110.567 Y178.835 E28.4794
G1 X110.369 Y178.682 E28.49687
G1 X109.883 Y178.228 E28.54333
G1 X109.392 Y177.665 E28.5955
G1 X108.98 Y177.086 E28.64514
G1 X108.626 Y176.462 E28.69525
G1 X108.335 Y175.806 E28.74537
G1 X108.12 Y175.15 E28.79359
G1 X107.961 Y174.438 E28.84454
G1 X107.878 Y173.734 E28.89406
G1 X107.865 Y172.978 E28.94687
G1 X108.32 Y160.011 E29.85312
G1 X108.332 Y159.658 E29.87779
G1 X108.678 Y159.728 E29.89305
G1 X111.943 Y160.393 E30.12578
G1 X111.943 Y160.722 E30.14876
G1 X111.958 Y161.709 E30.21771
G1 X112.022 Y162.569 E30.27794
G1 X112.144 Y163.277 E30.32812
G1 X112.35 Y164.015 E30.38164
G1 X112.638 Y164.669 E30.43155
G1 X113.029 Y165.262 E30.48117
G1 X113.695 Y165.967 E30.54891
G1 X114.086 Y166.25 E30.58262
G1 X114.305 Y166.408 E30.60148
G1 X114.797 Y166.659 E30.64006
G1 X114.994 Y166.76 E30.65552
