;Header Start

;FLAVOR:Marlin
;TIME:6666
;Filament used: 0m
;Layer height: 0.16
;MINX:2.14748e+06
;MINY:2.14748e+06
;MINZ:2.14748e+06
;MAXX:-2.14748e+06
;MAXY:-2.14748e+06
;MAXZ:-2.14748e+06


;header_type: 3dp
;thumbnail: data:image/png;base64,iVBORw0KGgoAAAANSUhEUgAAASwAAACWCAYAAABkW7XSAAARpUlEQVR4Xu2dya8cxR3H22yWyC2IxTaLt7BIbMYYLnAAvCRCRHBGIkSOCCZgIqEcyB8QLqzB3FAkDlxQkBCy84yfOeEL+35A3hB4A06xYiFWR99+/Ma/V1Mz3T0zz35V9WnpaaZ7urrr9/1Vffr3q6qZt+DYsW+PV2wogAIokIACCwBWAl6iiiiAArUCAIuGgAIokIwCACsZV1FRFEABgEUbQAEUSEYBgJWMq6goCqAAwKINoAAKJKMAwErGVVQUBVAAYNEGUAAFklEAYCXjKiqKAigAsGgDKIACySgAsJJxFRVFARQAWLQBFECBZBQAWMm4ioqiAAoALNoACqBAMgoArGRcRUVRAAUAFm0ABVAgGQUAVjKuoqIogAIAizaAAiiQjAIAKxlXUVEUQAGARRtAARRIRgGAlYyrqCgKoADAog2gAAokowDASsZVVBQFUABg0QZQAAWSUQBgJeMqKooCKACwaAMogALJKACwknEVFUUBFABYtAEUQIFkFABYybiKiqIACgAs2gAKoEAyCgCsZFxFRVEABQAWbQAFUCAZBQBWMq6ioiiAAgCLNoACKJCMAgArGVdRURRAAYBFG0ABFEhGAYCVjKuoKAqgAMCiDaAACiSjAMBKxlVUFAVQAGDRBlAABZJRAGAl4yoqigIoALBoAyiAAskoALCScRUVRQEUAFi0ARRAgWQUAFjJuIqKogAKACzaAAqgQDIKAKxkXEVFUQAFABZtAAVQIBkFAFYyrqKiKIACAIs2gAIokIwCACsZV1FRFEABgEUbQAEUSEYBgJWMq6goCqAAwKINoAAKJKMAwErGVVQUBVAAYNEGUAAFklEAYCXjKiqKAigAsGgDKIACySgAsJJxFRVFARQAWLQBFECBZBQAWMm4ioqiAAoALNoACqBAMgoArGRcNXpF33jjjb7Cu3b1Hxt2h5tuurnv45tv7j82ei0piQLNCgCsZo3m9RmCkYePwUnHFi9eXC1YsKBasmRJzwbta7Njtj/IyOPHj9cfHTx4sPLv7Xwd12ZAW7JkcbV8+YrefheomS32umbNmuq0006rr//zzz9XS5curQ4fPlLvP/ro36su157XTqRyrRUAWK2l6j8xhIUgsGvXrqqqjlcHDhzsdSh15nE6l4eQauHvu2jRokp/Ak8IKB2zP5Xz7701w6BlkNL59t6/6r3+DGjvvPNOfenDhw/3biH7BRhtoQ6PPfaP+rhsOnr0v9WFF15Yff3119WhQ4fq91Y3u4dsFLy0f/bZv5rlFLt2GA2Oo/0YzYOic6AAwBpBVHWu22//Xa/kNddcUz/9Tz/99F7Hfeutt2qQXHDBBfWxjRv/1HinMHUblLbpfurI1113Xf2qKMTDyTr5yQSWgctgoldBZ/v27bPsNngJIp999lm1Zs3q3ufnn39+df3119c6XnTRRbPs8tf/6aefqjfffLN6//33Z11bMFM52w4cONB7Lx94kOn+4X6jgzjhlCsAsDq6QBHBnj17qnPO+XV1xhln1J3SRwGKstRZ9aeO9cMPP1Rvv/129cknn3S8U//pV155ZXXttdfWHdn+DEohtHxEFQIsvPIkIqwYsKSB7H/xxRf7jDl69H99wIoJJD1VP8FHEZeP+AQo7euhINidddZZtU9ME+kfRoiWwupe8l24bxALozWitLGb70QuALA6yOgjK3UWdSaBQh1JmzqVdRB1VnUGnxp1uFX01BBYProaBViqb5sxLLNvWEo4CFjvvfde9dFHH82yR3DZtm2q1uree++pPv3001mfKzK966676kjLxrDsBLtPGHEJTm2AFQobS3kFMgOaf+8jMktxFy9eVK1YsXJc11K+pQIAq6VQOm337t3V6tWroiUU+VgHsw4uqGmzaMg62eeff17DLUxp2lTl6quv7kVZMWAZIO3VOpyu7aOJNvcadI4fxJeNFukINAL1u+++W8MoZp90kg2bN/+1Pkeptcas/KZUV6ndxRdf3BpYuu+ZZ55ZR1gGuViE1QZY/hwPtBjITGeD2aCxunH0puwJBQBWh9YgYG3c+Mfqgw8+6Cu1YcOG6pJLLpnVYQxQBjLb//HHH6vvv/++jm6OHDlSKQqxJ3rb6igN0mYD7uo4k4zm2taj6bzVq1fXYFI9FVkJLALZypW/qV5++d9NxevPfQRrBSw9NE3twaBX6WqgsYeGjvv32hd4YxHWIGDZ8bCMdNcx80EIMRsvI61s5e6hJwGsjho+/PBDNbBi0YM65w033FBHWto8sGxcRR3WA8uncipjjV3jXtb5JhUZGdxsqYOND4VpoeqtQW2zwUdpg+SyFFllLeKycr4zh+V9tGZgCs8ZdNwPqluZ8Fhb7UKw2b40C7cY5Pwx86OPMonEOna0AacDrI46bt78YJ1yKDIStMKoRg39xhtvrKMCmzETwDywlKp89913vWOWwoSzegYsvcZSOxuM9ia07aAdzZ51us1OCjYGPQOs7h8CztLGcOlFuMwiBGeb8bWYHX6szd6HM4Y+vWujhQeYQczDLASWwd5HZRaBqe3ozzZb9jLu8pc2dqR+DsDq6MFnn32m2rt3bw82angas4mlY+rMWvwoeFkkZbOHSgkNSOGSBN9R/QyfVTV2zJvR1NFjJn/55Zf1rKY6tuyJbVpOIVhZiqvzdC9be+XL6DxtWqZgtnt7w/cezqGdg1wUg4SBIjZBEPtM5wle+hslrTZoyd4wGgvr4CGmdqAlH1999VWfeScW4S6pli9fPtIi3I7NOpnTAVZHV4XAMjj48Ys2KZQatxq5LfaMraPynbgJYqEZXaFlIP3iiy+qrVu39qmybt26uq6Cz4cfftgbdwtP1KC67PKp7nwBVttZTvlS0XMMJk3NxUdfMaDq2nrInXvuuTXs/YTDnXfeWU806Lj8IV/owaYHwjfffFPf2q9ja6pLjp8DrI5enZr6T/Xaa9tnLdT0EYEamwFLEUgTvNTAFYWE4BoWTTVFWB50ipjCdMibbGNIur/Os9QulOXuu++uJxQEq9ikgwbU169f34u+UgaWQCNgCCyydxRwNTUrAUsPgYULF9Yw0r38mj6Lxnz7ka/UXu655w/1UooSB/EBVlPLCj43YOmwjxxiKY4dU6OztGkYwGysxyBi40OD0qVYFCXoaBxJfwYqwURpqZ7eWi6gcnp6KwV89dVXGxU477zzqrVr19bLBl544YXo+VdddVW93MLSxVGBZXVuGyH6KMavFxsUTcXSQsHJjvuV+rYAWOvIJrHwNxROKbZ8bkMGsQXBvr6yST575ZVX6vRVSyhsGUWjEzM5AWB1dOQowPK38BGYRTPDIObhFc6o2QC7wcn2LS3x42o6Fi5y9QP0SuPs6zThuqhbbrmlfrILWFqC8fHHH0dVU4RlaeMgYNl4kXTw9e/ohsbTY2vFVMhmMD3QDFgGK4uwDFia1X3ppZca7znOCTaob9D136PUdW1Rsuqkh5+ico1vPf/8v8a5bXJlAdYILtuy5Z/113Ns4aZdIpz1GhQZxY6r86q8n20boWp1ET25NVNp0Y6By0ctfvmBntr2NaKpqam+FMgDS+cJWEqVYpvWh61ataqePVSaY2N7TanxqLaOWk6AsC+OSwvV25aheGDJXkVY4Wr82H1t1tS3Bx8lj1pXK2frxizS0rq/Bx54cNzLJlUeYI3ori1bnq327p2Blh9TapqaHzb+FEuDDGSW5qm6bZYuqDNqTZiuaWmgXd93TBvj0rFwdlDgUYe94ooravgpwtK+3mtcR2NZfnp+RClbFwvXY8XWYbW+WHCiRaWCveClSEb2hV8r8sVUxiAVrmkLH15tU9xh9Te/2QTJbbetrTZs+O2oJidZDmCN4bbnntvSg5aPmmIzev6pG4uwBh0bdtyDywOtLdS86epwli7pVeNegpPSIa0ZE6Q06K5j9vUX65S2Wn8SK+0FAUsrBSifGoWdPgSv9gUxW6IwqmsFrGEgttX7fslGbJZ3WDsYpW4Aq6oA1igtx5XRjOGOHa/VR2LR06CIa9ATN3a87dN5UNlYRGZjPOFYTpgOtQGWT40FLe23mWQIpRcoBAMbhPYLbmPg9sAKx51sTdmOHTvG9PBMccFJm8FK9zO7Q1i1aQejVCoE1n333V+tXFnWF68B1igtJ1JG4JqenukcbSKsLlHWuMAK7+Vn1toC6/LLL68eeeRv1aZNf+6LsDywwhRZ97bper8Kvk1aq7KxX0s1+f13Ac0O/8uoSp26LkmwSNPuYaDycNRnpxJYFvnef/+m+juZJW0Aa8Le1riWwKXV8DEoNaUJXSKvsOrDojP/WVdgafGiYHXZZZdVTz/9ZG+lfzgTaPaGEcagfZ1v4NI59j42NtUWcDF3eujp8/DncrQfg59BygAVQqtthNX2gdPUFH0Uqcj38cefbCqS3ecAa45cKmBNTytVXFDt2zcDr6boa1DUNey4r35bYFkHDF/DNUj2JPfAeuqpJ2t7ws4afh/S13kYsNpoEtOurds8nMMy4Wdt1m55iA0DVtODqW397bxwBlM/jPjEE091vUzy5wOsk+DCGXjNpIv79++LwqupU7Z9SrcdM4t1ztiiST3J9fPPirC0AayZ37DXZhFm7MvrcwksPUjkk02b/nISWu/8ugXAOsn+sGhrenq60j+w2bfvBMDGjbBi5WMDwG0jLPspHA+sbdu2Vtu3TxFhuR9mDMft/H7b6LipGfoBd/nl1ltvK25JQ63lsWPfzjwu2E6JAgawnTunf4nA9kfrcSojrPXrN1R33PH7Xr2eeebpejnHJMawwg49zM62Gvg0aphTh6WEg9JDnxKGv6tvthiwli1bVt++a73DOi9dOnMdq5PWX5W6Aax56HmLul5/fQZi2m/b6CeREqpjKO2wCOuhhx6uLr300llKhb9aMR/HsLqMX4VRpwdW+N6nhLJ73br1tTb6f4z6ugzb3CkAsOZO24lf+QTIdv4Sjc1OJwc9zcMUJeycth9+l04dcdhK6j17dte/XKExulyA1XbgXbroFxNWrFgxcT9zwcEKAKwMWoeBTAP6+/efSCltgL8NsJR2WAqzbNnyTh1R36v0M6JdljV4yDZFkU2fh64cJcJqApYgrhSZ7dQoALBOje4n/a4eZLq5wWnSFbH1Zzt37uhNKLRd1tAEpKbPxwFWDFQWeSrNU7pnqd+kNeN67RUAWO214swRFDgxqbCzNyvadpwtvN3JApYApShT29q160awmiJzpQDAmitlue5QBWJprJZ5hJGgv8gkgWUzbz4NZsB8/jdagDX/fVRsDf0iW4kwDGaDRPKpr0VNxQqageEAKwMnYgIKlKIAwCrF09iJAhkoALAycCImoEApCgCsUjyNnSiQgQIAKwMnYgIKlKIAwCrF09iJAhkoALAycCImoEApCgCsUjyNnSiQgQIAKwMnYgIKlKIAwCrF09iJAhkoALAycCImoEApCgCsUjyNnSiQgQIAKwMnYgIKlKIAwCrF09iJAhkoALAycCImoEApCgCsUjyNnSiQgQIAKwMnYgIKlKIAwCrF09iJAhkoALAycCImoEApCgCsUjyNnSiQgQIAKwMnYgIKlKIAwCrF09iJAhkoALAycCImoEApCgCsUjyNnSiQgQIAKwMnYgIKlKIAwCrF09iJAhkoALAycCImoEApCgCsUjyNnSiQgQIAKwMnYgIKlKIAwCrF09iJAhkoALAycCImoEApCgCsUjyNnSiQgQIAKwMnYgIKlKIAwCrF09iJAhkoALAycCImoEApCgCsUjyNnSiQgQIAKwMnYgIKlKIAwCrF09iJAhkoALAycCImoEApCgCsUjyNnSiQgQIAKwMnYgIKlKIAwCrF09iJAhkoALAycCImoEApCgCsUjyNnSiQgQIAKwMnYgIKlKIAwCrF09iJAhkoALAycCImoEApCgCsUjyNnSiQgQIAKwMnYgIKlKIAwCrF09iJAhkoALAycCImoEApCgCsUjyNnSiQgQIAKwMnYgIKlKIAwCrF09iJAhkoALAycCImoEApCvwf538oi05q+W4AAAAASUVORK5CYII=
;file_total_lines: 93245
;estimated_time(s): 6862.9800000000005
;nozzle_temperature(°C): 205
;build_plate_temperature(°C): 70
;work_speed(mm/minute): 3000
;max_x(mm): 55.24171829290755
;max_y(mm): 23.246095657348647
;max_z(mm): 6.500000000000012
;min_x(mm): -21.24738883972168
;min_y(mm): -28.087679664378175
;min_z(mm): 0

;Header End

; G-code for 3dp engraving
; Generated by Snapmaker Luban 4.1.3
; Tue Jan 04 2022 10:40:30

M82 ;absolute extrusion mode
;Start GCode begin
M104 S205
M140 S70
G28 ;home
G90 ;absolute positioning
G1 X-10 Y-10 F3000
G1 Z0 F1800
M109 S205;Wait for Hotend Temperature
M190 S70;Wait for Bed Temperature
G92 E0
G1 E20 F200
G92 E0
;Start GCode end
G92 E0
G92 E0
G1 F1500 E-5
;LAYER_COUNT:39
;LAYER:0
M107
G0 F1440 X103.927 Y108.023 Z0.28
;TYPE:SKIRT
G1 F1500 E0
G1 F2400 X104.03 Y107.925 E0.00993
G1 X105.258 Y106.805 E0.12602
G1 X105.365 Y106.711 E0.13597
G1 X106.613 Y105.654 E0.2502
G1 X106.725 Y105.563 E0.26028
G1 X108.049 Y104.523 E0.37787
G1 X108.166 Y104.434 E0.38814
G1 X109.521 Y103.45 E0.5051
G1 X109.638 Y103.369 E0.51504
G1 X111.004 Y102.451 E0.63
G1 X111.124 Y102.374 E0.63995
G1 X112.535 Y101.499 E0.75592
G1 X112.661 Y101.424 E0.76616
G1 X114.119 Y100.594 E0.88334
G1 X114.244 Y100.525 E0.89331
G1 X115.701 Y99.765 E1.00809
G1 X115.832 Y99.7 E1.01831
G1 X117.451 Y98.931 E1.1435
G1 X117.561 Y98.881 E1.15194
G1 X118.318 Y98.551 E1.20962
G1 X118.997 Y98.301 E1.26015
G1 X119.631 Y98.121 E1.30619
G1 X120.181 Y98 E1.34552
G1 X121.586 Y97.757 E1.44511
G1 X121.796 Y97.723 E1.45997
G1 X124.476 Y97.215 E1.65049
G1 X127.15 Y96.629 E1.84169
G1 X129.788 Y95.971 E2.03159
G1 X132.374 Y95.249 E2.21912
G1 X135.445 Y94.289 E2.44386
G1 X136.518 Y93.934 E2.5228
G1 X136.64 Y93.896 E2.53172
G1 X137.589 Y93.618 E2.60079
G1 X137.814 Y93.562 E2.61699
G1 X138.619 Y93.381 E2.67462
G1 X138.941 Y93.32 E2.69751
G1 X139.843 Y93.179 E2.76127
G1 X140.198 Y93.135 E2.78626
G1 X140.992 Y93.063 E2.84194
G1 X141.369 Y93.041 E2.86832
G1 X142.198 Y93.02 E2.92624
G1 X142.547 Y93.023 E2.95062
G1 X143.425 Y93.059 E3.012
G1 X143.815 Y93.088 E3.03931
G1 X144.57 Y93.169 E3.09235
G1 X144.983 Y93.227 E3.12148
G1 X145.78 Y93.365 E3.17797
G1 X146.14 Y93.439 E3.20364
G1 X146.979 Y93.641 E3.26392
G1 X147.334 Y93.74 E3.28966
G1 X148.216 Y94.016 E3.35421
G1 X148.434 Y94.094 E3.37038
G1 X149.322 Y94.438 E3.4369
G1 X149.555 Y94.538 E3.45461
G1 X150.456 Y94.958 E3.52404
G1 X150.687 Y95.076 E3.54216
G1 X151.407 Y95.468 E3.59942
G1 X151.516 Y95.53 E3.60818
G1 X152.456 Y96.082 E3.68431
G1 X153.004 Y96.418 E3.72921
G1 X155.34 Y97.76 E3.91738
G1 X157.735 Y99.05 E4.10739
G1 X160.15 Y100.26 E4.29605
G1 X162.643 Y101.424 E4.48822
G1 X165.113 Y102.494 E4.67624
G1 X167.691 Y103.525 E4.87017
G1 X168.754 Y103.919 E4.94935
G1 X169.541 Y104.246 E5.00887
G1 X169.957 Y104.454 E5.04136
G1 X170.423 Y104.724 E5.07898
G1 X171.192 Y105.272 E5.14493
G1 X171.881 Y105.898 E5.20995
G1 X172.518 Y106.638 E5.27815
G1 X173.009 Y107.363 E5.33931
G1 X173.265 Y107.826 E5.37626
G1 X173.644 Y108.697 E5.44261
G1 X173.915 Y109.599 E5.50839
G1 X174.044 Y110.252 E5.55488
G1 X174.115 Y110.994 E5.60694
G1 X174.124 Y111.48 E5.6409
G1 X174.102 Y111.997 E5.67704
G1 X173.988 Y112.87 E5.73853
G1 X173.865 Y113.461 E5.7807
G1 X173.72 Y114.031 E5.82178
G1 X173.211 Y115.822 E5.95182
G1 X173.169 Y115.959 E5.96183
G1 X172.644 Y117.576 E6.08058
G1 X172.598 Y117.71 E6.09047
G1 X172.04 Y119.238 E6.20409
G1 X171.988 Y119.374 E6.21426
G1 X171.355 Y120.925 E6.33127
G1 X171.297 Y121.059 E6.34147
G1 X170.628 Y122.537 E6.45478
G1 X170.566 Y122.667 E6.46484
G1 X169.799 Y124.208 E6.58507
G1 X169.734 Y124.334 E6.59497
G1 X168.955 Y125.766 E6.70884
G1 X168.883 Y125.892 E6.71897
G1 X168.033 Y127.325 E6.83534
G1 X167.957 Y127.448 E6.84544
G1 X167.045 Y128.863 E6.96302
G1 X166.965 Y128.983 E6.9731
G1 X166.026 Y130.328 E7.08767
G1 X165.942 Y130.443 E7.09762
G1 X164.92 Y131.798 E7.21616
G1 X164.83 Y131.913 E7.22636
G1 X163.804 Y133.173 E7.33985
G1 X163.712 Y133.282 E7.34982
G1 X162.617 Y134.53 E7.46578
G1 X162.52 Y134.636 E7.47582
G1 X161.364 Y135.86 E7.59341
G1 X161.261 Y135.965 E7.60368
G1 X160.075 Y137.129 E7.71975
G1 X159.972 Y137.227 E7.72968
G1 X158.758 Y138.335 E7.84448
G1 X158.648 Y138.431 E7.85468
G1 X157.341 Y139.537 E7.97427
G1 X157.229 Y139.629 E7.98439
G1 X155.954 Y140.629 E8.09757
G1 X155.841 Y140.714 E8.10744
G1 X154.488 Y141.698 E8.2243
G1 X154.37 Y141.78 E8.23433
G1 X153.005 Y142.698 E8.34923
G1 X152.882 Y142.778 E8.35948
G1 X151.44 Y143.671 E8.47794
G1 X151.316 Y143.745 E8.48803
G1 X149.905 Y144.548 E8.60142
G1 X149.782 Y144.615 E8.61121
G1 X148.262 Y145.409 E8.73099
G1 X148.128 Y145.475 E8.74142
G1 X146.533 Y146.232 E8.86473
G1 X146.419 Y146.284 E8.87349
G1 X145.679 Y146.605 E8.92983
G1 X144.973 Y146.865 E8.98238
G1 X144.356 Y147.039 E9.02715
G1 X143.814 Y147.158 E9.06591
G1 X142.393 Y147.404 E9.16664
G1 X142.149 Y147.444 E9.18391
G1 X139.536 Y147.94 E9.36967
G1 X136.834 Y148.532 E9.56288
G1 X134.225 Y149.183 E9.75069
G1 X131.586 Y149.921 E9.94209
G1 X128.993 Y150.726 E10.13173
G1 X127.487 Y151.222 E10.24247
G1 X127.37 Y151.259 E10.25104
G1 X126.429 Y151.534 E10.31952
G1 X126.18 Y151.597 E10.33746
G1 X125.399 Y151.772 E10.39336
G1 X125.007 Y151.847 E10.42124
G1 X124.179 Y151.977 E10.47978
G1 X123.838 Y152.018 E10.50377
G1 X122.868 Y152.104 E10.57178
G1 X122.589 Y152.119 E10.5913
G1 X121.804 Y152.138 E10.64615
G1 X121.413 Y152.135 E10.67346
G1 X120.586 Y152.101 E10.73127
G1 X120.248 Y152.076 E10.75494
G1 X119.384 Y151.984 E10.81563
G1 X119.025 Y151.934 E10.84095
G1 X118.182 Y151.788 E10.9007
G1 X117.862 Y151.721 E10.92354
G1 X117.012 Y151.516 E10.98461
G1 X116.665 Y151.419 E11.00978
G1 X115.898 Y151.18 E11.06589
G1 X115.57 Y151.066 E11.09014
G1 X114.598 Y150.689 E11.16296
G1 X114.371 Y150.59 E11.18026
G1 X113.597 Y150.23 E11.23988
G1 X113.334 Y150.097 E11.26046
G1 X112.572 Y149.682 E11.32107
G1 X112.457 Y149.617 E11.3303
G1 X111.551 Y149.083 E11.40375
G1 X111.079 Y148.794 E11.44241
G1 X108.754 Y147.454 E11.62984
G1 X106.333 Y146.149 E11.82194
G1 X103.933 Y144.942 E12.00958
G1 X101.441 Y143.775 E12.20177
G1 X98.99 Y142.711 E12.3884
G1 X96.396 Y141.67 E12.58363
G1 X95.355 Y141.285 E12.66115
G1 X95.016 Y141.15 E12.68664
G1 X94.404 Y140.888 E12.73314
G1 X93.613 Y140.463 E12.79585
G1 X93.216 Y140.198 E12.82919
G1 X92.796 Y139.88 E12.86599
G1 X92.112 Y139.258 E12.93056
G1 X91.513 Y138.571 E12.99423
G1 X91.227 Y138.175 E13.02834
G1 X90.951 Y137.738 E13.06444
G1 X90.546 Y136.946 E13.12658
G1 X90.35 Y136.463 E13.16298
G1 X90.077 Y135.547 E13.22974
G1 X89.978 Y135.053 E13.26493
G1 X89.878 Y134.13 E13.32978
G1 X89.887 Y133.217 E13.39355
G1 X89.938 Y132.709 E13.42921
G1 X90.044 Y132.089 E13.47315
G1 X90.229 Y131.306 E13.52934
G1 X90.31 Y130.998 E13.55158
G1 X90.781 Y129.342 E13.67184
G1 X90.822 Y129.205 E13.68183
G1 X91.338 Y127.615 E13.79858
G1 X91.385 Y127.481 E13.8085
G1 X91.957 Y125.915 E13.92495
G1 X92.009 Y125.78 E13.93505
G1 X92.642 Y124.228 E14.05212
G1 X92.701 Y124.091 E14.06254
G1 X93.377 Y122.599 E14.17695
G1 X93.437 Y122.471 E14.18683
G1 X94.186 Y120.966 E14.30424
G1 X94.252 Y120.841 E14.31412
G1 X95.039 Y119.394 E14.42916
G1 X95.111 Y119.267 E14.43936
G1 X95.966 Y117.826 E14.55639
G1 X96.041 Y117.705 E14.56634
G1 X96.93 Y116.324 E14.68105
G1 X97.012 Y116.201 E14.69138
G1 X97.988 Y114.804 E14.81041
G1 X98.072 Y114.689 E14.82035
G1 X99.056 Y113.385 E14.93445
G1 X99.143 Y113.273 E14.94436
G1 X100.201 Y111.972 E15.06149
G1 X100.297 Y111.859 E15.07184
G1 X101.391 Y110.614 E15.1876
G1 X101.485 Y110.511 E15.19734
G1 X102.609 Y109.32 E15.31172
G1 X102.714 Y109.213 E15.3222
G1 X103.927 Y108.023 E15.44088
G0 F1440 X104.347 Y108.451
G1 F2400 X104.434 Y108.369 E15.44923
G1 X105.662 Y107.249 E15.56532
G1 X105.753 Y107.169 E15.57378
G1 X107.001 Y106.112 E15.68801
G1 X107.096 Y106.035 E15.69656
G1 X108.42 Y104.995 E15.81415
G1 X108.519 Y104.92 E15.82283
G1 X109.874 Y103.936 E15.93979
G1 X109.972 Y103.867 E15.94816
G1 X111.338 Y102.949 E16.06311
G1 X111.44 Y102.883 E16.0716
G1 X112.851 Y102.008 E16.18757
G1 X112.957 Y101.945 E16.19618
G1 X114.415 Y101.115 E16.31336
G1 X114.522 Y101.057 E16.32186
G1 X115.979 Y100.297 E16.43664
G1 X116.089 Y100.242 E16.44523
G1 X117.802 Y99.43 E16.57764
G1 X118.456 Y99.144 E16.62749
G1 X119.194 Y98.867 E16.68255
G1 X119.766 Y98.706 E16.72406
G1 X120.283 Y98.591 E16.76105
G1 X121.682 Y98.349 E16.86021
G1 X121.929 Y98.309 E16.87769
G1 X124.605 Y97.801 E17.06794
G1 X127.261 Y97.219 E17.25785
G1 X129.907 Y96.559 E17.44833
G1 X132.554 Y95.821 E17.64026
G1 X135.671 Y94.846 E17.86837
G1 X136.706 Y94.504 E17.94451
G1 X137.637 Y94.228 E18.01233
G1 X137.946 Y94.147 E18.03465
G1 X138.751 Y93.966 E18.09228
G1 X139.033 Y93.913 E18.11232
G1 X140.04 Y93.757 E18.18349
G1 X140.252 Y93.732 E18.1984
G1 X141.046 Y93.66 E18.25409
G1 X141.384 Y93.641 E18.27773
G1 X142.213 Y93.62 E18.33565
G1 X142.522 Y93.623 E18.35724
G1 X143.511 Y93.665 E18.42638
G1 X143.751 Y93.685 E18.4432
G1 X144.506 Y93.766 E18.49623
G1 X144.881 Y93.818 E18.52268
G1 X145.779 Y93.975 E18.58635
G1 X145.999 Y94.023 E18.60208
G1 X146.838 Y94.225 E18.66235
G1 X147.156 Y94.313 E18.6854
G1 X148.021 Y94.584 E18.74871
G1 X148.217 Y94.654 E18.76325
G1 X149.105 Y94.998 E18.82976
G1 X149.303 Y95.082 E18.84479
G1 X150.188 Y95.494 E18.91297
G1 X150.4 Y95.603 E18.92962
G1 X151.12 Y95.995 E18.98688
G1 X151.212 Y96.047 E18.99426
G1 X152.142 Y96.594 E19.06962
G1 X152.674 Y96.921 E19.11324
G1 X155.039 Y98.279 E19.30372
G1 X157.464 Y99.585 E19.4961
G1 X159.91 Y100.811 E19.6872
G1 X162.392 Y101.969 E19.8785
G1 X164.875 Y103.045 E20.06751
G1 X167.483 Y104.088 E20.2637
G1 X168.537 Y104.478 E20.34219
G1 X169.304 Y104.797 E20.40022
G1 X169.656 Y104.974 E20.42773
G1 X170.122 Y105.244 E20.46535
