;Header Start

;FLAVOR:Marlin
;TIME:6666
;Filament used: 0m
;Layer height: 0.16
;MINX:2.14748e+06
;MINY:2.14748e+06
;MINZ:2.14748e+06
;MAXX:-2.14748e+06
;MAXY:-2.14748e+06
;MAXZ:-2.14748e+06


;header_type: 3dp
;thumbnail: data:image/png;base64,iVBORw0KGgoAAAANSUhEUgAAASwAAACWCAYAAABkW7XSAAARyElEQVR4Xu2dSY8cRRqGs1n9B9gXyTb2iX0xF7jZYA8jITjAhQMaS1xojMFwgB8wZo6Ah0VikIYDh+FqjxcaLixiXyUOjI3NbuBsIbF59GbrK76OjszKrKiKruh6UmpVVlVmRuQTkU9/ERkZNXfixM8nKxYIQAACBRCYQ1gFlBJZhAAEagIIi4oAAQgUQwBhFVNUZBQCEEBY1AEIQKAYAgirmKIioxCAAMKiDkAAAsUQQFjFFBUZhQAEEBZ1AAIQKIYAwiqmqMgoBCCAsKgDEIBAMQQQVjFFRUYhAAGERR2AAASKIYCwiikqMgoBCCAs6gAEIFAMAYRVTFGRUQhAAGFRByAAgWIIIKxiioqMQgACCIs6AAEIFEMAYRVTVGQUAhBAWNQBCECgGAIIq5iiIqMQgADCog5AAALFEEBYxRQVGYUABBAWdQACECiGAMIqpqjIKAQggLCoAxCAQDEEEFYxRUVGIQABhEUdgAAEiiGAsIopKjIKAQggLOoABCBQDAGEVUxRkVEIQABhUQcgAIFiCCCsYoqKjEIAAgiLOgABCBRDAGEVU1RkFAIQQFjUAQhAoBgCCKuYoiKjEIAAwqIOQAACxRBAWMUUFRmFAAQQFnUAAhAohgDCKqaoyCgEIICwqAMQgEAxBBBWMUVFRiEAAYRFHYAABIohgLCKKSoyCgEIICzqAAQgUAwBhFVMUZFRCEAAYVEHIACBYgggrGKKioxCAAIIizoAAQgUQwBhFVNUZBQCEEBY1AEIQKAYAgirmKIioxCAAMKiDkAAAsUQQFjFFBUZhQAEEBZ1AAIQKIYAwiqmqMgoBCCAsKgDEIBAMQQQVjFFRUYhAAGERR0YG4HXXnttcKzXX/9zPSWBG264ccnuN9649H3Ksdm3PAIIq7wyW7EcS0heRPb+/PPPr/N0wQUXVHNzc/X6hRdeuCyf+sy+j53EyZMnq2+++WbJV/rs22+/rfSqRetavvvuu8pkJon59RUDRMITJ4CwJo643ARMSKGorrrqqlo81157bf16yimn1Cepdf9nZ+4lNUxYnpYkZX/63L/3AtP6Bx98UH9//Pjx+hAxmfljd4nUnn/+X9XOnfcPZHz99dfX5/fHH39Ux44dqz788MNBOo888mjV5Zjl1obpyDnCmo5ymKpcSFC7d/99STR19tlnV+edd14lWZ166qkDUa2ksExgEojW9arI6+OPP65++OGHZKZ33XVXtWbNmvpYOmcdOxSu0hSXzZu3VOvXX4K0kqm3HwBhTRhwiYeXrPTnl0svvXQgq0kIyyKmPhFWTFi///579dtvv1ULCwvVTz/9lIT/3HPPrdTcVVNWUaRkddFFFw2k9fXXX9ei1Kuaqt9//321b99+pJVEHWFNEN/qPPS+fXurxx7bXUcW1sTSmZ5zzjm1tHTx6kK2izhsEvpIRH1Sbc3AJoLqD/PNQL0Pm4ReWBZlqZmm9U8//bRX4Vx99dXVxRdfPDgnn5byLyFZBCcpxiI4CW7fvv9WGzZs7JU2G3cnQITVndXMbClhHTiwv24GmbQkIUUQtqgZpEXiss+1zaQX6+DXq/LgO+G9XIfl45prrqk3kagsujvzzDMHzV19JjHp1cSs97/++mv1zjvv1M1Ov0hWW7durZ54Ys+wpPk+gQDCSoC3GndVU/Dzzz+v3njj9Tq6uu666wad6nYXLxST5DGqrNTcsjuB4+apqMwEZ3LV+1ikJimdfvrpjcLS/m+//Xb17rvvLsumok79SWhPPvnPcZ8Gx3MEENYMVQcbJ3X06BeDyESnb5+ryffFF0fqqEoCUtSgKMsPUfjqq6/qiEoXvr7XRWp9RYp49Nn777+/pCkZQ+yHQHQtAmsmhtv75qPfxt9h1D4WSXURlpp/+lM0pSahXsNF0ZlEZcdTp/uOHYt3FVkmQwBhTYZr9qOadMJxUqGchmVs+/btg0jDmkLWB+X7jKxze+/evUvkpIv4iiuuqIV38ODBZclJarfeemt12mmn1TLss8Q65kMR+eN1FZbEpLycccYZdTSpSMoiqpikrDkaim/9+vXVjh07+5wS2/YkgLB6AlupzUMhxQSlC8lHGLauV7uzZxeZIiXdTdP4Jd83pfOz40hUfrCnOtD9Rfree+9FhaS+HAntwIED1Y8//rhkGwlNx7RhAjGePqLz6+MQVhhl2d09NX9jzVrr69KYs5gAPQ+ENfmrA2FNnnGvFPwgzXDApu9w1kEloqZmkr73d+dCYUlWv/zySx1R6M/uemmftv4ok1bTNoqg2oTlYaj5qGECNmzAxlIpwjGJ6judo73GYHoJtUVYkpPvpI/1xYWd+sMiNi+srVu3Vdu2/aVXebNxPwIIqx+vsW09TEy68CUPXUC+4zgUUduQAf+dickusFBYJrSm0ep24mo+KXqS7J577rneEZZkpj4vCUlpKT+WponHpGJNLw1a3b9/f52WCVqjzrVYp73WrfPe9rf3Mbn6aNQYhxFc7L3/LGwSzs/vqDZs2DC2OsKBlhNAWBOuFW1iUtLW5NC6mh3h0iSkLo+7rISwlH9JSZLRmKhwPNTdd99d9xVJkCZRE5ZJx0QgMUqQar6asPoUl8nNP+sYyj8UUBhR2ftYFBcK6/HHn+yTPbYdgQDCGgFa2y42Qjxszmkf9d9oscihr3R8ul33VbThoybfDyUhWMTmB3+GUZxPd1iT0LbVHcfLL7+87lz/6KOPlo3hUp6sqeeFZdKydPQa9rFZGr6Pzn8WSimUzjApxbYfJqz5+fuqSy4huhrz5bT8H/iJEz8vPgbP0puAl1L4KIuadDa40kQViqCrdMKM2Uhyk5G+930zvU9kwjuIg42MV1JqxlnebXaGMJK0ke2WNWv6tfXZtYnJRBie6qgRlu130003V+q7YslDgAirB+em2Qt0CHUgm6Ss/yl26CZJhResH1lufTCjDM6MRSEW3XgZ2HrXx2jsgg2ng7H3JlB7DVlYviQiuxMY3hGM3RVsulPYFDUN+7ypwz4UXLidRKXl5pu39qhBbJpKAGG1EBwmKC+ptujJJxEKy4tJTZ9RpKTj+855f/fQ0mt6DU+/r7CaoprY8AGLBHWOTedpdwNjd0C7yKopkhoWYQ2To32/ZctNiCrVOgn7IywHr62JZ5upM3nbtm2Dx1WaRNV04dt4H8mpqW+mS3mqmRneRfR9QcNE1aUzvy0fXe6omSTC6MSGL5i4mlj4O4JhE7FP3pqk6iXWJiyNr1q3bn1lUVWX8mGbyRCYWWGFneNqxqnj2TdL1LyJNWkUWelPi/VT2WsYQdnFmCoopXXllVfW6Smaig0/KE1YXmgWaerOYmyRsDZt2tQ67qxNTH0jLEVSkhiSmox4Rj3qzAkrnOvprLPOqiMmTdRmj4tIXKqsb731Vj1lr2++XHbZZfWjKKlzLXUtMN1tkxxtls9QVE2SKiHC8sLyk/DprmI4G4Lx6iKupqZjWxS1bt26OorSnyIqlukkMFPCkqwOHTpYN8XCPhSLsHxE5QcUShqSmwZM6oL67LPPJl6ikqOiKsnHP9cXk5ZvmvaJtMKTmFQfVtj8kqCahKXvJKxPPvmkkfH8/Hzjd8OEZXLSAfz6xAuUBJIJzISwfFR1zz331JGUCcCLSxXdP/lvT+zbq8Yt6fm5vpPDjVJKmuFT45j84Mo2aQ0Tlp2nCdnEFN7la7qr58/Bjy63z+0za1IbSxtc2VdYYv3iiy82olPzUH+xxQtLQlq7dl29GXIapSZO1z4zIazt2/9WvfTSf2ryipo0x5NNdRsbZW0Xl02Ba7/aogeFcy133nlndDR4U7RlwrKObG2nfI9613Fc52md5TY3lWSiMhgWYQ0Tlo5322231dn0QrL3khPL6iMwE8J66qk91ZtvvllHK34CNhuP5J89UxF3iTImXRXuuOOOQSQYRlb+vUlUc1CVtKgJbo8lqbnt+7C0fujQodYfkrj33nur3bv/UdIpk9cxEJgJYR08eKB65ZWFwRQrvg9oDAwHh/BNEWtq6TObJUDrXSMeDZ9Qk1AXsxeUTVmsjv+UYRHjPO/UY9mv8egGg+4Sqo+wbVG/3u23317t3PlgatLsXxiBmRHWwsLLdcQSGw4wrjKLjU0KB1CawNQX1kVekpYmxFMHdPijEOPIt5rH1p9l/U+xjvdQxibkLufQNZ+S87B52SUr8dCdPITVlezq2W4mhHX48OHq2WefHvQJ5YiwrB8sFJb/XE0fiStn35gNj7C52q1PzPrAfJ+eVXMvK+tEtyacxKX1LtMij3rZ2LOYkpUNOtXwgwceIMIalWmp+82IsP5XPfPM00vuDsYuzNRC7BJhhcKyfdS8k7jGGbH481FzS9O+aFqX2NQubZFnm7BsfiybvbRtKEJfvurj0p/J0ctSDxzfcstf+x6S7QsnMBPCUhk99NCDg4t1miIsk4HlScKyDvRxyktjuhSpdBGW7rrNzf1Zs0+erCrNDe9la5GOF5bmrEr5xWWbDyycjhhhFW6ZMWZ/ZoS1a9cD0btuY2Q5uKDDppRFBmHz0C5E3xwL122Ygl5T7l6qE9867202CZPk4gjv7sMAXnjh34NfoBlVqv4nuNQ8jT1vaJ8hrHHX0nKPNzPC0tCGL7/8cslATJPDOIsvbD419WVZhBJGWDF5+Xz6AaBeYCkyG+f5+2OFMy7Y+1BOxih8RViTKplyjzszwvJDG8KfVh9n8U1aWF5esbt5TRLzI9pj+4Uj3pWOfxDcR42xz/38VjEGnnEsmmqKSvU5EdY4a2jZx5pJYeUa2tB2h9B3ILdFVeFDzMOE1eVZwC7bNFXr8MZCbLtUYYVC88KydTrdyxbPqLmfGWEJ0MMP78o6tKGvsNr6srxkYhKzCtBFRl22mRZh+f4/39GvHyzduHHjqPWe/QolMFPCUhnpp9hfffUV/WpffSfs2LFjYy26piah9c/ELsAwauo6NUxMPF1k1GWbaRfWnj1PjbXcOFgZBGZOWDmKxYYALApycTiAXiVLhLX4+4EmcP/qpd4m+Pvuu5/f/8tRkacwDYSVuVAkLS0vv3yo0gh8m7XANwdnNcJqGtrgJa8ffeDXlTNX2ilKDmGtcGFoQkHdwURY8cjLZMXPaa1wRZ2S5BHWFBTEkSOH65lQjxw5Mng4O+zXanvvT6FL/1SXbVaiDysWYUlU+pyf05qCijoFWUBYU1AIlgWJS01F6/fq2jRcjcLSj0DwAxBTVDmnJCsIa0oKIsyGoi1NiaM+r2HiWg3CsseD+BGIKa2QU5IthDUlBdGUDeukX1hYqIdhKPpqG4flm45Nx5yGJqGfa33z5i1TXgpkb1oIIKxpKYmO+bDmooZOLA6fmBvMpGCHGCakYd+3ZWWUke6a/cEervbrHU+ZzSAwIICwVkllsLFfR48erc/IjwWzz7oKrY+w1q5dW29uPwSxuL78s1WCmdNYYQIIa4ULIHfyFpWNmq7JaNT92Q8CKQQQVgo99oUABLISQFhZcZMYBCCQQgBhpdBjXwhAICsBhJUVN4lBAAIpBBBWCj32hQAEshJAWFlxkxgEIJBCAGGl0GNfCEAgKwGElRU3iUEAAikEEFYKPfaFAASyEkBYWXGTGAQgkEIAYaXQY18IQCArAYSVFTeJQQACKQQQVgo99oUABLISQFhZcZMYBCCQQgBhpdBjXwhAICsBhJUVN4lBAAIpBBBWCj32hQAEshJAWFlxkxgEIJBCAGGl0GNfCEAgKwGElRU3iUEAAikEEFYKPfaFAASyEkBYWXGTGAQgkEIAYaXQY18IQCArAYSVFTeJQQACKQQQVgo99oUABLISQFhZcZMYBCCQQgBhpdBjXwhAICsBhJUVN4lBAAIpBBBWCj32hQAEshJAWFlxkxgEIJBCAGGl0GNfCEAgKwGElRU3iUEAAikEEFYKPfaFAASyEkBYWXGTGAQgkEIAYaXQY18IQCArAYSVFTeJQQACKQQQVgo99oUABLISQFhZcZMYBCCQQgBhpdBjXwhAICsBhJUVN4lBAAIpBBBWCj32hQAEshJAWFlxkxgEIJBCAGGl0GNfCEAgKwGElRU3iUEAAikE/g/AtfSapkriEwAAAABJRU5ErkJggg==
;file_total_lines: 93268
;estimated_time(s): 6881.17
;nozzle_temperature(°C): 205
;build_plate_temperature(°C): 70
;work_speed(mm/minute): 3000
;max_x(mm): 45.84001507454281
;max_y(mm): 49.96737814542671
;max_z(mm): 6.5
;min_x(mm): -21.24738883972168
;min_y(mm): -23.246095657348633
;min_z(mm): 0

;Header End

; G-code for 3dp engraving
; Generated by Snapmaker Luban 4.1.3
; Tue Jan 04 2022 10:37:53

M82 ;absolute extrusion mode
;Start GCode begin
M104 S205
M140 S70
G28 ;home
G90 ;absolute positioning
G1 X-10 Y-10 F3000
G1 Z0 F1800
M109 S205;Wait for Hotend Temperature
M190 S70;Wait for Bed Temperature
G92 E0
G1 E20 F200
G92 E0
;Start GCode end
G92 E0
G92 E0
G1 F1500 E-5
;LAYER_COUNT:39
;LAYER:0
M107
G0 F1440 X92.961 Y109.989 Z0.28
;TYPE:SKIRT
G1 F1500 E0
G1 F2400 X93.34 Y109.717 E0.03258
G1 X93.786 Y109.436 E0.0694
G1 X94.579 Y109.032 E0.13156
G1 X95.075 Y108.827 E0.16905
G1 X97.669 Y107.831 E0.36313
G1 X100.18 Y106.784 E0.55315
G1 X102.645 Y105.675 E0.74194
G1 X105.103 Y104.483 E0.93275
G1 X107.492 Y103.239 E1.12088
G1 X111.081 Y101.208 E1.40891
G1 X112.794 Y100.192 E1.54802
G1 X113.017 Y100.069 E1.56581
G1 X113.818 Y99.662 E1.62856
G1 X114.134 Y99.515 E1.6529
G1 X114.963 Y99.161 E1.71586
G1 X115.201 Y99.069 E1.73369
G1 X116.048 Y98.771 E1.7964
G1 X116.424 Y98.652 E1.82395
G1 X117.159 Y98.446 E1.87726
G1 X117.515 Y98.359 E1.90286
G1 X118.484 Y98.154 E1.97204
G1 X118.692 Y98.119 E1.98677
G1 X119.541 Y97.996 E2.04669
G1 X119.904 Y97.956 E2.0722
G1 X120.83 Y97.885 E2.13706
G1 X121.083 Y97.874 E2.15475
G1 X122.063 Y97.864 E2.2232
G1 X122.338 Y97.872 E2.24242
G1 X123.241 Y97.921 E2.30558
G1 X123.45 Y97.941 E2.32025
G1 X124.374 Y98.051 E2.38524
G1 X124.713 Y98.103 E2.4092
G1 X125.513 Y98.252 E2.46604
G1 X125.893 Y98.335 E2.4932
G1 X126.711 Y98.544 E2.55217
G1 X127.048 Y98.642 E2.57669
G1 X127.827 Y98.895 E2.63389
G1 X128.163 Y99.016 E2.65884
G1 X128.988 Y99.346 E2.7209
G1 X129.307 Y99.486 E2.74523
G1 X130.107 Y99.869 E2.80718
G1 X130.349 Y99.995 E2.82624
G1 X131.14 Y100.438 E2.88956
G1 X131.434 Y100.617 E2.9136
G1 X132.103 Y101.052 E2.96934
G1 X132.409 Y101.267 E2.99546
G1 X133.167 Y101.834 E3.06158
G1 X133.366 Y101.993 E3.07937
G1 X134.023 Y102.555 E3.13976
G1 X134.281 Y102.791 E3.16418
G1 X134.897 Y103.392 E3.22429
G1 X135.132 Y103.637 E3.248
G1 X135.757 Y104.335 E3.31344
G1 X135.915 Y104.523 E3.33059
G1 X136.466 Y105.222 E3.39276
G1 X136.615 Y105.424 E3.41029
G1 X137.201 Y106.277 E3.48258
G1 X137.338 Y106.492 E3.50038
G1 X137.819 Y107.307 E3.56648
G1 X137.934 Y107.52 E3.58339
G1 X138.367 Y108.374 E3.65027
G1 X138.473 Y108.601 E3.66777
G1 X138.811 Y109.389 E3.72765
G1 X138.946 Y109.736 E3.75366
G1 X139.592 Y111.56 E3.88881
G1 X139.64 Y111.669 E3.89713
G1 X139.971 Y112.619 E3.9674
G1 X140.914 Y115.094 E4.15239
G1 X141.972 Y117.65 E4.34561
G1 X143.075 Y120.114 E4.53417
G1 X144.276 Y122.608 E4.72751
G1 X145.501 Y124.978 E4.91385
G1 X146.832 Y127.381 E5.10572
G1 X148.19 Y129.677 E5.29203
G1 X149.668 Y132.024 E5.48576
G1 X151.172 Y134.269 E5.6745
G1 X152.742 Y136.475 E5.86362
G1 X154.384 Y138.647 E6.0538
G1 X155.252 Y139.738 E6.15118
G1 X155.475 Y140.025 E6.17656
G1 X156.54 Y141.438 E6.30015
G1 X156.624 Y141.552 E6.31004
G1 X157.563 Y142.897 E6.42461
G1 X157.642 Y143.016 E6.43459
G1 X158.552 Y144.427 E6.55186
G1 X158.629 Y144.551 E6.56205
G1 X159.479 Y145.984 E6.67843
G1 X159.549 Y146.108 E6.68837
G1 X160.342 Y147.563 E6.80411
G1 X160.41 Y147.692 E6.8143
G1 X161.15 Y149.18 E6.93037
G1 X161.214 Y149.315 E6.94081
G1 X161.908 Y150.855 E7.05879
G1 X161.961 Y150.979 E7.06821
G1 X162.58 Y152.491 E7.18232
G1 X162.634 Y152.63 E7.19274
G1 X163.196 Y154.167 E7.30704
G1 X163.243 Y154.303 E7.31709
G1 X163.772 Y155.934 E7.43685
G1 X163.814 Y156.071 E7.44686
G1 X164.296 Y157.768 E7.57008
G1 X164.497 Y158.569 E7.62776
G1 X164.639 Y159.292 E7.67923
G1 X164.716 Y160.127 E7.7378
G1 X164.702 Y161.056 E7.80269
G1 X164.654 Y161.512 E7.83472
G1 X164.571 Y162.017 E7.87046
G1 X164.332 Y162.931 E7.93645
G1 X163.982 Y163.81 E8.00253
G1 X163.532 Y164.641 E8.06854
G1 X162.985 Y165.411 E8.13451
G1 X162.337 Y166.123 E8.20175
G1 X161.616 Y166.745 E8.26826
G1 X161.235 Y167.016 E8.30092
G1 X160.807 Y167.284 E8.33619
G1 X160.016 Y167.688 E8.39822
G1 X159.55 Y167.882 E8.43348
G1 X156.961 Y168.874 E8.62713
G1 X154.446 Y169.922 E8.81744
G1 X151.981 Y171.031 E9.00623
G1 X149.548 Y172.21 E9.19507
G1 X147.078 Y173.494 E9.38951
G1 X144.758 Y174.784 E9.57491
G1 X143.543 Y175.495 E9.67324
G1 X141.868 Y176.49 E9.80932
G1 X141.533 Y176.674 E9.83601
G1 X140.818 Y177.039 E9.89208
G1 X140.508 Y177.184 E9.91599
G1 X139.674 Y177.541 E9.97935
G1 X139.333 Y177.675 E10.00494
G1 X138.585 Y177.939 E10.06035
G1 X138.241 Y178.048 E10.08555
G1 X137.397 Y178.285 E10.14678
G1 X137.072 Y178.364 E10.17014
G1 X136.243 Y178.541 E10.22935
G1 X135.856 Y178.61 E10.25681
G1 X135.078 Y178.722 E10.31171
G1 X134.696 Y178.764 E10.33855
G1 X133.822 Y178.832 E10.39978
G1 X133.478 Y178.848 E10.42383
G1 X132.66 Y178.859 E10.48097
G1 X132.311 Y178.852 E10.50535
G1 X131.433 Y178.806 E10.56676
G1 X131.109 Y178.778 E10.58948
G1 X130.138 Y178.66 E10.6578
G1 X129.87 Y178.617 E10.67675
G1 X129.026 Y178.46 E10.73672
G1 X128.773 Y178.404 E10.75481
G1 X127.854 Y178.169 E10.82107
G1 X127.5 Y178.066 E10.84682
G1 X126.785 Y177.833 E10.89934
G1 X126.408 Y177.697 E10.92734
G1 X125.633 Y177.388 E10.98561
G1 X125.33 Y177.254 E11.00875
G1 X124.511 Y176.863 E11.07214
G1 X124.203 Y176.704 E11.09635
G1 X123.493 Y176.306 E11.1532
G1 X123.18 Y176.117 E11.17874
G1 X122.468 Y175.655 E11.23802
G1 X122.152 Y175.433 E11.265
G1 X121.51 Y174.954 E11.32094
G1 X121.227 Y174.728 E11.34624
G1 X120.463 Y174.072 E11.41658
G1 X120.321 Y173.939 E11.43016
G1 X119.617 Y173.25 E11.49897
G1 X119.46 Y173.083 E11.51498
G1 X118.835 Y172.385 E11.58042
G1 X118.677 Y172.197 E11.59757
G1 X118.127 Y171.499 E11.65964
G1 X117.927 Y171.226 E11.68328
G1 X117.451 Y170.534 E11.74194
G1 X117.261 Y170.237 E11.76657
G1 X116.757 Y169.386 E11.83565
G1 X116.635 Y169.161 E11.85353
G1 X116.272 Y168.447 E11.90947
G1 X116.116 Y168.111 E11.93534
G1 X115.788 Y167.349 E11.99329
G1 X115.664 Y167.032 E12.01706
G1 X114.971 Y165.07 E12.1624
G1 X114.032 Y162.53 E12.35154
G1 X113.022 Y160.013 E12.54097
G1 X111.927 Y157.498 E12.73256
G1 X110.778 Y155.049 E12.92151
G1 X109.544 Y152.599 E13.11311
G1 X108.263 Y150.229 E13.30128
G1 X106.912 Y147.888 E13.49007
G1 X105.478 Y145.558 E13.68116
G1 X103.986 Y143.279 E13.87142
G1 X102.421 Y141.034 E14.06256
G1 X100.833 Y138.885 E14.2492
G1 X99.606 Y137.326 E14.38777
G1 X99.108 Y136.685 E14.44446
G1 X98.072 Y135.312 E14.5646
G1 X97.987 Y135.196 E14.57464
G1 X97.011 Y133.798 E14.69373
G1 X96.931 Y133.679 E14.70375
G1 X96.041 Y132.299 E14.81844
G1 X95.963 Y132.172 E14.82885
G1 X95.109 Y130.73 E14.94591
G1 X95.04 Y130.608 E14.9557
G1 X94.253 Y129.163 E15.07062
G1 X94.186 Y129.034 E15.08077
G1 X93.437 Y127.527 E15.19832
G1 X93.375 Y127.398 E15.20831
G1 X92.7 Y125.905 E15.32276
G1 X92.644 Y125.774 E15.33271
G1 X92.01 Y124.223 E15.44974
G1 X91.957 Y124.087 E15.45994
G1 X91.384 Y122.521 E15.57641
G1 X91.337 Y122.383 E15.58659
G1 X90.822 Y120.793 E15.70333
G1 X90.78 Y120.655 E15.7134
G1 X90.301 Y118.966 E15.83602
G1 X90.268 Y118.844 E15.84485
G1 X90.093 Y118.141 E15.89545
G1 X89.954 Y117.426 E15.94633
G1 X89.877 Y116.604 E16.00399
G1 X89.87 Y116.133 E16.03689
G1 X89.893 Y115.633 E16.07185
G1 X90.017 Y114.725 E16.13586
G1 X90.26 Y113.799 E16.20273
G1 X90.611 Y112.908 E16.26962
G1 X91.062 Y112.078 E16.33559
G1 X91.32 Y111.691 E16.36808
G1 X91.625 Y111.288 E16.40338
G1 X92.252 Y110.6 E16.4684
G1 X92.961 Y109.989 E16.53377
G0 F1440 X93.339 Y110.455
G1 F2400 X93.66 Y110.225 E16.56135
G1 X94.106 Y109.944 E16.59817
G1 X94.833 Y109.576 E16.65508
G1 X95.29 Y109.387 E16.68963
G1 X97.904 Y108.383 E16.88521
G1 X100.404 Y107.341 E17.07438
G1 X102.913 Y106.212 E17.26655
G1 X105.36 Y105.025 E17.45651
G1 X107.785 Y103.763 E17.64746
G1 X111.372 Y101.733 E17.93533
G1 X113.1 Y100.708 E18.07566
G1 X113.289 Y100.604 E18.09073
G1 X114.09 Y100.197 E18.15349
G1 X114.37 Y100.067 E18.17505
G1 X115.199 Y99.713 E18.23801
G1 X115.4 Y99.635 E18.25307
G1 X116.247 Y99.337 E18.31578
G1 X116.586 Y99.229 E18.34063
G1 X117.321 Y99.023 E18.39395
G1 X117.64 Y98.945 E18.41689
G1 X118.485 Y98.765 E18.47723
G1 X118.778 Y98.713 E18.49801
G1 X119.627 Y98.59 E18.55793
G1 X119.95 Y98.555 E18.58063
G1 X120.876 Y98.484 E18.64549
G1 X121.09 Y98.474 E18.66046
G1 X122.054 Y98.464 E18.72779
G1 X122.306 Y98.471 E18.7454
G1 X123.191 Y98.519 E18.8073
G1 X123.379 Y98.537 E18.8205
G1 X124.303 Y98.647 E18.88549
G1 X124.603 Y98.693 E18.90669
G1 X125.499 Y98.861 E18.97036
G1 X125.745 Y98.917 E18.98798
G1 X126.661 Y99.152 E19.05403
G1 X126.862 Y99.212 E19.06868
G1 X127.726 Y99.494 E19.13217
G1 X127.941 Y99.573 E19.14816
G1 X128.766 Y99.903 E19.21023
G1 X129.049 Y100.027 E19.23181
G1 X129.771 Y100.372 E19.2877
G1 X130.056 Y100.519 E19.3101
G1 X130.847 Y100.962 E19.37342
G1 X131.107 Y101.12 E19.39467
G1 X131.776 Y101.555 E19.4504
G1 X132.05 Y101.747 E19.47377
G1 X132.808 Y102.314 E19.53989
G1 X132.976 Y102.449 E19.55494
G1 X133.633 Y103.011 E19.61533
G1 X133.862 Y103.22 E19.63699
G1 X134.478 Y103.821 E19.6971
G1 X134.685 Y104.038 E19.71804
G1 X135.31 Y104.736 E19.78348
G1 X135.444 Y104.894 E19.79795
G1 X135.995 Y105.593 E19.86012
G1 X136.121 Y105.764 E19.87496
G1 X136.701 Y106.607 E19.94643
G1 X136.821 Y106.797 E19.96212
G1 X137.295 Y107.599 E20.02719
G1 X137.399 Y107.792 E20.04251
G1 X137.832 Y108.646 E20.10938
G1 X137.922 Y108.837 E20.12413
G1 X138.26 Y109.625 E20.18402
G1 X138.381 Y109.937 E20.20739
G1 X139.035 Y111.784 E20.34425
G1 X139.073 Y111.867 E20.35062
G1 X139.393 Y112.784 E20.41846
