;Header Start

;FLAVOR:Marlin
;TIME:6666
;Filament used: 0m
;Layer height: 0.16
;MINX:2.14748e+06
;MINY:2.14748e+06
;MINZ:2.14748e+06
;MAXX:-2.14748e+06
;MAXY:-2.14748e+06
;MAXZ:-2.14748e+06


;header_type: 3dp
;thumbnail: data:image/png;base64,iVBORw0KGgoAAAANSUhEUgAAASwAAACWCAYAAABkW7XSAAAXqElEQVR4Xu2deZBVxRXGD6CCuyKLgrggoECQRbawCYKIYFg0lfyTVBAXUAYDiCiiBiSjGGMqKGsStCIWUasEgo4CEkoWjYAoiIqCgIoLi+AGLqCS+pqcVz0997777pv73tjzvq56NQxzX9/T3+n+3V5O961y4MA3h4WJClABKuCBAlUILA+8RBOpABUwChBYrAhUgAp4owCB5Y2raCgVoAIEFusAFaAC3ihAYHnjKhpKBagAgcU6QAWogDcKEFjeuIqGUgEqQGCxDlABKuCNAgSWN66ioVSAChBYrANUgAp4owCB5Y2raCgVoAIEFusAFaAC3ihAYHnjKhpKBagAgcU6QAWogDcKEFjeuIqGUgEqQGCxDlABKuCNAgSWN66ioVSAChBYrANUgAp4owCB5Y2raCgVoAIEFusAFaAC3ihAYHnjKhpKBagAgcU6QAWogDcKEFjeuIqGUgEqQGCxDlABKuCNAgSWN66ioVSAChBYrANUgAp4owCB5Y2raCgVoAIEFusAFaAC3ihAYHnjKhpKBagAgcU6QAWogDcKEFjeuIqGUgEqQGCxDlABKuCNAgSWN66ioVSAChBYrANUgAp4owCB5Y2raCgVoAIEFusAFaAC3ihAYHnjKhpKBagAgcU6QAWogDcKEFjeuIqGUgEqQGCxDlABKuCNAgSWN66ioVSAChBYrANUgAp4owCB5Y2raCgVoAIEFusAFaAC3ihAYHnjKhpKBagAgcU6QAWogDcKEFjeuIqGUgEqQGCxDlABKuCNAgSWN66ioVSAChBYrANUgAp4owCB5Y2raCgVoAIEFusAFaAC3ihAYHnjKhpKBagAgcU6QAWogDcKEFjeuIqGUgEqQGCxDlABKuCNAgSWN66ioVSAChBYrANUgAp4owCB5Y2rflqGrlq1UlauXJkyatWqVdKw4bn//72KZexh2bZtu/m9S5cu0rVr1///+8hPJioQRwECK45avFbmzHlUioqGp5Ro0KCBDB48WI4++mg56qijpEqVKlK1alXz98OHD8uPP/4o33//vRw8eFAeffRR+eCDD1LfnTZtuvzmN7+lqlQgYwUIrIyl4oVQYPnyF+TJJ5+QatWqGfi89957Rphzzz3XwAofOwFa27dvN/DCNQoxgK5du/YyePDVFJYKZKwAgZWxVLxQgfXyy/81PSpAC70pfGxYKbQAJ+1pKajQ4/rhhx/k0KFD0rHjz+Xii7tTWCqQsQIEVsZSFe6F9957jyk8fnbu3Fm6d++eCLBeeOEFqVq1msl73Lhx0qUL57UKt5ZlVnICKzOdCvKqNWtWS9++l5vekKZOnTolBqw5c+bIjh07Unmjx3bPPffKsGE3FKTeLHS0AgRWtEYFe0Vx8SRZuHChmav6+uuvS+lwzjnnpOatzjvvPPM3HQoGDQnx961bt5o5LMxp6dyXZnrsscea/K666pcyZswtBas5C55eAQKLNSRUgX/+8xHZtGmTvPPOO/LGG2/I3r17zfxTkglzYXXr1pWWLVtKw4YNpXHjxvK733EiPkmNK1NeBFZl8mbCZcGK4IoVy02uX375paxYsULef/99+eabbwLvdPbZZwt6WxrWgB4VJtnxnaCEXlXTpk2lRYsWUrt2bXNJt24XcyI+YT9WpuwIrMrkzYTLYgMLWX/xxReyZs0a2bhxowGRm1xg6Yrg8uVHoGcnzFedf/750qNHDwG4NBFYCTuxkmVHYFUyhyZZHBdYmH968803ZcmSJYHAinNvBJlitRFDQTt2q0ePS7haGEfIAruWwPLA4boFRre15NPkuXMfM5PlSAAWQhFee+210B6WxmRt27YtFSjqTrCr/T179pRWrVqlgNWyZSvp339APouXuhc0rgh9K6SwHt+UwKog56GBYD8ekgJJf8f/1a9f3/zNXnH76KOPSllrxy2NG3d7zhrciy+uMhHuWN1bu3ZtKnI9SDrYbfeYPvzww1CFMX914YUXGrAhgLRz5y458YbGkQXprFrbNgPMqrWtMYCmvxNuOXFVZKYEVqREyV2AhmODCjmjh4FeCRr6mWeemYoa14lrG1gaLY7YJYDg1VdfLWMcwIVPkgl2a6O3823Tpo2xWe0Os9m2G/Na69atk507d6aywqT7FVf8InG7oXW/fpeXkULtxvYgN0pfe5JqM3SGzfj5ySeflLIb8FKtCbAka1x4XgRWHnQOazhoqK1bt5ZjjjnGNBzd6mJvIA4CFhrQ6tWrA4GFoMs//en+xEoVZjvmntq1a2dstrfouL1CNHxt/AiJwAe9tA0bNpSxsaTkuUR7ibfeeovMmzdPdu3aVepeF110Ucr2KGDpwgHsxiZuPCSw6OCmpG1PzIGVLCMCKw8OfffdLdKvX1/zhHbT6aefLmeccUaql2U3IMDKHVLhd3toWK9ePUEeaFg6vLr55uQCLzdv3ix33HG7AQzs+fjjj0sVAffXYSB6Wu7mZ9ir0NJeiqsBejywvajoJmnSpEliHnnggfvN8HXPnj2yfv16k6/tAx12w24k/an2KmihN/6Nsts9QzUU9v/jH7OlUaPGidnOjIIVILDyUDO2bNki06dPNcevoMJrw3fnpIJOOlDztHGh4eDf+AlQub0X5Nm+fQcz15LEMAXAeuihKWbvoG50RqMvbxkAOoAaoMUH239GjPh9IsDSYXf16scIJv/tXiDshv06fFUA277I1A/6sEDP68Ybi0zQK1NuFSCwcqtvas5q9+5dBlju6QZ24whrKO6pB/YwywUWGuDSpUtTpdJ5ljjwsiept2zZLH369CkFLLcXaA8D45RBYaXAWrRokTRujB7WYRk3bnws4MJm91DBXr16CaDiAsu1391SlA5Ybu9Lz/u68spfGs3j6JzjqlcpsyewcuRWd6L6mmuuCQRWto1dQRUFLC1et27d5A9/mGDOoApLkyffaybXFZC4Dttm8gkse74pE9iuXbtGJkyYICtXrihTrHwCa/bs2eb+gB1WO3O5apujKutFtgRWwm4KW1EbMmRIqpfiTqq7T3g1ye5Z4f/sp7vdy9KeCoYmiJEKmhRG7+7uuydJUdGIwBI/8MCfZeLECWX+VpHAUmMA2ptvHhNo97XXXiPz5j1lJsTdhHkxrMK6CwN6dpf9M+6DA5rrwwLD2YcffrjM/XOxYptwdfUuOwIrQZf9+te/kkWLnivVQ9HsMTHbtm3bwCFhEsBCqAAakE4u632R9/HHHy+nnnqq2ee3cOEzgSVu3rypmV+zj5LRCzFXhpU1zJ2FDWmzKYM9JHzllVfK2I77Y+4Mw7qNG98MtHvgwP4msBUT699++22ZgFbYDu2RR5DtLrRscAU9OIKGhFj1xIPCTch7woSJMmrU6ARrWWFnRWAl6P+WLVuYo1jCTjRAo0Fq3769GTro6lpUY7d7V7pqaK9cuSt32ugAqhNOOME0VnxOPPFEmTXr74ElvuqqQeZkBgzJgqCFL6n9CGeAzfaqYFQZ7N6irnTqyluQ/Qor9PAQYPrUU/MD7R469Dpz9A3yxOerr74KBJdtP8phrwwqtGzI2zdz5xBt+wHasISe3VlnnSUbNpQNg0iw2hVUVgRWgu7u2rWzvPXWW6ENPuxWblS7+2R3VxPTmaw9KgUV8kbvCo0Ow6YwYA0ffoPpYQFan376qWn0cVKSZcB9sSH6tNNOM7DCauLUqdNDgYXhLnprBw4cMAcCRoErH37APQCs5s2by6pVL8WRktemUYDASrB69O3bx0Rxhx2/kuCtymQVBCr0sBCUqj009PxmzvxboBkAli75I3YJkKyIciis6tSpY0IcACvAdtq0GYF2Dxt2vQGD9vBQRhtcOGEiLnyT8tNxxx0ngwYNkhkzZiWVZcHnQ2AlWAXGjh0jc+fONWdH5StFgcrurWUCLFyPHhbiryoCWuhZobcGWNWqVSsF20yBpeVVcGF+a/fu3eZonHyDC8DCW4EmT74vX9Wh0t+HwErQxePHjxMsb7vHCWc6BLE33WZiFoZCaNSnnHKKOa3zpJNOSvWo3O8j70yBpdDCKaMIsgyb0wqy0d78rHM/mQ5pa9SoYWCFc7IUVto7jAssG1wAFoaK+/btk88++yxv5cGc4XXXXW8m3pmSUYDASkZHk8tjj82R0aNHpX2SY6iDRomJazt6HN/XIMQFCxYEbuOxTcVwr2bNmmZSFxPI1atXT1sSwAMguOmmkWmHhPYfMRmOEAmswAUd2KfXYmK8f//+qT2RGkWuq4A4XgaT0+6ePvte+A4ghf2VOh9m9w7DgDVlyl9l8+Z3ymwJcguJ+TucfAoA4xM13MVQFMM53Sep/lEfYXEFZYI2YQkPFPSurr9+aIK1rLCzIrAS9P+VVw4sFWUeljVig3BSgL4pGcM6Xf1z9wq6eaBhY0IdkMKLIAAtd5Ur6L4AQf/+A82cUFB69tkSwcdOGEIhTALbW4LinOxrkW+HDh1Spx9ozwjlQc8Oc3vpErTAMTMI/QDI7dS3bz/BJygBHCUlT5uDBdMlDUcAYHRifv/+/WlBrCdo2HsMFVjoNQaFMrg23HnnXXLLLWMTrGWFnRWBlZD/EXg5adLd5T6JM505gBV6VmhAmOMBuILiiOw8cP2ll/aWXr0ujSypCy00Tqx6Agbfffdd5PfLcwF6iFhRa9asWWqfH/Jr0eJCGTp0WGTWOK8L9mPCPSjZ8VMAFeboAFNcn673GHnjiAvgM0ArLPC1vPkX2vcJrAQ8ng9YwUyd40HDdmHl7n/D6iB6JZmAypZg1qyZsnHj6+a/0JABK0Ar18BCDwu9QJRNh5SZwkrt37nzE1m2bJmsXv1ymVg4d5cA4rWwKR29rTDIJVA1TBaEVlJKihBY5dTy/vvvk+Li4pw+pWEiGjTmv9ADwRtmwraX4FpEdrdpc5G0atU6q9JNnfqgvP3226ZMGBICWLnshWj5EHOFc7bQwC+44AJz3Ew2CRBavHiRAa8G8QZta8IkPOboMCkfNeTNxg77O4RWeRU88n0Cqxw63nffZCku/mM5csjsq6jsurUGk+yY4wkCFlYL0avq1KlzZhmnuQrQAqhw8gMadK6BBVMw6Y6N1oBytrCyi/TSSy+aYeLnn38eug8TCwJ47yKGifmAFvYX3nrrbeX2T6FmQGBl6flMYIXTRLHKhDknTLIrZHTTLCaM8WblqIThn25RwZyUbp7W/DD869fvCjNXlWQaMmSwARYafLqk5ezYsWOZSXf0dgAC7LcLOvzOzhflHDBgQOKBlpjfWrjw32Zl0N0LePDgQRPdj/ksQCsqYXXXXlzQ/FBOPU01qpzjx99BaEUJHfJ3AisL4TKBFU4KwIZh9IYwnNNobEBGgYVjjtGQ0yUEUqJ3hV4HtqqYbnGVKikwYJh47bXXSYMGZ2VRkvRfeeKJx2XEiKLIgEsAC/sjNUxD59Ps0wzwPsOoVTWUdeLEuwXHPCedduz4QObPny+bNr2V0l/jxBCbpW+2jpqrQ/gG3r9oP3w0xg1gRswaVkRff/3IPGBYIrSy8zCBFVO36dOnyV133Sl4MkclnBSgJxzYoQdRoQu4FpBDbwrBoAhfAJgAPRtYAwYMlMsv7xtlRtZ/HzXq91JSUmICLqPKiw3FuiHaviEaM2CVLuF7gB3AfPvt4+Xqq4dkbXPUFx95ZLY5D1+Ph9HrEZsFvyDKH4G/UcNDDXXQ018Vzgh3iOph4Z5YQAGcb7jhxiiT+XdLAQIrZnUYOfImWbx4sTkVABUbwwD7wLuY2aUAhH+g0aKXgQhpDPMQYwVQAVr2PdDABw4cFBqblI0NQd8pLp5kTkxFIwS00HvAx23s2d5PQYXynnzyyaa8vXv3lttuS/atP659mNdasGB+GU0xZMTwd+/evSYiHtt50OPSANjy+lkfNgjhQHkx3zhlyoPZyleQ3yOwYrodw0Esm+NJjEaMJXE8jQEuHU7oEMHO2t6gi0l0e6iIpy16U9h7BmChMuN3/D++p29s0fwQeDp8ePBBfDGLk/ZyNOznnnvWzP2grFpmNGCdpLaHUJmWG+VCo8VPwBg/sfKJfzdpcr6MHDkqyWIE5vX00wvNvJYm9GjxQRm0vAAqyoyHE3yMsuJvrq+Rh3ukEPLSBH/jAYQPFkZQXiww4ERVTsDHczWBFU8vmTr1Idm2bavpXWlFBrTwOyo4eiBhewkBJCT8RMMAlAAu/I5KjQbrTszrq7F0Px8AFnbiQsyiRF4OYC1ZsthAE/ZqGdEDgZ3ojcCuOOVGQ0bDRZkVXIAX8kBZe/e+LOc9Ry04TqjQoa4Cy37VGsqMaH/8hK9xbVC5AbOgIbPtb+QPXwNY+H/8jvPrw06AjXROgV5AYMV0PE4UXbr0+dTplTpM0BcppFv+14BI3XqiJ2DCBB1m6aqTDkNcYI0ZM9bsCcxHsoGlL27Qn7BPIaPDxDCbwsqt8z76M9/AQg8LPS0k+CTdUcr2/ki73LDZDdq1e1aat/5UP+N7COrt06fsi17z4Vtf70FgxfScCyw3HkqzcyuxPf+h/1Y4ZQIsPMWxHQfAylcCsBCAqW/7ccMptIx2WeOU24Y0/p1vYEFHhVYmwHLLG6fc9oNNH0YEVvyaTGDF1AwvRZ0xY3qptzTb0IoLLFxv9zQUXvZ554AVPmPH3iaNGjWKaXH2l5eUPGOGhDawXGgh9zgNV8trl1nnvgCsyy7rk7chIWxZtuw/8vjj/zJltF/DZvd+7TLb5Y1Tbjf+C/5F+AZfvhqvfhJY8fSSXALLhpcLrObNfybDhxfFtLZ8lyuwdKikYHZf7x6n4UYBC3NYCILNZ3rmmadNRHwQsLRsWmYFltuTjOpZusACnBHSQGDF8zSBFU8vc/Xo0SPL9Dq0MWfSw7IbrQ2pMGA1a9Y8J8GUUUXH8BerhPkEFiahj7xMNb/pwQenmIeR9qzsN+zAkqSApcNg9Jj/8pe/5reQleBuBFYWTpw5c4Zs3fpuVm9x1tvZ81f201eHSqjYCHG45JKe0rNnryysTOYrzz+/xAwL7Z5FLnpYyB+9q6S3F8VR4cknHzcR77qFJ90botP1KvXB4/ra9i2G9kOHJh/RH6e8Pl5LYGXhNUREYzIa0EIlzGQOK6wS270tNBAs8SPcoWPHn5vIbwwFKzrhpRSY60EPBGW1y6wgy6Rn6S42AMqY7EbgaPfuPaRDh44VXVTZtWunibMDuDBsA7x0RdSedM8WWPgeYs0w4a7R8hVeaI8MILDK4Szs9F+37hXZvn2bicNBzI5W5KDwBl0a10aOxopYJMQl4RSGevXqm3OumjZtVg6rcvdVRLyvX/+qOUMKkeAoI4Ip7cbrlhuQ0i1FKL/GI6H32LZtO1P+1q3b5M7ocuS8e/cuc0QN4s1QZoUXwjjsVd90vrbL3LDheWYfYrt27cthVWF/lcBKyP979uw2x7Dg5/79wade4lY1alSXOnXqmruiN4UI75o1j2xq9int27fX9EAyKXO1alWlfv0zU2WuVat2aiO3T2WGb5G0zIcOHYl+D0ooc926pxtA4/jo2rXr+FTUn6ytBNZP1jU0jApQAVcBAot1ggpQAW8UILC8cRUNpQJUgMBiHaACVMAbBQgsb1xFQ6kAFSCwWAeoABXwRgECyxtX0VAqQAUILNYBKkAFvFGAwPLGVTSUClABAot1gApQAW8UILC8cRUNpQJUgMBiHaACVMAbBQgsb1xFQ6kAFSCwWAeoABXwRgECyxtX0VAqQAUILNYBKkAFvFGAwPLGVTSUClABAot1gApQAW8UILC8cRUNpQJUgMBiHaACVMAbBQgsb1xFQ6kAFSCwWAeoABXwRgECyxtX0VAqQAUILNYBKkAFvFGAwPLGVTSUClABAot1gApQAW8UILC8cRUNpQJUgMBiHaACVMAbBQgsb1xFQ6kAFSCwWAeoABXwRgECyxtX0VAqQAUILNYBKkAFvFGAwPLGVTSUClABAot1gApQAW8UILC8cRUNpQJUgMBiHaACVMAbBQgsb1xFQ6kAFSCwWAeoABXwRgECyxtX0VAqQAUILNYBKkAFvFGAwPLGVTSUClABAot1gApQAW8UILC8cRUNpQJUgMBiHaACVMAbBf4H6OtiuMS1QckAAAAASUVORK5CYII=
;file_total_lines: 58858
;estimated_time(s): 3037.73
;nozzle_temperature(°C): 205
;build_plate_temperature(°C): 70
;work_speed(mm/minute): 3000
;max_x(mm): 21.49972677230835
;max_y(mm): 43.62023639678955
;max_z(mm): 5.800000190734863
;min_x(mm): -21.49972677230835
;min_y(mm): -13.62023639678955
;min_z(mm): 0

;Header End

; G-code for 3dp engraving
; Generated by Snapmaker Luban 4.1.3
; Thu Jan 13 2022 16:22:3

M82 ;absolute extrusion mode
;Start GCode begin
M104 S205
M140 S70
G28 ;home
G90 ;absolute positioning
G1 X-10 Y-10 F3000
G1 Z0 F1800
M109 S205;Wait for Hotend Temperature
M190 S70;Wait for Bed Temperature
G92 E0
G1 E20 F200
G92 E0
;Start GCode end
G92 E0
G92 E0
G1 F1500 E-5
;LAYER_COUNT:35
;LAYER:0
M107
G0 F1440 X95.022 Y109.55 Z0.28
;TYPE:SKIRT
G1 F1500 E0
G1 F2400 X95.426 Y109.22 E0.03644
G1 X95.708 Y109.002 E0.06133
G1 X96.27 Y108.646 E0.1078
G1 X96.788 Y108.379 E0.1485
G1 X97.023 Y108.266 E0.16671
G1 X97.651 Y108.028 E0.21362
G1 X98.188 Y107.878 E0.25257
G1 X98.443 Y107.813 E0.27095
G1 X99.113 Y107.703 E0.31837
G1 X99.73 Y107.659 E0.36157
G1 X100.428 Y107.654 E0.41033
G1 X100.879 Y107.686 E0.44191
G1 X103.615 Y107.837 E0.6333
G1 X106.368 Y107.912 E0.82566
G1 X109.082 Y107.909 E1.01522
G1 X111.78 Y107.83 E1.20374
G1 X114.566 Y107.666 E1.39867
G1 X115.426 Y107.654 E1.45875
G1 X115.874 Y107.686 E1.49012
G1 X118.615 Y107.837 E1.68186
G1 X121.368 Y107.912 E1.87422
G1 X124.082 Y107.909 E2.06378
G1 X126.78 Y107.83 E2.2523
G1 X129.569 Y107.665 E2.44745
G1 X129.974 Y107.648 E2.47576
G1 X130.635 Y107.677 E2.52197
G1 X131.183 Y107.749 E2.56058
G1 X131.446 Y107.79 E2.57917
G1 X132.114 Y107.955 E2.62723
G1 X132.682 Y108.153 E2.66924
G1 X132.915 Y108.241 E2.68664
G1 X133.52 Y108.531 E2.7335
G1 X134.028 Y108.833 E2.77478
G1 X134.241 Y108.968 E2.79239
G1 X134.773 Y109.373 E2.83909
G1 X135.196 Y109.759 E2.87909
G1 X135.393 Y109.948 E2.89816
G1 X135.836 Y110.452 E2.94502
G1 X136.151 Y110.885 E2.98242
G1 X136.318 Y111.128 E3.00302
G1 X136.651 Y111.715 E3.05016
G1 X136.87 Y112.194 E3.08694
G1 X137 Y112.498 E3.11004
G1 X137.207 Y113.139 E3.15708
G1 X137.329 Y113.676 E3.19555
G1 X137.449 Y114.402 E3.24694
G1 X137.471 Y114.663 E3.26524
G1 X137.736 Y117.364 E3.4548
G1 X138.08 Y120.067 E3.64512
G1 X138.502 Y122.78 E3.83689
G1 X138.994 Y125.441 E4.0259
G1 X139.67 Y128.559 E4.24874
G1 X139.954 Y129.773 E4.33582
G1 X140.074 Y130.344 E4.37658
G1 X140.174 Y131.017 E4.4241
G1 X140.215 Y131.589 E4.46415
G1 X140.222 Y132.266 E4.51144
G1 X140.201 Y132.941 E4.55861
G1 X140.132 Y133.568 E4.60267
G1 X140.072 Y133.909 E4.62685
G1 X139.924 Y134.578 E4.67471
G1 X139.745 Y135.254 E4.72355
G1 X139.528 Y135.862 E4.76864
G1 X139.395 Y136.171 E4.79214
G1 X139.071 Y136.843 E4.84425
G1 X138.77 Y137.401 E4.88853
G1 X138.405 Y137.965 E4.93545
G1 X138.112 Y138.381 E4.97099
G1 X136.528 Y140.677 E5.16582
G1 X135.067 Y142.931 E5.35343
G1 X133.635 Y145.281 E5.54565
G1 X132.305 Y147.612 E5.7331
G1 X131.015 Y150.028 E5.92439
G1 X129.804 Y152.458 E6.11403
G1 X128.653 Y154.942 E6.30525
G1 X127.592 Y157.412 E6.49301
G1 X126.573 Y159.983 E6.68617
G1 X125.663 Y162.484 E6.87206
G1 X124.808 Y165.057 E7.06144
G1 X124.531 Y165.853 E7.12031
G1 X124.395 Y166.171 E7.14447
G1 X124.071 Y166.843 E7.19657
G1 X123.77 Y167.401 E7.24086
G1 X123.43 Y167.927 E7.2846
G1 X123.235 Y168.193 E7.30764
G1 X122.863 Y168.658 E7.34923
G1 X122.517 Y169.064 E7.38649
G1 X122.135 Y169.462 E7.42502
G1 X121.658 Y169.889 E7.46974
G1 X121.119 Y170.313 E7.51764
G1 X120.626 Y170.672 E7.56023
G1 X120.03 Y171.038 E7.60908
G1 X119.726 Y171.197 E7.63305
G1 X119.123 Y171.479 E7.67954
G1 X118.504 Y171.74 E7.72646
G1 X117.866 Y171.949 E7.77335
G1 X117.549 Y172.03 E7.79621
G1 X116.892 Y172.17 E7.84313
G1 X116.219 Y172.286 E7.89083
G1 X115.596 Y172.341 E7.93451
G1 X115.25 Y172.35 E7.95868
G1 X114.417 Y172.333 E8.01688
G1 X113.858 Y172.294 E8.05602
G1 X113.203 Y172.199 E8.10225
G1 X112.484 Y172.045 E8.1536
G1 X112.161 Y171.952 E8.17708
G1 X111.505 Y171.732 E8.22541
G1 X110.858 Y171.484 E8.2738
G1 X110.316 Y171.224 E8.31579
G1 X110.014 Y171.056 E8.33993
G1 X109.428 Y170.695 E8.388
G1 X108.882 Y170.329 E8.43391
G1 X108.362 Y169.913 E8.48043
G1 X108.117 Y169.691 E8.50352
G1 X107.638 Y169.218 E8.55054
G1 X107.114 Y168.649 E8.60457
G1 X106.752 Y168.182 E8.64584
G1 X106.568 Y167.916 E8.66843
G1 X106.243 Y167.399 E8.71108
G1 X105.979 Y166.948 E8.74758
G1 X105.741 Y166.484 E8.784
G1 X105.498 Y165.907 E8.82773
G1 X105.035 Y164.569 E8.92663
G1 X104.57 Y163.137 E9.03179
G1 X103.658 Y160.578 E9.22153
G1 X102.677 Y158.057 E9.41048
G1 X101.61 Y155.521 E9.60265
G1 X100.501 Y153.084 E9.78966
G1 X99.29 Y150.613 E9.98186
G1 X98.02 Y148.195 E10.17263
G1 X96.711 Y145.867 E10.35917
G1 X95.299 Y143.516 E10.55072
G1 X93.833 Y141.219 E10.74105
G1 X91.88 Y138.369 E10.98237
G1 X91.577 Y137.93 E11.01962
G1 X91.241 Y137.394 E11.06381
G1 X90.979 Y136.948 E11.09994
G1 X90.741 Y136.484 E11.13636
G1 X90.498 Y135.908 E11.18002
G1 X90.245 Y135.178 E11.23399
G1 X90.066 Y134.583 E11.27739
G1 X89.935 Y133.984 E11.32021
G1 X89.883 Y133.635 E11.34486
G1 X89.811 Y132.944 E11.39338
G1 X89.768 Y132.286 E11.43944
G1 X89.777 Y131.643 E11.48436
G1 X89.804 Y131.302 E11.50825
G1 X89.89 Y130.614 E11.55668
G1 X89.999 Y129.949 E11.60374
G1 X90.122 Y129.429 E11.64107
G1 X90.739 Y126.729 E11.83451
G1 X91.273 Y124.05 E12.02531
G1 X91.724 Y121.394 E12.21348
G1 X92.105 Y118.687 E12.40442
G1 X92.409 Y115.972 E12.59523
G1 X92.533 Y114.663 E12.68707
G1 X92.611 Y113.978 E12.73523
G1 X92.737 Y113.346 E12.78024
G1 X92.973 Y112.57 E12.83689
G1 X93.237 Y111.941 E12.88454
G1 X93.508 Y111.428 E12.92506
G1 X93.636 Y111.201 E12.94326
G1 X94.015 Y110.647 E12.99014
G1 X94.413 Y110.163 E13.03391
G1 X94.549 Y110.007 E13.04837
G1 X95.022 Y109.55 E13.09431
G0 F1440 X95.401 Y110.014
G1 F2400 X95.805 Y109.684 E13.13074
G1 X96.071 Y109.48 E13.15415
G1 X96.547 Y109.179 E13.19349
G1 X97.048 Y108.92 E13.23288
G1 X97.283 Y108.807 E13.2511
G1 X97.814 Y108.606 E13.29075
G1 X98.336 Y108.459 E13.32863
G1 X98.591 Y108.394 E13.34701
G1 X99.158 Y108.301 E13.38714
G1 X99.755 Y108.258 E13.42895
G1 X100.385 Y108.252 E13.47295
G1 X100.865 Y108.286 E13.50656
G1 X103.602 Y108.437 E13.69802
G1 X106.352 Y108.512 E13.89017
G1 X109.064 Y108.509 E14.0796
G1 X111.832 Y108.428 E14.27301
G1 X114.591 Y108.265 E14.46606
G1 X115.01 Y108.247 E14.49535
G1 X115.865 Y108.286 E14.55513
G1 X118.602 Y108.437 E14.74659
G1 X121.352 Y108.512 E14.93874
G1 X124.064 Y108.509 E15.12816
G1 X126.832 Y108.428 E15.32158
G1 X129.595 Y108.265 E15.5149
G1 X130 Y108.248 E15.54321
G1 X130.558 Y108.272 E15.58222
G1 X131.09 Y108.341 E15.61969
G1 X131.353 Y108.382 E15.63828
G1 X131.919 Y108.523 E15.67902
G1 X132.47 Y108.714 E15.71976
G1 X132.703 Y108.802 E15.73715
G1 X133.215 Y109.048 E15.77683
G1 X133.707 Y109.34 E15.81679
G1 X133.92 Y109.475 E15.8344
G1 X134.37 Y109.817 E15.87388
G1 X134.781 Y110.192 E15.91274
G1 X134.978 Y110.381 E15.93181
G1 X135.352 Y110.808 E15.97145
G1 X135.657 Y111.225 E16.00754
G1 X135.824 Y111.468 E16.02813
G1 X136.105 Y111.965 E16.06801
G1 X136.363 Y112.533 E16.11159
G1 X136.447 Y112.732 E16.12667
G1 X136.623 Y113.274 E16.16648
G1 X136.741 Y113.793 E16.20365
G1 X136.851 Y114.453 E16.25039
G1 X136.87 Y114.681 E16.26637
G1 X137.139 Y117.424 E16.45887
G1 X137.488 Y120.171 E16.65228
G1 X137.909 Y122.871 E16.84315
G1 X138.403 Y125.547 E17.03321
G1 X139.086 Y128.696 E17.25827
G1 X139.35 Y129.821 E17.33898
G1 X139.486 Y130.467 E17.38509
G1 X139.577 Y131.074 E17.42797
G1 X139.615 Y131.595 E17.46445
G1 X139.622 Y132.272 E17.51174
G1 X139.603 Y132.893 E17.55514
G1 X139.537 Y133.491 E17.59716
G1 X139.486 Y133.78 E17.61765
G1 X139.338 Y134.449 E17.66551
