;Header Start

;FLAVOR:Marlin
;TIME:6666
;Filament used: 0m
;Layer height: 0.16
;MINX:2.14748e+06
;MINY:2.14748e+06
;MINZ:2.14748e+06
;MAXX:-2.14748e+06
;MAXY:-2.14748e+06
;MAXZ:-2.14748e+06


;header_type: 3dp
;thumbnail: data:image/png;base64,iVBORw0KGgoAAAANSUhEUgAAASwAAACWCAYAAABkW7XSAAARZUlEQVR4Xu2dR6wdRRaGyyYnkzHBBAdyDiYYAwLPBiM2Hgk2ZHs2w2aYHSMxBIlhSZiVNYAYWA0SFgIxlkBjxmMkGxsjRA7GBkzONhibPPoKGi733dB9X3ffrve+kq7es19339NfnfrvOVWn+k7YtGnzj8EmAQlIIAECExSsBHpJEyUggUhAwdIRJCCBZAgoWMl0lYZKQAIKlj4gAQkkQ0DBSqarNFQCElCw9AEJSCAZAgpWMl2loRKQgIKlD0hAAskQULCS6SoNlYAEFCx9QAISSIaAgpVMV2moBCSgYOkDEpBAMgQUrGS6SkMlIAEFSx+QgASSIaBgJdNVGioBCShY+oAEJJAMAQUrma7SUAlIQMHSByQggWQIKFjJdJWGSkACCpY+IAEJJENAwUqmqzRUAhJQsPQBCUggGQIKVjJdpaESkICCpQ9IQALJEFCwkukqDZWABBQsfUACEkiGgIKVTFdpqAQkoGDpAxKQQDIEFKxkukpDJSABBUsfkIAEkiGgYCXTVRoqAQkoWPqABCSQDAEFK5mu0lAJSEDB0gckIIFkCChYyXSVhkpAAgqWPiABCSRDQMFKpqs0VAISULD0AQlIIBkCClYyXaWhEpCAgqUPSEACyRBQsJLpKg2VgAQULH1AAhJIhoCClUxXaagEJKBg6QMSkEAyBBSsZLpKQyUgAQVLH5CABJIhoGAl01UaKgEJKFj6gAQkkAwBBSuZrtJQCUhAwdIHJCCBZAgoWMl0lYZKQAIKlj4gAQkkQ0DBSqarNFQCElCw9AEJSCAZAgpWMl2loRKQgIKlD0hAAskQULCS6SoNlYAEFCx9QAISSIaAgpVMV2moBCSgYDXYB2655W+BV1Pa1ltvHa677q/hmmv+3BSTtGOcEVCwGtjhS5b8Jzz++JLGWfbuu++GN954I9x22x3h2GOPbZx9GjT2CShYDezju+++M6xbt66Blv1k0iWXXBYOP/zwxtqnYWOXgILVwL5tFawff/wxRjUTJ24VZsyYHr799tuOFn///ffhhRdeCHPm/C5s2PB5+Oabbzoex/nLly8PN998S1i69L9hy5bNHY/bvHlz+PTTT8OVV84PK1YsDxs3bvjlOAWrgU4zTkxSsBrY0e0R1tKlS8Pnn38eTjnllHDAAQd0tXjJkiVh48aN4bTTTgv77bdf1+Mee+yxsGnTpnDGGWeEyZMndz1u8eLFUfhmzZoV9t57bwWrgb4y3kxSsGrs8bwT6JMn79PolHD9+rdzp4SzZ58VzjrrrIEpL1u2bMS5Tzwx8v/aD+J9O7XR2DLwTXhiaQQUrNJQdr8Qgw6xyjPQuAoRzerVq8OOO+4Yjj766Phz4sSJNVg68i1IDZ966qmwzTbbhJNOOinsvvvugfv58MMPc9mDcFx77V9G3Hu7EE2ZckAUaVLWp59+Ote1Ww/abrvtAunzDz/8EL777rvc5xOxTpkyJZx55plh5cpVI85rFzjuxTY8AgpWxeyLliYgTAgDJQTPP/98FIj999+/YitHXn7ChAlRKF9//fVwyCGHRCH47LPPwmuvvRa+/vrr3PZkEVbe6DL3hVsOxNYjjjgipq+sZCKyVbVMgI3UqiLc+7oKVkXci0ZVrWYQzcyYMSPOGzGRzuQ30UMdjUhlt912iyLF70zmr127NtpQRKhabb311tvCNdf8qVLzd9hhh3DkkUfGBQpsrboRaRltVU25wwfppk2b6xkJ9d/b0N6xaFTVyVAiLVIVhAPBeO+996J4VNGI5nbZZZcYye21116BiOXtt98OH3zwQfjiiy9G/ZaPPLI4XHDB+aO+Tr8LIPAHH3xwFHnElaiwyka09e9/L67yLbx2GwEjrBJdYjRRVSczEI599tknpjvvv/9+eOutt0pLd7j2zjvvHAWKQU7bsGFDfA9+FpkH6odw1arVYebMk/sdNuq/I/KHHnpojAxfeumleL1uZSCjfrOfL2CKWBbJfNdRsPJx6ntUGVFVtzchRWPynTkaogfmaAZNEUmdmBc76KCDwvbbbx+F6c033wyffPJJ+Oqrr/re5yAH1CVY2IZYHXfccXEui3vasmXLICYXPscUsTCygU5QsAbC9utJZUdV3cxhApztMKRviBZRUB7RIpLKUj5WxLKU75133olRGylf1alTXSlhxg5Bnj59enj11Vfj/eXhNEo3iKebIpZBsfc1FKxRMG6NqijAPPDAA2PkQlu0aNEortz5VKIHUh7makh5Pvroozjf1Cl922qrrcJOO+0UC0Oxi0ZRaZbyDTqB3u2mmP86/fTT459XrFgRI5ys1S1YMGHuj3T6mWeeiXyqmv/rxIP7dRWxdPePF1SwBuBKVHXfffeGZcv+F88mWqmrES0hisw7sSLG5HjrPA2R2J577hkn7En/iJ6obyI9orq9rmgjq8hHPBYu/Ee48srLc9dulcFy2223DSeccEJcMYQT6e+XX35ZxqVzXcMUMRemwgcpWIWRhSgAbJ9h8GfFiuvXrw8rV66MaVbVjehp3333jdXmFHASbbHKR1SBWCESrCryIqoqcwK9272deOKJUSR5MfnNCzt4XXXVgnD11X/MXThbFr9dd901HHbYYVGwSA3rms/K7DdFLKsnf72OglUS0wUL5of77/9XSVfrfxmEYI899ogHMhCPOeaYGE0R7VHgWWXxZLt1pJ133PH3gJBSPzZt2vQRN3DFFZeHRYse6H9jJR4Bo6yS/bnnnouLCnVFmK23YYpYXqcqWCWwrHKFsJd5pIdEMpQ9MDhffPHFypfxO9kzb97vwz33/LMnyWExogj3qKOOinNqzPkNq5kilkNewRolx2ENxCztIjVkTosIoowiz0Fw5BmMw+LE/WT7DPlJFMgEPPN+pMp1pMumiIN4VedzFKwBWQ5zABJNMfiYVCd6YL8fVenDSHfAx9ab+fMXNDLCQqAmTZoUU2bm15iMJ3Vmbo+oK6vXYtW0Ln6miAMOOlcJBwM3TLHCYtIc0kHEirkqNiRXXdHdi1S/AQgvVlbzPq1isF757VlEoDCi6JZCUn5nxRCxp1HyADNqtkgVmftjAaPsKv9u95JVyPN3SyDy97gRVn5W8ci5c8+vdeC1m8fAo7EiyGBjhbDO5fpOuBCsTmJUt0hlthFVIViI0vHHHx+jKOqxOjVSasofqG1D/FlZRbyyyv+66rdan9/VKmCjfZ5YQfdu/OEKVs4uGnZUhZkMRCIEShcoIH3llVfCxx9/XFsq0w0VW294GkOraGVza9lGagZ+HSUf2Ejax+ogaSDlJt3EqvV+sDd7sfrKSiviRarN71WnjDNnzowiS1pKbR28eG+a+xV/7SkFK4dgNUGssnkrBiP7CkljqC+qc9K4l2C1b27mEc1U2GM3g5AatToa83oU1ZIu85SLPGLVblcWdVGuQdQFa6I0UkYWNqpgjsBmZRiIFftGn3322d+Ylmdxow7Gw3wPBasP/WGngJl5CBUOTSEkVdvsJ6xqs3JRh9y48cswadLORU8r9XhSZbiwh5CCWvYRDiJW3cSLPZhM1BP1EHllG6vrShkzu8Z7tKVgdRk2TYiqMtMYjEQp7Ndj7op6qzof6tdLWZgnWrNm7dAEizSZF1uSEHNePKm1DLFqTxmZ6yL6Ij0kFUe8eDFRX3XK2N4H4zXaUrA6jMYmiRWDkcZqF2kO8xtsYK77k72baGWf+HU8oK/dhmwBgsUH2JAKPvroo5XPlbVP1JMqkjIiYiyAVJEyduI/HqMtBavNE5qSAmIW8zFEVogWA5Jl+Jdffrn2PXG9IqxhCRbpMVyYZ+LRyIgXUVVdE/swyYSLn/QNX8XG+2cT9WyZquODZTxFWwrWz6OxSVFVJhDUWzEwqWRnYJIKMijqKnDMM8nEthyKRquKsBAlCj073TN8SAUR9jqFqhMXRIuGnaSHvLJq+jwc+x2T1Y916/vxEm0pWCHEr+Cq8ltd+jljp79n81bMETEvQzV7lc91H8RGzqlKsBAhnraQPWWhjkhlUAZ1nZdFlfzsVig81qOtcS1YdT0ttKhDZ/NWPDKGdIdBu2bNmkalgtk9sS2HOZyyBZ+VPkoKiCj5OcxK/qL9V/XxRJYIeLcnxY7laGvcClYToyocnT2CNIoIWaJHtEgFWYlqYqtKsObMmfPLV3ZRvkFdUpNS4WH3Rfa8sV6R51iMtsalYDVVrBgEfHoyMCkkpISBeiImcat+7vqgAzDbllN2hDV37txY+AkHxIovl7WNJMCq8ZNPPhlXjzu1sRZtjSvBamoKmDkag5MC0eyJolk1e9nPXy9z4CNYiFXZG5vnzZsX00G+eMPWn8Dtt9/e86CxEm2NG8FqclSFpzHJfs4558SlcpbD2YBLKkh1dZNbp32EZdh78cUXx3SYL9Kw9SfAF38QafVqYyHaGheC1XSxwslYnueJAURYRFTMWdXxFVz9h0LvI9iWU3btGqtgF110URTvXo39iWyRYeMwW2dG06jhyh41zRfMDtq4Diuc2Tf30J+DNmrusIUtR9mz+rtdK49gZeemHG2NacFqego4qCM35bxsW07ZgsX9EWH1EqyFCxdGYWeRAqE/9dRT4wP6ijYi2QceeCDOHbKbgJo3Npfze9HGPNJDDz0UI0NsYg5y2rRp8UOoaEOMibCp4ocDG8mZMui28MA9dJvH6vTeqUZbY1awRhNVtT5pgM7GEer8Kq+izl3k+OwxJtl9MZlPfdcgrap9hFz33HPP7SlY9957b5zjYr4v+2Zs9voVbTxamg82ttNkUS6lJNS+FW2rVq0Ky5cvj+k9NWSI1qxZs2KUVLQ9+OCD8dE42MT9weTkk0+O/+7UigpWqtHWmBSsdevWhhtvvOEXkWn95OknPFSUX3jhhfFTEccjtMcJ63o8SlHHLnI8K2182Wl2XyyJc2+rV6/ueZnsOwbbIxg+pa+//oZKNj73i7BIvfi6NQb17NmzY3TFoB6kcf88qgfhPvvss+MTSgdtDz/8cLQL/8Eunsk1SKNyn77BdylvmTp1aqzJ69b6Tbr3siGlaGvMCtZdd93Z1086CVkRcev7Bg08IBMfTGsXoG7C1O02GETz5/+hEsEiwhqNcDQQfWUm4bNEWKNtKcxtjUnByjqOSKu18cnX6f/6dXT73EAWpTVB3LoJUC9h6ne/CBFt6tRpvzk0+//2v1XxLCy+mJVox9afQFmCxTs1Pdoa04LVv6t/PaJVyBA2Wqf/63fNflEb5/dKS7tFOWUIULvQdBOgfvfY+nfmf6rY+Kxg5e+FMgUre9emRlsKVn6/GCFiP4na6MWt6OpWN6EpQ4AK4oj3f9NNNxQ9LdfxRbnkuugYPKjI6mCR27/00svCeefNKXJK5ccqWBUizhu1NUmAiuJAsO6+u/98YdHrevzwCVx11YI42d+kpmA1qTe0RQIS6ElAwdJBJCCBZAgoWMl0lYZKQAIKlj4gAQkkQ0DBSqarNFQCElCw9AEJSCAZAgpWMl2loRKQgIKlD0hAAskQULCS6SoNlYAEFCx9QAISSIaAgpVMV2moBCSgYOkDEpBAMgQUrGS6SkMlIAEFSx+QgASSIaBgJdNVGioBCShY+oAEJJAMAQUrma7SUAlIQMHSByQggWQIKFjJdJWGSkACCpY+IAEJJENAwUqmqzRUAhJQsPQBCUggGQIKVjJdpaESkICCpQ9IQALJEFCwkukqDZWABBQsfUACEkiGgIKVTFdpqAQkoGDpAxKQQDIEFKxkukpDJSABBUsfkIAEkiGgYCXTVRoqAQkoWPqABCSQDAEFK5mu0lAJSEDB0gckIIFkCChYyXSVhkpAAgqWPiABCSRDQMFKpqs0VAISULD0AQlIIBkCClYyXaWhEpCAgqUPSEACyRBQsJLpKg2VgAQULH1AAhJIhoCClUxXaagEJKBg6QMSkEAyBBSsZLpKQyUgAQVLH5CABJIh8H+9M+tP1PGJGAAAAABJRU5ErkJggg==
;file_total_lines: 46720
;estimated_time(s): 21377.530000000002
;nozzle_temperature(°C): 205
;build_plate_temperature(°C): 70
;work_speed(mm/minute): 3000
;max_x(mm): 73.39490610328669
;max_y(mm): 69.5
;max_z(mm): 10
;min_x(mm): -60.443184137675786
;min_y(mm): -69.5
;min_z(mm): 0

;Header End

; G-code for 3dp engraving
; Generated by Snapmaker Luban 4.1.3
; Thu Jan 06 2022 20:40:29

M82 ;absolute extrusion mode
;Start GCode begin
M104 S205
M140 S70
G28 ;home
G90 ;absolute positioning
G1 X-10 Y-10 F3000
G1 Z0 F1800
M109 S205;Wait for Hotend Temperature
M190 S70;Wait for Bed Temperature
G92 E0
G1 E20 F200
G92 E0
;Start GCode end
G92 E0
G92 E0
G1 F1500 E-5
;LAYER_COUNT:61
;LAYER:0
M107
G0 F1440 X59.252 Y61.185 Z0.28
;TYPE:SKIRT
G1 F1500 E0
G1 F2400 X59.645 Y60.855 E0.03584
G1 X60.084 Y60.589 E0.0717
G1 X60.554 Y60.396 E0.10718
G1 X61.07 Y60.236 E0.14492
G1 X87.989 Y52.517 E2.10088
G1 X88.693 Y52.326 E2.15183
G1 X89.197 Y52.231 E2.18765
G1 X89.711 Y52.215 E2.22357
G1 X89.987 Y52.239 E2.24292
G1 X91.355 Y52.419 E2.3393
G1 X94.055 Y52.737 E2.52918
G1 X96.797 Y52.981 E2.72146
G1 X99.54 Y53.147 E2.9134
G1 X102.251 Y53.234 E3.10285
G1 X103.99 Y53.25 E3.22432
G1 X106.755 Y53.21 E3.41746
G1 X109.466 Y53.095 E3.60699
G1 X112.209 Y52.901 E3.79905
G1 X114.927 Y52.632 E3.98982
G1 X117.715 Y52.273 E4.18616
G1 X118.313 Y52.21 E4.22816
G1 X118.725 Y52.2 E4.25695
G1 X187.735 Y52.2 E9.07704
G1 X188.433 Y52.21 E9.1258
G1 X188.945 Y52.258 E9.16171
G1 X189.442 Y52.384 E9.19753
G1 X189.914 Y52.585 E9.23336
G1 X190.35 Y52.858 E9.26929
G1 X190.737 Y53.194 E9.30508
G1 X191.068 Y53.587 E9.34097
G1 X191.334 Y54.026 E9.37682
G1 X191.528 Y54.502 E9.41273
G1 X191.647 Y55.001 E9.44856
G1 X191.694 Y55.737 E9.50007
G1 X191.695 Y109.844 E13.27924
G1 X191.684 Y110.551 E13.32863
G1 X191.636 Y111.063 E13.36455
G1 X191.483 Y111.635 E13.4059
G1 X191.277 Y112.194 E13.44751
G1 X190.686 Y113.727 E13.56227
G1 X189.765 Y116.334 E13.75539
G1 X188.926 Y118.945 E13.94694
G1 X188.167 Y121.557 E14.13693
G1 X187.471 Y124.233 E14.33005
G1 X186.856 Y126.896 E14.52095
G1 X186.33 Y129.533 E14.70876
G1 X185.86 Y132.274 E14.90301
G1 X185.479 Y134.953 E15.09201
G1 X185.167 Y137.692 E15.28455
G1 X184.938 Y140.387 E15.47347
G1 X184.782 Y143.14 E15.66606
G1 X184.695 Y147.234 E15.95208
G1 X184.695 Y185.78 E18.64437
G1 X184.685 Y186.508 E18.69522
G1 X184.638 Y187.02 E18.73114
G1 X184.512 Y187.517 E18.76695
G1 X184.311 Y187.99 E18.80284
G1 X184.038 Y188.425 E18.83872
G1 X183.702 Y188.813 E18.87457
G1 X183.309 Y189.144 E18.91045
G1 X182.87 Y189.41 E18.94631
G1 X182.398 Y189.604 E18.98195
G1 X181.882 Y189.764 E19.01968
G1 X154.963 Y197.483 E20.97565
G1 X154.259 Y197.674 E21.0266
G1 X153.755 Y197.769 E21.06242
G1 X153.241 Y197.785 E21.09834
G1 X152.965 Y197.761 E21.11769
G1 X151.597 Y197.581 E21.21406
G1 X148.897 Y197.263 E21.40395
G1 X146.155 Y197.019 E21.59623
G1 X143.412 Y196.853 E21.78816
G1 X140.701 Y196.766 E21.97761
G1 X138.962 Y196.75 E22.09908
G1 X136.197 Y196.79 E22.29223
G1 X133.486 Y196.905 E22.48175
G1 X130.743 Y197.099 E22.67382
G1 X128.025 Y197.368 E22.86459
G1 X125.237 Y197.727 E23.06093
G1 X124.639 Y197.79 E23.10293
G1 X124.227 Y197.8 E23.13171
G1 X55.221 Y197.8 E27.95152
G1 X54.523 Y197.791 E28.00028
G1 X54.012 Y197.744 E28.03612
G1 X53.514 Y197.619 E28.07199
G1 X53.042 Y197.418 E28.10782
G1 X52.606 Y197.146 E28.14371
G1 X52.218 Y196.81 E28.17956
G1 X51.887 Y196.418 E28.2154
G1 X51.62 Y195.979 E28.25128
G1 X51.425 Y195.504 E28.28715
G1 X51.306 Y195.005 E28.32298
G1 X51.258 Y194.247 E28.37603
G1 X51.257 Y140.156 E32.15408
G1 X51.268 Y139.45 E32.2034
G1 X51.316 Y138.938 E32.23932
G1 X51.469 Y138.366 E32.28068
G1 X51.675 Y137.807 E32.32229
G1 X52.266 Y136.274 E32.43704
G1 X53.187 Y133.667 E32.63016
G1 X54.029 Y131.047 E32.82238
G1 X54.782 Y128.453 E33.01104
G1 X55.481 Y125.767 E33.20489
G1 X56.096 Y123.104 E33.39579
G1 X56.622 Y120.467 E33.5836
G1 X57.092 Y117.726 E33.77784
G1 X57.473 Y115.047 E33.96684
G1 X57.785 Y112.308 E34.15939
G1 X58.014 Y109.613 E34.34831
G1 X58.17 Y106.86 E34.5409
G1 X58.257 Y102.766 E34.82692
G1 X58.257 Y64.179 E37.52207
G1 X58.267 Y63.489 E37.57027
G1 X58.315 Y62.978 E37.60612
G1 X58.441 Y62.48 E37.642
G1 X58.643 Y62.008 E37.67786
G1 X58.915 Y61.573 E37.71369
G1 X59.252 Y61.185 E37.74959
G1 F1500 E32.74959
;MESH:/Users/florian/Library/Application Support/snapmaker-luban/Tmp/88636619_40491055.stl
G0 F1440 X62.272 Y64.068
G0 X72.003 Y65.935
G0 X103.487 Y62.381
;TYPE:WALL-INNER
G1 F1500 E37.74959
G1 F2400 X103.294 Y63.338 E37.81778
G1 X103.389 Y64.289 E37.88453
G1 X103.704 Y65.087 E37.94446
G1 X104.267 Y65.826 E38.00934
G1 X104.952 Y66.343 E38.06929
G1 X105.832 Y66.686 E38.13526
G1 X106.785 Y66.757 E38.202
G1 X107.607 Y66.588 E38.26062
G1 X108.337 Y66.233 E38.31732
G1 X108.97 Y65.697 E38.37525
G1 X109.494 Y64.929 E38.44019
G1 X109.755 Y64.134 E38.49863
G1 X109.809 Y63.416 E38.54892
G1 X109.817 Y63.307 E38.55656
G1 X109.721 Y62.843 E38.58965
G1 X109.932 Y62.903 E38.59117
G1 X110.037 Y62.933 E38.59791
G1 X116.057 Y64.659 E39.03533
G1 X116.057 Y132.571 E43.77873
G1 X116.096 Y133.334 E43.83209
G1 X116.218 Y134.158 E43.89027
G1 X116.421 Y134.968 E43.9486
G1 X116.702 Y135.754 E44.0069
G1 X117.058 Y136.508 E44.06514
G1 X117.489 Y137.224 E44.12351
G1 X117.986 Y137.893 E44.18172
G1 X118.545 Y138.512 E44.23997
G1 X119.164 Y139.071 E44.29823
G1 X119.833 Y139.568 E44.35644
G1 X120.549 Y139.998 E44.41478
G1 X121.303 Y140.354 E44.47302
G1 X122.089 Y140.636 E44.53134
G1 X122.899 Y140.838 E44.58965
G1 X123.057 Y140.862 E44.60081
G1 X123.057 Y143.044 E44.75322
G1 X123.057 Y143.396 E44.7778
G1 X123.057 Y144.307 E44.84143
G1 X123.057 Y145.134 E44.89919
G1 X123.057 Y145.929 E44.95472
G1 X123.057 Y145.988 E44.95884
G1 X123.057 Y193 E48.24246
G1 X56.057 Y193 E52.92216
G1 X56.057 Y145.993 E56.20542
G1 X56.057 Y145.289 E56.25459
G1 X56.057 Y144.338 E56.32102
G1 X56.057 Y143.381 E56.38786
G1 X56.057 Y143.048 E56.41112
G1 X56.057 Y140.861 E56.56387
G1 X56.214 Y140.838 E56.57496
G1 X57.024 Y140.636 E56.63326
G1 X57.811 Y140.354 E56.69166
G1 X58.565 Y139.998 E56.74989
G1 X59.281 Y139.568 E56.80823
G1 X59.95 Y139.071 E56.86644
G1 X60.569 Y138.512 E56.9247
G1 X61.128 Y137.893 E56.98295
G1 X61.625 Y137.224 E57.04116
G1 X62.055 Y136.508 E57.0995
G1 X62.412 Y135.754 E57.15777
G1 X62.692 Y134.967 E57.21611
G1 X62.895 Y134.161 E57.27417
G1 X63.018 Y133.334 E57.33256
G1 X63.057 Y132.537 E57.3883
G1 X63.057 Y64.659 E62.12932
G1 X69.083 Y62.932 E62.56716
G1 X69.17 Y62.907 E62.57348
G1 X69.394 Y62.842 E62.58977
G1 X69.294 Y63.338 E62.61093
G1 X69.303 Y63.428 E62.61663
G1 X69.389 Y64.289 E62.67707
G1 X69.704 Y65.087 E62.73699
G1 X70.267 Y65.826 E62.80188
G1 X70.952 Y66.343 E62.86182
G1 X71.832 Y66.686 E62.92779
G1 X72.785 Y66.757 E62.99454
G1 X73.607 Y66.588 E63.05315
G1 X74.337 Y66.233 E63.10985
G1 X74.97 Y65.697 E63.16779
G1 X75.494 Y64.929 E63.23272
G1 X75.755 Y64.134 E63.29117
G1 X75.817 Y63.307 E63.34909
G1 X75.628 Y62.396 E63.41408
G1 X75.281 Y61.723 E63.46696
G1 X75.245 Y61.653 E63.47246
G1 X74.899 Y61.263 E63.50888
G1 X75.115 Y61.201 E63.51072
G1 X75.19 Y61.18 E63.5157
G1 X89.557 Y57.06 E64.55962
G1 X103.879 Y61.167 E65.60028
G1 X104.042 Y61.213 E65.61211
G1 X104.221 Y61.265 E65.62513
G1 X103.952 Y61.528 E65.63882
G1 X103.871 Y61.677 E65.64856
G1 X103.487 Y62.381 E65.70457
G0 F1440 X116.487 Y143.381
G1 F2400 X116.294 Y144.338 E65.77276
G1 X116.389 Y145.289 E65.83952
G1 X116.704 Y146.087 E65.89944
G1 X117.267 Y146.826 E65.96433
G1 X117.952 Y147.343 E66.02427
G1 X118.832 Y147.686 E66.09024
G1 X119.785 Y147.757 E66.15699
G1 X120.607 Y147.588 E66.2156
G1 X121.337 Y147.233 E66.2723
G1 X121.97 Y146.697 E66.33023
G1 X122.461 Y145.977 E66.3911
G1 X122.494 Y145.929 E66.39505
G1 X122.755 Y145.134 E66.43778
G1 X122.817 Y144.307 E66.464
G1 X122.628 Y143.396 E66.50067
G1 X122.467 Y143.083 E66.52184
G1 X122.245 Y142.653 E66.55564
G1 X121.694 Y142.033 E66.61358
G1 X120.912 Y141.53 E66.67852
G1 X120.11 Y141.286 E66.73707
G1 X119.283 Y141.248 E66.7949
G1 X118.377 Y141.456 E66.85983
G1 X117.627 Y141.869 E66.91963
G1 X116.952 Y142.528 E66.98552
G1 X116.487 Y143.381 E67.05337
G0 F1440 X59.352 Y142.013
G0 X56.487 Y143.381
G1 F2400 X56.294 Y144.338 E67.09172
G1 X56.389 Y145.289 E67.12349
G1 X56.647 Y145.944 E67.16186
G1 X56.704 Y146.087 E67.17261
G1 X57.267 Y146.826 E67.2375
G1 X57.952 Y147.343 E67.29744
G1 X58.832 Y147.686 E67.36341
G1 X59.785 Y147.757 E67.43016
G1 X60.607 Y147.588 E67.48877
G1 X61.337 Y147.233 E67.54547
G1 X61.97 Y146.697 E67.6034
G1 X62.494 Y145.929 E67.66834
G1 X62.755 Y145.134 E67.72678
G1 X62.817 Y144.307 E67.78471
G1 X62.628 Y143.396 E67.84969
G1 X62.245 Y142.653 E67.90808
G1 X61.694 Y142.033 E67.96601
G1 X60.912 Y141.53 E68.03096
G1 X60.11 Y141.286 E68.08951
G1 X59.283 Y141.248 E68.14733
G1 X58.377 Y141.456 E68.21226
G1 X57.627 Y141.869 E68.27206
G1 X56.952 Y142.528 E68.33795
G1 X56.646 Y143.089 E68.38258
G1 X56.487 Y143.381 E68.40262
G0 F1440 X57.057 Y143.589
G1 F2400 X56.9 Y144.368 E68.45812
G1 X56.978 Y145.146 E68.51273
G1 X57.232 Y145.79 E68.56109
G1 X57.694 Y146.397 E68.61437
G1 X58.247 Y146.814 E68.66274
G1 X58.966 Y147.094 E68.71664
G1 X59.746 Y147.152 E68.77127
G1 X60.412 Y147.015 E68.81876
G1 X61.007 Y146.726 E68.86496
G1 X61.52 Y146.292 E68.91189
G1 X61.95 Y145.661 E68.96523
G1 X62.162 Y145.016 E69.01265
G1 X62.212 Y144.346 E69.05958
G1 X62.057 Y143.598 E69.11293
G1 X61.746 Y142.995 E69.16032
G1 X61.3 Y142.493 E69.20722
G1 X60.658 Y142.08 E69.26054
G1 X60.007 Y141.882 E69.30807
G1 X59.337 Y141.851 E69.35491
G1 X58.593 Y142.022 E69.40823
G1 X57.988 Y142.355 E69.45647
G1 X57.436 Y142.894 E69.51036
G1 X57.057 Y143.589 E69.56565
G0 F1440 X58.085 Y142.485
G0 X59.217 Y142.045
G0 X117.057 Y143.589
G1 F2400 X116.9 Y144.368 E69.62115
G1 X116.978 Y145.146 E69.67577
G1 X117.232 Y145.79 E69.72412
