;Header Start

;FLAVOR:Marlin
;TIME:6666
;Filament used: 0m
;Layer height: 0.16
;MINX:2.14748e+06
;MINY:2.14748e+06
;MINZ:2.14748e+06
;MAXX:-2.14748e+06
;MAXY:-2.14748e+06
;MAXZ:-2.14748e+06


;header_type: 3dp
;thumbnail: data:image/png;base64,iVBORw0KGgoAAAANSUhEUgAAASwAAACWCAYAAABkW7XSAAARL0lEQVR4Xu2da6xVxRXHBxUEBTTG9ytCg0B8IYjgRYhAYqzPBCpNWhJEaxRriyaNif1gGptUv9mPxvqiapuaXtILATRG0fgGwUcx0Rge8lBU5Cry8E3zH5zbcw/nnP04e9971pnfJDeQe/aeveY36/zvWjOzZwbs2bNvv6NAAAIQMEBgAIJloJcwEQIQ8AQQLBwBAhAwQwDBMtNVGAoBCCBY+AAEIGCGAIJlpqswFAIQQLDwAQhAwAwBBMtMV2EoBCCAYOEDEICAGQIIlpmuwlAIQADBwgcgAAEzBBAsM12FoRCAAIKFD0AAAmYIIFhmugpDIQABBAsfgAAEzBBAsMx0FYZCAAIIFj4AAQiYIYBgmekqDIUABBAsfAACEDBDAMEy01UYCgEIIFj4AAQgYIYAgmWmqzAUAhBAsPABCEDADAEEy0xXYSgEIIBg4QMQgIAZAgiWma7CUAhAAMHCByAAATMEECwzXYWhEIAAgoUPQAACZgggWGa6CkMhAAEECx+AAATMEECwzHQVhkIAAggWPgABCJghgGCZ6SoMhQAEECx8AAIQMEMAwTLTVRgKAQggWPgABCBghgCCZaarMBQCEECw8AEIQMAMAQTLTFdhKAQggGDhAxCAgBkCCJaZrsJQCEAAwcIHIAABMwQQLDNdhaEQgACChQ9AAAJmCCBYZroKQyEAAQQLH4AABMwQQLDMdBWGQgACCBY+AAEImCGAYJnpKgyFAAQQLHwAAhAwQwDBMtNVGAoBCCBY+AAEIGCGAIJlpqswFAIQQLDwAQhAwAwBBMtMV2EoBCCAYOEDEICAGQIIlpmuwlAIQADBwgdansCLL77oNmxY7w455BA3ZcoUt23bR27q1KmJdlfe19ExxX30Ubr7Eivmgn4jgGD1G3oenJbAwoW/c93d3e7QQw91+/fvd5MmTXYLFtySeHve+xIr5oJ+I4Bg9Rt6HpyWwG23/d4dccQRXrB+/PFHd+qpp7oFC36beLvuGzJkiDvssMMy3ZdYMRf0GwEEq9/Q82ARuPfee3zU1Khs2bLZDR8+vEd4PvjgAzd+/IREgFu3bnHDhg1Lfd/FF09NlWomPpgLSiOAYJWGloobEXjzzTfdnDm/cIcffriPfuoVRVUSHUVYipR++OEHt2/fPp8iNhI6XTt06NCe+/SMvXv3prqvq2upGzFiBB3YggQQrBbslBhM6uz8t3vyyX+5M888syWbO336DDdjxsyWtC1moxCsmHu/H9u+ZEmXW716VS8LJBKbNm10GzdubGiZruvq+o9PExsVXbdixXI3ePDghtd9/PHH7rjjjvMRXCiKsK6//jf9SIhH1yKAYOEXpRLQ0oJaZenSLp8OhvL222/71HDDhg3uyiuv7PVZ5f2DBg1yq1atcp9++qmbOXOmH4ivVQYOHOjuv/9+N2bMGL8Uol7ZsWOHe/rpp91ZZ53lxo0b10uwRo0afdBtaZZTlAo08soRrMgdoMzmS6yuuOLnNR9xyimnuFmzZvX6bM2aNX6t1fnnn9/QrDfeeMNJkM4777yGQqRITaJ47rnn1r1u+/btbsuWLX428eyzz+657vXXX/fCWF00MH/nnX9kcL5Mx2lQN4LVT+D12Hvu+YurF4EUZdZLL/WOcPSFK6Mo8lBbKp938skn+8Wa9crs2bMTTdm6dau/RksZNOBeL6JKrKjiAtU5adIkt23btrq37d6920deSSUIWLiOCCyJWHOfI1jN8ct993XXzXOLF3fmvr/VblTUIQEuuijauuiii9wnn3ziTjrpJPfKK6+4tWvXNvWY+fPnuyOPPNJp7OrEE090nZ2dTpFWEUUc9EMphwCCVQ7XurXqS13GF7uPm3HQ4+6776/uiSce74moGkVWWWw955xz3NixY31q99133/k0TeNceYtSP41pHXvssT6t1FKHV199tWEkmOVZF1xwgZs37zr/QymeAIJVPNPoxEoNlmCtXPmcUxoYisaa9NNM0ZiW0sABAwb4dVfff/994kLTpOeVUaeESj8qgwcPcXff/eckM/g8BwEEKwe0PLdkjaxOOOEEd/rpp/tBaA0AK3VpNm1RSnXaaad58xWp6BlKtYooy5at6BlgD6KlWbfly5cXUb2JOirH7EgNy+kyBKscrj21ZhUq3ahxm46ODr8uSFGFUiGlQWkGges1Z/z48X4sKNT57bffutdee8299dZbhRBQhHX77bf1quv44493kydP9r8LkVZRqWIhRhdYSYiuKtvKjGKBgH+qCsEqnmlTYqWbFQlpyj/MiEmwNEX/1FNP5ba2WrBUp8ZuyhQsGXv11Vd7mytTxSVLlhQ2ZpQbSIE3Xn755T4aVqnVNqKt4mAjWMWx7FVTnsgqVKD0T4IVVl5r3GbPnj1u0aJFua0NUVulCPaFYFUaHERLkVdRQpkbSB/fSLRVDHAEqxiOTUdVlWZoyv3CCy/0L+4qJfz666/9WJN2KVAql7VowFqvmuhHr6moTgmg1iEpctP6pmaKBOiRRxb5MSwtCNUaJz1DCzKVArZrGpiWmdJFrSPTeOTo0WNY9pAWXI3rEKwm4FXf2kxUVV2XnDvMjDXazSCL+WXUqecHwbrpphu9YElsZbN+JIZKPzX4XtQAf5Y2N3Ot2qLSaIFpUv1KxcVDka34L1682E2dOs098MDfkm7lcwSrPB8oUqzKs7KcmiVY+gLqxWVFVpogqBas1atXu3Xr1hVigJ6ndwnLKpo9VVSkiFTRoVbGqz15l2goFVaKrz9AI0f+zA0Y4HixOmfnEWHlBBdui1moAoNZs2a7Rx89eHxN+7BLwBRd/fOf/yhMsPSi8hdffOEFIBRFclq5XkTRzKYWrGqxatjlVCK8bNmypqrX0g9e3WkKoUOwmuCHWB2AV0+wKtEW9SqSxvUuu+wyP+sYJhAkinplJ28EVO0C2mpGEx/avkaipUkPpbPr16/3/2+mMGPYDD2HYOXBF16tacdXbPLwSCNYRYm7tpeZMGGCGzVqlH+1RkXpmnZ6eOedd/KY3/CeMI5YZMWaMVy+fEWRVUZTFxFWg64OOymEHQiqdyOIxktSNDTsAhFe/K1OfR566MGDFpamqLbmJXofULOdGsQORbOn2mEhaX/4vM8s4z5SxOxUEaw6zB5++MHEnS+1UlyvzcRWrrrqKjdy5MjEZmvHzrA3epGClfhgQxeQImbrLASrileIqlaufLahYEmowl5N2ZDbv1qCpdQsqWhP9DPOOHCYQ3f3Tjd37q+Tbonyc1LE9N2OYP3EqtYYi9bhhDGMZtbipO8OG1fWWlagQXClaErJarFavXqNmzgx+WguGwTKsZIUMZkrgvXTzp+VA+j6Qk6cONFHEVqHoy9hre1yk/HGcYVm1LQUICwB2Lx5sx8ErywIVjpfIEVszClqwSpq5qoRYi1ADEesly16OrwhpGpKWSW8Ov+vFQqClb4XSBHrs4pWsJoRK+2mUMTe4uldOPnKY445xl1yySU+HVN6poWU33zzjVu6dGmpq8KTLTtwhdKd+fPntYQtaW3u7+tIEQ/ugegES4PqEqvqwxmyOKfeDdPeUq1UtPJbCx01jhTe4dNUvwSrFd7hQ7DyeQspYm9uUQlWM1FVJbZWFKwvv/zSr00KR78rwuprwWr0jp8E6447/uDefffdfN/ciO8iRfx/50cjWJWvhiQdP5X03dC4VKPDOZPuL+PzXbt2ebHSjyYJQkr4wgsv+G1p+rtIsLQWq51OCuprpqSIbfpqTuWK9KTV6RqkzrrHlATv2muv7Wt/bfg8rfJ+/vnn/ftueYqWb4RxuWbfl6v1fKU277//PoKVp3Mq7ok9RWyrCCvr+FSYvcu635RSHy2erNwtoEk/bPp2RViahdSmeXk25NPYl6KzoUOH+vt37tzZtE2VFSBYxeGMOUVsG8HKOj4VxCbru2f6Ykuwhg0bVpwHNllTOKhix44dfifRPEXirTGwo446yp+mU/RyCH3JdNJz9UEVeWzlHudi3XLZvGBljar0pVRElTUNbOcvicRbOx/opeKjjz7ab+erca8iN8lDsMrxoNhSRNOClTWq0l7jOpcvbH1bjgvZrFUr+jWDp7VbemFZW7UULVg333wz7xOW4B4xpYimBWvu3F/5TdvSHHIgsQpn5JXgM21T5aZNm3oOkCgiLQzn9c2Z80u/oJUXoMtxlVhSRNOCpXU9KhKsJOFauHBhOZ7ShrVqFwql2nkirCBQlQeLCpH2Mp8+fYa79dZb2pBY6zTprrv+1NbbMJsVLKWDixY96g8LCOfdNTqgM0mw9u7d61eEa2xLA896oTdvUT2ardNYUDP1aPX6Z5995j788EM3duzYplJZ7UmumUQd66UXu2VbvaIZQp0ynVWwlPJVl3DMl/7t6lrqHn/873mxcl8KApV7kKW43NwlJgWreuwqzUJQzVDV+5JqZk1faH2pNNOmL/aCBQtydeb27dv9eiP9K8EZN26cP6cva9HRWBpTkl2ySWcT6nUgiU3W0t3d7fc8l01qqwbYp02b5nSYQ60iwXrssceyPsYFwQp7q1fvsb5r127/PiGlPAI6H7KdiynByjrIXtlxjcawJFQ6ifjzzz93X331lT9oQAKXZ3D+5Zdf9qe36EsvkdHC1FqRR5JTyRYdjaVoTQKqMnr0aHfppZcm3XrQ54r2dMqz6pQQ6iCHa665xumwhVrlvffe8xFW1pL0h0OCNXz40KzV9lwfdr7QHx4t5VDkqZe9JcSWi/ao11H3YT8xbc+jtDxvu9p5RbwZwWpGrOTMSYPuzzzzjFNaqEWTmknME8noORIFbe2iFeeqR4cl1Itkkr5kSsm0DbPSuI6Ojtw26TkaQA8D6poF1NH19UoewUpzVqAES+OOlalm2OyvevfWWpsASrD0xRZXLU2RYGmxbN4vdhL/vvpcQq8JIS0v0f/1R0V9vnbtWj8kUKuEP6aVWUP4nfbTv+GGG/vK/D59TssLVi2hajT+Uo+eOpNZwnS+JZHMusOqorWkWUX95V+37r9u0KCBifvlB0vrCVnl77Pamo5C319VS4RkRb3f17JQf4xGjBjptD11O5aWFqx6UVVStNSOHdXqbZKAdHZ2NjSzVqqyceOGXvcoslCp/H34XRoGrShwjaKhtH98w2EeEqPKUu/3aVhZvKYlBStp9TqC1XqullewsraklpDVE700ddeL1JIiuMrxzVppWTNCFJsIpemncE1LClaaI7ayNJJrW4NAX0+5Fx29ZaFYS3QQoiwEa1/bkoL13HPPuk2bDqQGlPYhMH36zJ5zCluxVWmit2B3ZWqGEPVdb7akYPVd83kSBCBgiQCCZam3sBUCkRNAsCJ3AJoPAUsEECxLvYWtEIicAIIVuQPQfAhYIoBgWeotbIVA5AQQrMgdgOZDwBIBBMtSb2ErBCIngGBF7gA0HwKWCCBYlnoLWyEQOQEEK3IHoPkQsEQAwbLUW9gKgcgJIFiROwDNh4AlAgiWpd7CVghETgDBitwBaD4ELBFAsCz1FrZCIHICCFbkDkDzIWCJAIJlqbewFQKRE0CwIncAmg8BSwQQLEu9ha0QiJwAghW5A9B8CFgigGBZ6i1shUDkBBCsyB2A5kPAEgEEy1JvYSsEIieAYEXuADQfApYIIFiWegtbIRA5AQQrcgeg+RCwRADBstRb2AqByAkgWJE7AM2HgCUCCJal3sJWCEROAMGK3AFoPgQsEUCwLPUWtkIgcgIIVuQOQPMhYIkAgmWpt7AVApETQLAidwCaDwFLBBAsS72FrRCInACCFbkD0HwIWCKAYFnqLWyFQOQEEKzIHYDmQ8ASAQTLUm9hKwQiJ4BgRe4ANB8ClgggWJZ6C1shEDkBBCtyB6D5ELBE4H+jMaNPk3b7ggAAAABJRU5ErkJggg==
;file_total_lines: 87737
;estimated_time(s): 28788.350000000002
;nozzle_temperature(°C): 205
;build_plate_temperature(°C): 70
;work_speed(mm/minute): 3000
;max_x(mm): 70.64453971640025
;max_y(mm): 69.5
;max_z(mm): 14.98410415649414
;min_x(mm): -63.04001923812088
;min_y(mm): -69.5
;min_z(mm): 0

;Header End

; G-code for 3dp engraving
; Generated by Snapmaker Luban 4.1.3
; Fri Jan 14 2022 10:0:43

M82 ;absolute extrusion mode
;Start GCode begin
M104 S205
M140 S70
G28 ;home
G90 ;absolute positioning
G1 X-10 Y-10 F3000
G1 Z0 F1800
M109 S205;Wait for Hotend Temperature
M190 S70;Wait for Bed Temperature
G92 E0
G1 E20 F200
G92 E0
;Start GCode end
G92 E0
G92 E0
G1 F1500 E-5
;LAYER_COUNT:92
;LAYER:0
M107
G0 F1440 X49.655 Y53.157 Z0.28
;TYPE:SKIRT
G1 F1500 E0
G1 F2400 X50.048 Y52.827 E0.03584
G1 X50.487 Y52.561 E0.0717
G1 X50.962 Y52.367 E0.10753
G1 X51.462 Y52.248 E0.14343
G1 X52.197 Y52.201 E0.19487
G1 X121.304 Y52.2 E5.02174
G1 X122.022 Y52.211 E5.0719
G1 X122.391 Y52.238 E5.09774
G1 X123.453 Y52.375 E5.17253
G1 X123.897 Y52.439 E5.20386
G1 X126.593 Y52.749 E5.39341
G1 X129.373 Y52.989 E5.5883
G1 X132.041 Y53.144 E5.77497
G1 X134.823 Y53.227 E5.96937
G1 X137.536 Y53.231 E6.15886
G1 X140.283 Y53.157 E6.3508
G1 X143.026 Y53.006 E6.54268
G1 X145.73 Y52.779 E6.7322
G1 X148.434 Y52.476 E6.92225
G1 X149.528 Y52.323 E6.99941
G1 X150.238 Y52.235 E7.04938
G1 X150.751 Y52.212 E7.08524
G1 X151.444 Y52.309 E7.13412
G1 X152.028 Y52.464 E7.17632
G1 X178.916 Y60.174 E9.13003
G1 X179.585 Y60.375 E9.17882
G1 X180.063 Y60.56 E9.21462
G1 X180.507 Y60.818 E9.25049
G1 X180.906 Y61.141 E9.28634
G1 X181.25 Y61.522 E9.3222
G1 X181.531 Y61.952 E9.35808
G1 X181.741 Y62.421 E9.39397
G1 X181.876 Y62.916 E9.4298
G1 X181.934 Y63.436 E9.46635
G1 X181.945 Y63.904 E9.49905
G1 X181.945 Y102.725 E12.21055
G1 X181.985 Y105.519 E12.40572
G1 X182.1 Y108.23 E12.59524
G1 X182.294 Y110.973 E12.78731
G1 X182.564 Y113.701 E12.97878
G1 X182.909 Y116.393 E13.16835
G1 X183.337 Y119.117 E13.36094
G1 X183.833 Y121.785 E13.55048
G1 X184.411 Y124.47 E13.74232
G1 X185.049 Y127.077 E13.92978
G1 X185.795 Y129.787 E14.1261
G1 X186.581 Y132.354 E14.31362
G1 X187.464 Y134.972 E14.50659
G1 X188.726 Y138.349 E14.7584
G1 X188.868 Y138.842 E14.79423
G1 X188.933 Y139.396 E14.83319
G1 X188.945 Y140.051 E14.87895
G1 X188.945 Y193.805 E18.63347
G1 X188.936 Y194.532 E18.68425
G1 X188.889 Y195.043 E18.72009
G1 X188.764 Y195.541 E18.75595
G1 X188.564 Y196.014 E18.79182
G1 X188.292 Y196.449 E18.82766
G1 X187.956 Y196.838 E18.86356
G1 X187.564 Y197.169 E18.89939
G1 X187.125 Y197.436 E18.93528
G1 X186.651 Y197.631 E18.97108
G1 X186.151 Y197.751 E19.007
G1 X185.407 Y197.799 E19.05907
G1 X116.301 Y197.8 E23.88587
G1 X115.583 Y197.789 E23.93602
G1 X115.214 Y197.762 E23.96186
G1 X114.152 Y197.625 E24.03666
G1 X113.708 Y197.561 E24.06799
G1 X111.012 Y197.251 E24.25753
G1 X108.232 Y197.011 E24.45243
G1 X105.564 Y196.856 E24.63909
G1 X102.782 Y196.773 E24.83349
G1 X100.069 Y196.769 E25.02299
G1 X97.322 Y196.843 E25.21492
G1 X94.579 Y196.994 E25.4068
G1 X91.875 Y197.221 E25.59633
G1 X89.171 Y197.524 E25.78638
G1 X88.077 Y197.677 E25.86353
G1 X87.368 Y197.765 E25.91343
G1 X86.856 Y197.788 E25.94923
G1 X86.17 Y197.694 E25.99759
G1 X85.555 Y197.53 E26.04205
G1 X58.685 Y189.825 E27.99445
G1 X58.016 Y189.623 E28.04327
G1 X57.538 Y189.437 E28.07909
G1 X57.094 Y189.179 E28.11496
G1 X56.695 Y188.855 E28.15086
G1 X56.352 Y188.473 E28.18672
G1 X56.072 Y188.043 E28.22256
G1 X55.862 Y187.574 E28.25845
G1 X55.728 Y187.079 E28.29427
G1 X55.672 Y186.564 E28.33045
G1 X55.66 Y186.048 E28.3665
G1 X55.66 Y147.276 E31.07458
G1 X55.62 Y144.482 E31.26975
G1 X55.505 Y141.771 E31.45927
G1 X55.311 Y139.027 E31.65141
G1 X55.041 Y136.3 E31.84281
G1 X54.696 Y133.607 E32.03245
G1 X54.268 Y130.884 E32.22497
G1 X53.772 Y128.215 E32.41458
G1 X53.194 Y125.531 E32.60635
G1 X52.556 Y122.924 E32.79381
G1 X51.81 Y120.214 E32.99014
G1 X51.024 Y117.646 E33.17771
G1 X50.137 Y115.018 E33.37144
G1 X48.879 Y111.649 E33.62263
G1 X48.737 Y111.156 E33.65846
G1 X48.672 Y110.622 E33.69603
G1 X48.66 Y109.942 E33.74354
G1 X48.66 Y56.15 E37.50071
G1 X48.67 Y55.461 E37.54884
G1 X48.718 Y54.95 E37.58469
G1 X48.844 Y54.452 E37.62056
G1 X49.046 Y53.98 E37.65642
G1 X49.318 Y53.545 E37.69226
G1 X49.655 Y53.157 E37.72815
G1 F1500 E32.72815
;MESH:/Users/florian/Library/Application Support/snapmaker-luban/Tmp/09153041_00243025.stl
G0 F1440 X52.674 Y56.214
G0 X55.051 Y102.849
;TYPE:WALL-INNER
G1 F1500 E37.72815
G1 F2400 X54.37 Y103.514 E37.79464
G1 X54.051 Y104.066 E37.83917
G1 X53.939 Y104.26 E37.85481
G1 X53.714 Y105.161 E37.91968
G1 X53.736 Y106.016 E37.97941
G1 X54.013 Y106.901 E38.04419
G1 X54.055 Y106.967 E38.04965
G1 X54.479 Y107.621 E38.10409
G1 X55.178 Y108.235 E38.16907
G1 X55.95 Y108.603 E38.22881
G1 X56.863 Y108.762 E38.29354
G1 X57.714 Y108.674 E38.35329
G1 X58.578 Y108.336 E38.41809
G1 X59.247 Y107.825 E38.47689
G1 X59.762 Y107.176 E38.53476
G1 X60.113 Y106.337 E38.59828
G1 X60.218 Y105.614 E38.64931
G1 X60.128 Y104.71 E38.71276
G1 X59.813 Y103.913 E38.77262
G1 X59.25 Y103.174 E38.83751
G1 X58.565 Y102.657 E38.89745
G1 X57.684 Y102.314 E38.96349
G1 X56.733 Y102.243 E39.0301
G1 X55.893 Y102.416 E39.09
G1 X55.051 Y102.849 E39.15613
G0 F1440 X115.051 Y102.849
G1 F2400 X114.37 Y103.514 E39.22261
G1 X113.939 Y104.26 E39.28279
G1 X113.714 Y105.161 E39.34765
G1 X113.736 Y106.016 E39.40739
G1 X114.013 Y106.901 E39.47216
G1 X114.479 Y107.621 E39.53206
G1 X115.178 Y108.235 E39.59705
G1 X115.95 Y108.603 E39.65678
G1 X116.863 Y108.762 E39.72151
G1 X117.714 Y108.674 E39.78127
G1 X118.578 Y108.336 E39.84607
G1 X119.247 Y107.825 E39.90487
G1 X119.762 Y107.176 E39.96274
G1 X119.87 Y106.918 E39.98227
G1 X120.113 Y106.337 E40.02626
G1 X120.218 Y105.614 E40.07729
G1 X120.128 Y104.71 E40.14074
G1 X119.87 Y104.056 E40.18985
G1 X119.813 Y103.913 E40.2006
G1 X119.25 Y103.174 E40.26549
G1 X118.565 Y102.657 E40.32543
G1 X117.684 Y102.314 E40.39146
G1 X116.733 Y102.243 E40.45807
G1 X115.893 Y102.416 E40.51797
G1 X115.051 Y102.849 E40.5841
G0 F1440 X114.587 Y104.788
G0 X102.051 Y183.849
G1 F2400 X101.37 Y184.514 E40.65059
G1 X100.939 Y185.26 E40.71076
G1 X100.714 Y186.161 E40.77563
G1 X100.736 Y187.016 E40.83537
G1 X101.013 Y187.901 E40.90014
G1 X101.314 Y188.366 E40.93883
G1 X101.479 Y188.621 E40.96004
G1 X101.612 Y188.738 E40.97241
G1 X101.521 Y188.764
G1 X101.229 Y188.847 E40.9872
G1 X86.96 Y192.94 E42.02403
G1 X72.745 Y188.863 E43.05692
G1 X72.315 Y188.74 E43.08816
G1 X72.593 Y188.389 E43.10644
G1 X72.762 Y188.176 E43.12543
G1 X73.113 Y187.337 E43.18895
G1 X73.218 Y186.614 E43.23998
G1 X73.128 Y185.71 E43.30343
G1 X72.813 Y184.913 E43.36329
G1 X72.25 Y184.174 E43.42818
G1 X71.565 Y183.657 E43.48812
G1 X70.684 Y183.314 E43.55416
G1 X69.733 Y183.243 E43.62076
G1 X68.893 Y183.416 E43.68067
G1 X68.051 Y183.849 E43.7468
G1 X67.37 Y184.514 E43.81328
G1 X66.939 Y185.26 E43.87346
G1 X66.714 Y186.161 E43.93832
G1 X66.728 Y186.689 E43.97521
G1 X66.736 Y187.016 E43.99806
G1 X66.779 Y187.152 E44.00802
G1 X66.704 Y187.131
G1 X66.39 Y187.041 E44.02346
G1 X60.46 Y185.341 E44.45433
G1 X60.46 Y117.449 E49.19633
G1 X60.421 Y116.666 E49.25109
G1 X60.298 Y115.842 E49.30928
G1 X60.096 Y115.032 E49.36759
G1 X59.814 Y114.246 E49.42592
G1 X59.458 Y113.492 E49.48416
G1 X59.028 Y112.776 E49.54249
G1 X58.531 Y112.107 E49.6007
G1 X57.972 Y111.488 E49.65896
G1 X57.353 Y110.929 E49.71721
G1 X56.684 Y110.432 E49.77542
G1 X55.968 Y110.002 E49.83376
G1 X55.214 Y109.645 E49.89203
G1 X54.43 Y109.366 E49.95015
G1 X53.621 Y109.162 E50.00843
G1 X53.46 Y109.138 E50.0198
G1 X53.46 Y106.98 E50.17052
G1 X53.46 Y106.901 E50.17584
G1 X53.46 Y106.016 E50.21831
G1 X53.46 Y105.161 E50.24469
G1 X53.46 Y104.26 E50.28295
G1 X53.46 Y104.035 E50.29714
G1 X53.46 Y57 E53.58236
G1 X120.46 Y57 E58.26206
G1 X120.46 Y104.007 E61.54533
G1 X120.46 Y104.71 E61.58366
G1 X120.46 Y105.614 E61.61383
G1 X120.46 Y106.337 E61.63856
G1 X120.46 Y106.967 E61.67347
G1 X120.46 Y109.138 E61.8251
G1 X120.302 Y109.162 E61.83627
G1 X119.492 Y109.364 E61.89458
G1 X118.706 Y109.646 E61.9529
G1 X117.952 Y110.002 E62.01114
G1 X117.236 Y110.432 E62.06948
G1 X116.567 Y110.929 E62.12769
G1 X115.948 Y111.488 E62.18594
G1 X115.389 Y112.107 E62.2442
G1 X114.892 Y112.776 E62.30241
G1 X114.462 Y113.492 E62.36074
G1 X114.106 Y114.246 E62.41898
G1 X113.824 Y115.031 E62.47724
G1 X113.621 Y115.842 E62.53563
G1 X113.499 Y116.668 E62.59395
G1 X113.46 Y117.463 E62.64955
G1 X113.46 Y185.341 E67.39057
G1 X107.414 Y187.074 E67.82987
G1 X107.355 Y187.091 E67.83416
G1 X107.14 Y187.153 E67.84979
G1 X107.218 Y186.614 E67.87413
G1 X107.212 Y186.553 E67.87812
G1 X107.128 Y185.71 E67.93729
G1 X106.813 Y184.913 E67.99715
G1 X106.25 Y184.174 E68.06204
G1 X105.565 Y183.657 E68.12198
G1 X104.684 Y183.314 E68.18802
G1 X103.733 Y183.243 E68.25462
G1 X102.893 Y183.416 E68.31453
G1 X102.051 Y183.849 E68.38066
G0 F1440 X102.406 Y184.341
G1 F2400 X101.848 Y184.886 E68.43514
G1 X101.501 Y185.487 E68.48361
G1 X101.316 Y186.227 E68.53689
G1 X101.334 Y186.917 E68.5851
G1 X101.561 Y187.644 E68.63829
G1 X101.937 Y188.225 E68.68663
G1 X102.347 Y188.585 E68.72474
G1 X102.511 Y188.729 E68.73998
G1 X103.003 Y188.963 E68.77804
G1 X102.611 Y189.075 E68.78467
G1 X102.401 Y189.135 E68.79724
G1 X86.96 Y193.564 E69.91923
G1 X71.547 Y189.144 E71.03916
G1 X71.213 Y189.049 E71.06342
G1 X70.898 Y188.958 E71.08632
G1 X71.281 Y188.808 E71.09568
G1 X71.557 Y188.597 E71.11362
G1 X71.823 Y188.394 E71.13699
G1 X72.24 Y187.868 E71.18388
G1 X72.53 Y187.175 E71.23635
G1 X72.614 Y186.6 E71.27693
G1 X72.539 Y185.853 E71.32937
G1 X72.285 Y185.21 E71.37766
G1 X71.823 Y184.603 E71.43094
G1 X71.27 Y184.186 E71.47932
G1 X70.55 Y183.906 E71.53327
G1 X69.772 Y183.848 E71.58777
G1 X69.094 Y183.987 E71.63611
G1 X68.406 Y184.341 E71.69015
G1 X67.848 Y184.886 E71.74463
G1 X67.501 Y185.487 E71.7931
G1 X67.316 Y186.227 E71.84638
