;Header Start

;FLAVOR:Marlin
;TIME:6666
;Filament used: 0m
;Layer height: 0.16
;MINX:2.14748e+06
;MINY:2.14748e+06
;MINZ:2.14748e+06
;MAXX:-2.14748e+06
;MAXY:-2.14748e+06
;MAXZ:-2.14748e+06


;header_type: 3dp
;thumbnail: data:image/png;base64,iVBORw0KGgoAAAANSUhEUgAAASwAAACWCAYAAABkW7XSAAAREUlEQVR4Xu2dWawVRRrH64qAu4J7LgY0EaPA4BLkQsQo+MLEMU6MzDAqCpnxyXkwTjI6E40ZZsaXMU6ivqjRKI/G53FBxLgBXhRQQI0sLuDG4obsMvn3TF369u1zu7q7+lB17q+SkwP3VH9d9auv//11VXVV165duw8ZEgQgAIEICHQhWBG0EkWEAAQSAggWjgABCERDAMGKpqkoKAQggGDhAxCAQDQEEKxomoqCQgACCBY+AAEIREMAwYqmqSgoBCCAYOEDEIBANAQQrGiaioJCAAIIFj4AAQhEQwDBiqapKCgEIIBg4QMQgEA0BBCsaJqKgkIAAggWPgABCERDAMGKpqkoKAQggGDhAxCAQDQEEKxomoqCQgACCBY+AAEIREMAwYqmqSgoBCCAYOEDEIBANAQQrGiaioJCAAIIFj4AAQhEQwDBiqapKCgEIIBg4QMQgEA0BBCsaJqKgkIAAggWPgABCERDAMGKpqkoKAQggGDhAxCAQDQEEKxomoqCQgACCBY+AAEIREMAwYqmqSgoBCCAYOEDEIBANAQQrGiaioJCAAIIFj4AAQhEQwDBiqapKCgEIIBg4QMQgEA0BBCsaJqKgkIAAggWPgABCERDAMGKpqkoKAQggGDhAxCAQDQEEKxomoqCQgACCBY+AAEIREMAwYqmqSgoBCCAYOEDEIBANAQQrGiaioJCAAIIFj4AAQhEQwDBiqapKCgEIIBg4QMQgEA0BBCsaJqKgkIAAghWG33gtddeczrbyJEjzOWXT3XKS6ZmCKxYsdzs3bvP2fiMGTOc85KxOgEEqzo75yOXLHnZPPDAP53yf/XVV2bfvn3mjjv+mHxI7SfwyCMPG33OO+88s3//fqcCzJt3q7nllnlOeclUnQCCVZ2d85FPPvmE2bRpk1N+XSA///yz+fDDD83JJ5+ciBbRlhO62pkUVc2bd4u54IILks9RRx1lhg8f7mT33HPPNQsW/N4pL5mqE0CwqrNzPlIR1iuvLEny2wtAwiQnzwrZgQMHzMGDB5O827ZtS4Rr7tzfEW05066WURHVSy+9mAiVTcOGDTNHH310P4O2zdSO6egLwarGvexRCFZZYhXypwXruOOOMz/99JOZNGmSmTPnt4m19O9pwbKnknCNGjXaXH/9ryucnUOKCOzfv888//x/BmRLC1ZakBYtetp89NFH/fJfffVMM3PmrKJT8XtNAghWTYAuh1tB2rlzp9FHfSPLli0zCxf+3fT0TCsULJ1j5MiRLqciT0UCe/fuHVSwrCD19r5t7r77z+biiy82X3zxhRk1alTyQbAqgi95GIJVEpjrSF/a7NatW8z777+X/Gnjxo3J9/HHH28+++wzM23adKM7vE15ERaCVbKRKmTPEyw99qkfy6bPP//cbN261YwdO9bs2rUr+bNuPkrqv9LvZROji+WIIViOvDTK5zrSZ02eeOKJyT/1feONN/adSaKnRwybxowZ0/dvdbjnjUxlLx7HYpPNgYAL86wYaSTXipVO8eyzzxqJ3g8//JCM8pZJV1wxw9xzz18M4lVMDcEqZtTvkc0he1+Wb775xqxdu9bo+/TTTzdXXXVV4eEuF0+hETKUIlCX+dKlS5M2vuiii8yECRNKndtm5pHSDRuClcNJkVT60W/zZrcpCTaiuuSSSxKBskmitW7dOifRqnvxuDU7udIE6jBvJVb2RuUacY0bdzjiVtkUbSnyIurq76sIVopHmQme2UteEz4lWNu3b09+yt5tbbSl34oiLZf+FCTHH4FWglU00CGxUlJUlXeDsiUsMwE1WysmpCJYLT09Pb2g7OVgO8vt3CkJl5w4z5klXoOJVp5gqfNXnb2aTEryR+CTTz5JRm7z0mCCJbGy7ZuNpO3/7QTUvPlcrjVgfheC1ahgWeNp4cqLtr7++uuW4pPtdFeHe3d3t/n222/NoUOHksmM6Y56V+evmq/K6FeVc7WzTuKvaQmWrW4iduTPlj1vlrvyffzxxwMiaPvYbyeeFk1AdeVD3xaCVVmwFOXo8SEvtZqOYIVLx2ajLVenzebTRaML7owzzuj3KFLVXqvjdBHaRx7ftvPsqV5K6cerJs7rs172UX/06NHm1FNPNaeddtqAIg82wpv1KY0wjhgxos+GpkukR5Sb4BGTTfqwUq2l12T03p9NX375pTnhhBOST1dXVzJkrX/npVb9IDbvjh07ktdsZMPXBamOfEVvnZSaFi2fzPTIKHFRNGVfp8pri8EEa/fu3cmcPPmPxEp+ctZZZyFYLZwawcqAuffev/b9Rc4jh5RIrVmzJhm6njhxojnzzDMH4CwSrDr9GJ0kSJ1YF/vCequ6tRIs9XPqFZ9TTjnFXHjhhebHH39MREvRmk1EWP2pIliOgvX999+bF154wehbDjVlypQB/Uh5neXWfJk3/zvxou7kOhUJVrbzXn2Cy5cvT15uV3Q1e/bs5HFSN0iltGAtXPiPTkZXum4I1iCCpRGkxYsXm7PPPttobpW+5WytOocRrNL+1xEHlBUsW2nrS+r81+fTTz8111xzTV+3AyOEA90Dwcowya5dZZ3p3Xff7Sdc77zzjrn00kv7HT2YYClj0byejrh6h2AlqrS79Sv1k+rfuiFm/QnBQrAKL6fB5mLJsRRltUpV77SFhSJD0ASqRtZWtLJCZSuLYCFYhY5fZ/IoglWItyMzVBWsIhjMwYpMsOzqCFWWdGnlDLNmzTJ33fWnlr5SR7BazcWyJ2PFhaJLNL7fi0aH6wy2FI0QapXUl19eXGqzjCLCoa8aEWQfln35+PXX3XaZKWoE/a73/OzLyYNt8JCdi+Vi2+ZBsMrQ6oy8RYJVZzrLYIJlN8oQxarL2rRqgZCXuwlKsBYteqb0mlNFbv/dd9/1CVU67zPPLMrd3KFJwdLdVqtTKvFOYFHLhf+7RpGVqk4aLaphK8Gym2Vkj5dwHXvssUVmS/0u8XrsscdLHdNk5qAEKz1p01el02tSZW1+8EH/dbnt71XLMdjdVvNsNEFQacuWLcmIof5Gio+ABEpzqI455pikTdWee/bsya1InW6AVnOw5s272axYsaLf+fJetPdFNqS5YB0vWLbR7Mup6UacPfuX5qGH/j2gXX0Llu58erFWLy4rylJ0pW+mOfi6pNprR+2pm5Nes1I3gJKE6aSTThpQEN+ClSdWdRYOLCIX2khlUIJVZv++ItB5v+dFW3n9WXXKkTdipOVL9GqPkqZFjB8/vs/J02uGV6kTx7SXQDqKtu2qNtWjft47olUFK08o0v1WqnWTUZWlimAN4l91RujKuG022sqKlm/BalW2qs5cpq7k9UugqJM9e7aqUXRWKLJi1WRUla5DaFMrgoqwXAVLF7p9PcZ1R+WsI2WjrXQnvGs58i6FolnP6WMQLL9i0g5r7RKstFCkO9nrRlUSQi3H/OqrS5PH2CJ/LZpa0Q7m6XMEJVhFI3QCrMXr1Hdw220LkmU9io4pApqOtqxo1RGsosmj6fLUGfIuqhe/N0OgjGDVmYNlBSsdWdWNqqxNLXP06KMPJ8vYaNkkbezbKiFYBX7UqsNbIzNyAK2drsXrbrrpZjNnzm8Sa3VFKx1taZmPvXv3GdeNJ7LVyVvgT/O/tNNzdnG3kARL70raPRObudSrW9Vqqz09PdUNeDwyb66dBED7FepGmk1V+yjtphQbN26otRuPLU9aeFavXmUWLvxb8pK1+t5arfGmY0MaIVR5goqwVKDB+o/Uca3RNt0RtBSHRODOO+8y06dPN1VH9tIO1tRSwJoLpoXj7Brf9pwhCJZdvTT0eWFi2PQKqy66lhUsiZU+in6aYuhj6WgJz4MP/svI55544vFkRFPl1fI2uknnpdA63IMUrMEexxQB6BFOc160LpUevxR5nXPOOea6665z8bcjlsdGcYrAJFyKto60YPlcKrgdYEMor33kt0Kletd9VGsHu97eXvPWW28lC1JqIEAfzSObPHlyvw1h02VBsBxapqj/SI+Egm/FSnefqVOnOlgOI4vdx06ipTtb3kYH7ShpCBd/lXraiLDqhqVVzpk+Rn63fv36vqjqSJWjSj3swoF6TB03blzSxSLBapVCGyGMLsKq0kghHqOLTsKlme56rPW1xrtLXY/0Be9SRpc8Etx2PyKmB2hiiKpcOA6WJ7QO9yAFq24Het1GaufxPrY4L1PeWKOqVnVsZ32sWA0FobK8ESzHq8tHB7rjqY54Nhtt1Z1fU1SRIxGRFJXJx+9NR4y2fVTWoSRWqm9oI4RBRlgqVJ2Z5j4ugiNhw0Zb2vZJc818JXWyqq8spr6WKnUXP00t8JnETu9/DjWhEsMQO9yDFazbb/+D2bRpo0/fi8KW7ua+50LpotN64UMhadUE31NTNIeu0/Z+dPGFGTNmmPvuu98la1vzBDcPa/78W9sKgJNBAAKtCTz11NNB4QlOsIbi42BQHkFhIPB/AiE+FgYnWEXzsPAmCECgPQQQLAfOCJYDJLJAoA0EmDjqABnBcoBEFgi0gQDzsBwgD6WJow44yAKBI0YAwXJEP5QmjjoiIRsE2k6AiaOOyBkpdARFNgg0RCDEDndVNbhRQhWKfqyGvBCzEHAkgGA5gkKwSoAiKwQaIhDiCGGwERYd7w15IWYh4EggxA73YAVLBaPj3dGzyAaBBgggWCWhIlglgZEdAh4JhDhCGHSExUihR+/DFARKEAi1wz1owWKksISHkRUCHgkgWBVgIlgVoHEIBDwQCLX/KugIi5FCD56HCQhUIIBgVYDGSGFFaBwGgZoEQu1wDzrCQrBae51dBtjHjsA1fTvaw8UQfvnNh2BVdGtGCg+D0wVmN8K0f7WbyHLhuTnYsmXLzPLly/tlhmF/diF3uAcfYdHxftiZtCvM6tWrc69M7Xzd09PjdtUO0Vx5YmVRaJOOK6+8coiSQbC8NTyC9T+U2vrrxRdfNJs3b85lqyjhhhtu8Ma9Ew0999xzLXfUueyyy8y0adPMsGHDOrHqpeoUcod78BEWI4WHfW3VqlVm3bp1ZufOnebAgQP9nFDb3c+cObOUYw61zCtXrjSKsrLstI2X+E2ZMmWoIcmtL4JV0w14RecwwCVLlpgNGzaYPXv2JBt8KiKYPn36kNl3sKYrGfFbv369OXjwoOnq6jLDhw9PIqvJkyfXNd0xx4fc4R58hKUC3n//fR3jDL4qog1Dlbq7u32ZHFJ24Jff3GPHjjPz5y8I2heCXMAvTezNN98wb7zxetAQKRwEOoGA+kLnzr0p6KoEL1grV/aa3t63g4ZI4SDQCQSuvfZXprt7TNBVCV6wRO+999aYtWvfDxokhYNAzAQmTJhoJk36RfBViEKwRHH79m1mx44dwQOlgBCIkcD554+PotjRCFYUNCkkBCDQKAEEq1G8GIcABHwSQLB80sQWBCDQKAEEq1G8GIcABHwSQLB80sQWBCDQKAEEq1G8GIcABHwSQLB80sQWBCDQKAEEq1G8GIcABHwSQLB80sQWBCDQKAEEq1G8GIcABHwSQLB80sQWBCDQKAEEq1G8GIcABHwSQLB80sQWBCDQKAEEq1G8GIcABHwSQLB80sQWBCDQKAEEq1G8GIcABHwSQLB80sQWBCDQKAEEq1G8GIcABHwSQLB80sQWBCDQKAEEq1G8GIcABHwSQLB80sQWBCDQKAEEq1G8GIcABHwSQLB80sQWBCDQKAEEq1G8GIcABHwSQLB80sQWBCDQKAEEq1G8GIcABHwSQLB80sQWBCDQKAEEq1G8GIcABHwSQLB80sQWBCDQKAEEq1G8GIcABHwSQLB80sQWBCDQKAEEq1G8GIcABHwS+C8rk/dP+njT2wAAAABJRU5ErkJggg==
;file_total_lines: 137537
;estimated_time(s): 47167.740000000005
;nozzle_temperature(°C): 205
;build_plate_temperature(°C): 70
;work_speed(mm/minute): 3000
;max_x(mm): 54.99999999999998
;max_y(mm): 52.66702163047675
;max_z(mm): 32.00000000000002
;min_x(mm): -54.99999999999998
;min_y(mm): -63.33297836952329
;min_z(mm): 0

;Header End

; G-code for 3dp engraving
; Generated by Snapmaker Luban 4.1.3
; Thu Jan 06 2022 15:50:46

M82 ;absolute extrusion mode
;Start GCode begin
M104 S205
M140 S70
G28 ;home
G90 ;absolute positioning
G1 X-10 Y-10 F3000
G1 Z0 F1800
M109 S205;Wait for Hotend Temperature
M190 S70;Wait for Bed Temperature
G92 E0
G1 E20 F200
G92 E0
;Start GCode end
G92 E0
G92 E0
G1 F1500 E-5
;LAYER_COUNT:199
;LAYER:0
M107
G0 F1440 X57.692 Y63.221 Z0.28
;TYPE:SKIRT
G1 F1500 E0
G1 F2400 X58.084 Y62.89 E0.03583
G1 X58.523 Y62.623 E0.07172
G1 X58.998 Y62.429 E0.10756
G1 X59.498 Y62.31 E0.14346
G1 X60.238 Y62.262 E0.19525
G1 X169.34 Y62.261 E7.81562
G1 X170.038 Y62.271 E7.86438
G1 X170.55 Y62.319 E7.9003
G1 X171.047 Y62.445 E7.93611
G1 X171.519 Y62.646 E7.97194
G1 X171.955 Y62.919 E8.00787
G1 X172.342 Y63.255 E8.04367
G1 X172.673 Y63.648 E8.07956
G1 X172.939 Y64.087 E8.11541
G1 X173.133 Y64.563 E8.15131
G1 X173.252 Y65.062 E8.18714
G1 X173.299 Y65.798 E8.23865
G1 X173.3 Y113.093 E11.54203
G1 X173.29 Y113.817 E11.59261
G1 X173.241 Y114.992 E11.67475
G1 X173.213 Y115.486 E11.70931
G1 X173.131 Y118.238 E11.90161
G1 X173.127 Y120.951 E12.0911
G1 X173.201 Y123.703 E12.28339
G1 X173.288 Y125.461 E12.40633
G1 X173.3 Y125.891 E12.43638
G1 X173.3 Y173.078 E15.73221
G1 X173.291 Y173.805 E15.78299
G1 X173.244 Y174.316 E15.81884
G1 X173.119 Y174.814 E15.8547
G1 X172.919 Y175.287 E15.89057
G1 X172.647 Y175.722 E15.9264
G1 X172.311 Y176.111 E15.96231
G1 X171.919 Y176.442 E15.99814
G1 X171.48 Y176.709 E16.03403
G1 X171.006 Y176.904 E16.06983
G1 X170.506 Y177.024 E16.10574
G1 X169.762 Y177.072 E16.15782
G1 X60.664 Y177.073 E23.77791
G1 X59.966 Y177.064 E23.82666
G1 X59.455 Y177.017 E23.8625
G1 X58.957 Y176.892 E23.89837
G1 X58.485 Y176.691 E23.9342
G1 X58.049 Y176.419 E23.97009
G1 X57.661 Y176.083 E24.00594
G1 X57.33 Y175.691 E24.04178
G1 X57.063 Y175.252 E24.07767
G1 X56.868 Y174.777 E24.11353
G1 X56.749 Y174.278 E24.14936
G1 X56.701 Y173.52 E24.20241
G1 X56.7 Y126.221 E27.50607
G1 X56.71 Y125.515 E27.55539
G1 X56.759 Y124.342 E27.63739
G1 X56.787 Y123.848 E27.67195
G1 X56.869 Y121.096 E27.86425
G1 X56.873 Y118.383 E28.05374
G1 X56.799 Y115.631 E28.24603
G1 X56.712 Y113.873 E28.36897
G1 X56.7 Y113.443 E28.39901
G1 X56.7 Y66.19 E31.69946
G1 X56.709 Y65.525 E31.74591
G1 X56.756 Y65.014 E31.78175
G1 X56.882 Y64.516 E31.81763
G1 X57.083 Y64.044 E31.85347
G1 X57.355 Y63.609 E31.8893
G1 X57.692 Y63.221 E31.9252
G1 F1500 E26.9252
;MESH:/Users/florian/Library/Application Support/snapmaker-luban/Tmp/69863475_50631061.stl
G0 F1440 X60.914 Y66.475
G0 X168.5 Y112.273
;TYPE:WALL-INNER
G1 F1500 E31.9252
G1 F2400 X61.5 Y112.273 E39.39875
G1 X61.5 Y67.061 E42.55664
G1 X168.5 Y67.061 E50.03019
G1 X168.5 Y112.273 E53.18808
G0 F1440 X169.1 Y112.873
G1 F2400 X60.9 Y112.873 E60.74545
G1 X60.9 Y66.461 E63.98715
G1 X169.1 Y66.461 E71.54452
G1 X169.1 Y112.873 E74.78623
G0 F1440 X169.7 Y113.473
;TYPE:WALL-OUTER
G1 F2400 X60.3 Y113.473 E82.42741
G1 X60.3 Y65.861 E85.75293
G1 X169.7 Y65.861 E93.39412
G1 X169.7 Y113.473 E96.71964
G0 F1440 X169.5 Y113.473
G0 X169.03 Y112.803
G0 X168.219 Y68.092
;TYPE:SKIN
G1 F2400 X167.466 Y67.34 E96.79397
G0 F1440 X166.618 Y67.34
G1 F2400 X168.219 Y68.941 E96.95211
G0 F1440 X168.219 Y69.79
G1 F2400 X165.769 Y67.34 E97.19411
G0 F1440 X164.921 Y67.34
G1 F2400 X168.219 Y70.638 E97.51988
G0 F1440 X168.219 Y71.487
G1 F2400 X164.072 Y67.34 E97.92951
G0 F1440 X163.224 Y67.34
G1 F2400 X168.219 Y72.335 E98.42291
G0 F1440 X168.219 Y73.184
G1 F2400 X162.375 Y67.34 E99.00016
G0 F1440 X161.527 Y67.34
G1 F2400 X168.219 Y74.032 E99.66118
G0 F1440 X168.219 Y74.881
G1 F2400 X160.678 Y67.34 E100.40606
G0 F1440 X159.83 Y67.34
G1 F2400 X168.219 Y75.729 E101.23471
G0 F1440 X168.219 Y76.578
G1 F2400 X158.981 Y67.34 E102.14722
G0 F1440 X158.133 Y67.34
G1 F2400 X168.219 Y77.426 E103.14349
G0 F1440 X168.219 Y78.275
G1 F2400 X157.284 Y67.34 E104.22362
G0 F1440 X156.436 Y67.34
G1 F2400 X168.219 Y79.123 E105.38752
G0 F1440 X168.219 Y79.972
G1 F2400 X155.587 Y67.34 E106.63527
G0 F1440 X154.739 Y67.34
G1 F2400 X168.219 Y80.82 E107.9668
G0 F1440 X168.219 Y81.669
G1 F2400 X153.89 Y67.34 E109.38218
G0 F1440 X153.041 Y67.34
G1 F2400 X168.219 Y82.517 E110.88138
G0 F1440 X168.219 Y83.366
G1 F2400 X152.193 Y67.34 E112.46438
G0 F1440 X151.344 Y67.34
G1 F2400 X168.219 Y84.215 E114.13126
G0 F1440 X168.219 Y85.063
G1 F2400 X150.496 Y67.34 E115.88189
G0 F1440 X149.647 Y67.34
G1 F2400 X168.219 Y85.912 E117.71639
G0 F1440 X168.219 Y86.76
G1 F2400 X148.799 Y67.34 E119.63465
G0 F1440 X147.95 Y67.34
G1 F2400 X168.219 Y87.609 E121.63677
G0 F1440 X168.219 Y88.457
G1 F2400 X147.102 Y67.34 E123.72266
G0 F1440 X146.253 Y67.34
G1 F2400 X168.219 Y89.306 E125.8924
G0 F1440 X168.219 Y90.154
G1 F2400 X145.405 Y67.34 E128.14592
G0 F1440 X144.556 Y67.34
G1 F2400 X168.219 Y91.003 E130.48329
G0 F1440 X168.219 Y91.851
G1 F2400 X143.708 Y67.34 E132.90443
G0 F1440 X142.859 Y67.34
G1 F2400 X168.219 Y92.7 E135.40942
G0 F1440 X168.219 Y93.548
G1 F2400 X142.011 Y67.34 E137.99819
G0 F1440 X141.162 Y67.34
G1 F2400 X168.219 Y94.397 E140.67081
G0 F1440 X168.219 Y95.245
G1 F2400 X140.314 Y67.34 E143.4272
G0 F1440 X139.465 Y67.34
G1 F2400 X168.219 Y96.094 E146.26745
G0 F1440 X168.219 Y96.942
G1 F2400 X138.616 Y67.34 E149.19151
G0 F1440 X137.768 Y67.34
G1 F2400 X168.219 Y97.791 E152.19939
G0 F1440 X168.219 Y98.639
G1 F2400 X136.919 Y67.34 E155.29108
G0 F1440 X136.071 Y67.34
G1 F2400 X168.219 Y99.488 E158.46658
G0 F1440 X168.219 Y100.337
G1 F2400 X135.222 Y67.34 E161.72594
G0 F1440 X134.374 Y67.34
G1 F2400 X168.219 Y101.185 E165.06907
G0 F1440 X168.219 Y102.034
G1 F2400 X133.525 Y67.34 E168.49606
G0 F1440 X132.677 Y67.34
G1 F2400 X168.219 Y102.882 E172.00681
G0 F1440 X168.219 Y103.731
G1 F2400 X131.828 Y67.34 E175.60142
G0 F1440 X130.98 Y67.34
G1 F2400 X168.219 Y104.579 E179.2798
G0 F1440 X168.219 Y105.428
G1 F2400 X130.131 Y67.34 E183.04204
G0 F1440 X129.283 Y67.34
G1 F2400 X168.219 Y106.276 E186.88804
G0 F1440 X168.219 Y107.125
G1 F2400 X128.434 Y67.34 E190.81791
G0 F1440 X127.586 Y67.34
G1 F2400 X168.219 Y107.973 E194.83154
G0 F1440 X168.219 Y108.822
G1 F2400 X126.737 Y67.34 E198.92903
G0 F1440 X125.889 Y67.34
G1 F2400 X168.219 Y109.67 E203.11028
G0 F1440 X168.219 Y110.519
G1 F2400 X125.04 Y67.34 E207.3754
G0 F1440 X124.191 Y67.34
G1 F2400 X168.219 Y111.367 E211.72433
G0 F1440 X167.995 Y111.992
G1 F2400 X123.343 Y67.34 E216.13494
G0 F1440 X122.494 Y67.34
G1 F2400 X167.146 Y111.992 E220.54556
G0 F1440 X166.298 Y111.992
G1 F2400 X121.646 Y67.34 E224.95617
G0 F1440 X120.797 Y67.34
G1 F2400 X165.449 Y111.992 E229.36679
G0 F1440 X164.601 Y111.992
G1 F2400 X119.949 Y67.34 E233.7774
G0 F1440 X119.1 Y67.34
G1 F2400 X163.752 Y111.992 E238.18802
G0 F1440 X162.903 Y111.992
G1 F2400 X118.252 Y67.34 E242.59859
G0 F1440 X117.403 Y67.34
G1 F2400 X162.055 Y111.992 E247.0092
G0 F1440 X161.206 Y111.992
G1 F2400 X116.555 Y67.34 E251.41977
G0 F1440 X115.706 Y67.34
G1 F2400 X160.358 Y111.992 E255.83038
G0 F1440 X159.509 Y111.992
G1 F2400 X114.858 Y67.34 E260.24095
G0 F1440 X114.009 Y67.34
G1 F2400 X158.661 Y111.992 E264.65157
G0 F1440 X157.812 Y111.992
G1 F2400 X113.161 Y67.34 E269.06213
G0 F1440 X112.312 Y67.34
G1 F2400 X156.964 Y111.992 E273.47275
G0 F1440 X156.115 Y111.992
G1 F2400 X111.464 Y67.34 E277.88331
G0 F1440 X110.615 Y67.34
G1 F2400 X155.267 Y111.992 E282.29393
G0 F1440 X154.418 Y111.992
G1 F2400 X109.767 Y67.34 E286.7045
G0 F1440 X108.918 Y67.34
G1 F2400 X153.57 Y111.992 E291.11511
G0 F1440 X152.721 Y111.992
G1 F2400 X108.069 Y67.34 E295.52573
G0 F1440 X107.221 Y67.34
G1 F2400 X151.873 Y111.992 E299.93634
G0 F1440 X151.024 Y111.992
G1 F2400 X106.372 Y67.34 E304.34696
G0 F1440 X105.524 Y67.34
G1 F2400 X150.176 Y111.992 E308.75758
G0 F1440 X149.327 Y111.992
G1 F2400 X104.675 Y67.34 E313.16819
G0 F1440 X103.827 Y67.34
G1 F2400 X148.478 Y111.992 E317.57876
G0 F1440 X147.63 Y111.992
G1 F2400 X102.978 Y67.34 E321.98937
G0 F1440 X102.13 Y67.34
G1 F2400 X146.781 Y111.992 E326.39994
G0 F1440 X145.933 Y111.992
G1 F2400 X101.281 Y67.34 E330.81055
G0 F1440 X100.433 Y67.34
G1 F2400 X145.084 Y111.992 E335.22112
G0 F1440 X144.236 Y111.992
G1 F2400 X99.584 Y67.34 E339.63174
G0 F1440 X98.736 Y67.34
G1 F2400 X143.387 Y111.992 E344.0423
G0 F1440 X142.539 Y111.992
G1 F2400 X97.887 Y67.34 E348.45292
G0 F1440 X97.039 Y67.34
G1 F2400 X141.69 Y111.992 E352.86349
G0 F1440 X140.842 Y111.992
G1 F2400 X96.19 Y67.34 E357.2741
G0 F1440 X95.342 Y67.34
G1 F2400 X139.993 Y111.992 E361.68467
G0 F1440 X139.145 Y111.992
G1 F2400 X94.493 Y67.34 E366.09528
G0 F1440 X93.644 Y67.34
G1 F2400 X138.296 Y111.992 E370.5059
G0 F1440 X137.448 Y111.992
G1 F2400 X92.796 Y67.34 E374.91651
G0 F1440 X91.947 Y67.34
G1 F2400 X136.599 Y111.992 E379.32713
G0 F1440 X135.751 Y111.992
G1 F2400 X91.099 Y67.34 E383.73775
G0 F1440 X90.25 Y67.34
G1 F2400 X134.902 Y111.992 E388.14836
G0 F1440 X134.054 Y111.992
G1 F2400 X89.402 Y67.34 E392.55898
G0 F1440 X88.553 Y67.34
G1 F2400 X133.205 Y111.992 E396.96959
G0 F1440 X132.356 Y111.992
G1 F2400 X87.705 Y67.34 E401.38016
G0 F1440 X86.856 Y67.34
G1 F2400 X131.508 Y111.992 E405.79077
G0 F1440 X130.659 Y111.992
G1 F2400 X86.008 Y67.34 E410.20134
G0 F1440 X85.159 Y67.34
G1 F2400 X129.811 Y111.992 E414.61196
G0 F1440 X128.962 Y111.992
G1 F2400 X84.311 Y67.34 E419.02252
G0 F1440 X83.462 Y67.34
G1 F2400 X128.114 Y111.992 E423.43314
G0 F1440 X127.265 Y111.992
G1 F2400 X82.614 Y67.34 E427.8437
G0 F1440 X81.765 Y67.34
G1 F2400 X126.417 Y111.992 E432.25432
G0 F1440 X125.568 Y111.992
G1 F2400 X80.917 Y67.34 E436.66489
G0 F1440 X80.068 Y67.34
G1 F2400 X124.72 Y111.992 E441.0755
