;Header Start

;FLAVOR:Marlin
;TIME:6666
;Filament used: 0m
;Layer height: 0.16
;MINX:2.14748e+06
;MINY:2.14748e+06
;MINZ:2.14748e+06
;MAXX:-2.14748e+06
;MAXY:-2.14748e+06
;MAXZ:-2.14748e+06


;header_type: 3dp
;thumbnail: data:image/png;base64,iVBORw0KGgoAAAANSUhEUgAAASwAAACWCAYAAABkW7XSAAAPXUlEQVR4Xu2duY8dVRaHb7Pv2GYHAwJkCcwiaLEYhANMYAMWAf8ACIgAMQGagMFEwBAPwkRAhibwjCUCDIlNAAKDLDeb0IgAMIuFDF7wgtk9+pVUVlGue++pqtfd77z6SuqEruXc79z79Tn3lR9TBw4cPBQ4IAABCDggMIWwHGSJECEAgYIAwmIiQAACbgggLDepIlAIQABhMQcgAAE3BBCWm1QRKAQggLCYAxCAgBsCCMtNqggUAhBAWMwBCEDADQGE5SZVBAoBCCAs5gAEIOCGAMJykyoChQAEEBZzAAIQcEMAYblJFYFCAAIIizkAAQi4IYCw3KSKQCEAAYTFHIAABNwQQFhuUkWgEIAAwmIOQAACbgggLDepIlAIQABhMQcgAAE3BBCWm1QRKAQggLCYAxCAgBsCCMtNqggUAhBAWMwBCEDADQGE5SZVBAoBCCAs5gAEIOCGAMJykyoChQAEEBZzAAIQcEMAYblJFYFCAAIIizkAAQi4IYCw3KSKQCEAAYTFHIAABNwQQFhuUkWgEIAAwmIOQAACbgggLDepIlAIQABhMQcgAAE3BBCWm1QRKAQggLCYAxCAgBsCCMtNqggUAhBAWMwBCEDADQGE5SZVBAoBCCAs5gAEIOCGAMJykyoChQAEEBZzAAIQcEMAYblJFYFCAAIIizkAAQi4IYCw3KSKQCEAAYTFHIAABNwQQFhuUkWgEIAAwmIOQAACbgggLDepIlAIQABhMQcgAAE3BBCWm1QRKAQggLCYAxCAgBsCCMtNqggUAhBAWMwBCEDADQGE5SZVBAoBCCAs5gAEIOCGAMJyk6pugT777D/DW2+9dcTFq1atCo8++jfTTbdu3RrWrHmi8dw293nuuX+FN954o/E+Tz/9TJienjbFk7rPhg2vm+7BST4JICyfeTNFfeedd4S33z5SVmeffXbQzwMPPFj85I777rs3rF//38bTrrrqqvD88y9kZSPpPfLIQ+GTTz5pvM/KlavCunX/yYUSXnrpxeJnx44dxU/9uPXW5QFpZTG6PQFhuU1dOvCYrE4++eRwySWXHL44Jy3JQdXVgQMHjnhg9V7vvLM5GdDDDz8UZma2hi+++CJ6L1VZKYGW0isfFLvX44//I+iHY/IIIKzJy2lQG6ifpkOykmiqR6xCkqzUfkkMTUdVWCnxlbLSPWKVkX6nai12n7qsdL4kGosNaU3gxA4hIKwJy2tKVmUrWB9yTFi33LIsKZj6/ZruUxdNSljl/ZqqtbIVrMeeuh/SmrDJjbAmK6EpWdVbwXLk1103HdaufeEIEKVoYm2XLqhXaxZhpaqiXJUlgTYdSGuy5nFqNFRYE5LrlKxKETQNNVZdqY3Thn2s5Wq6Z6pSqz47tvFelWCbKkvXpe5JpTUhk5wKazISqdcW7rrrjuhgmvatdHKf6qpJWLGN93pllJJL7hPMLq2hYkVakzHXqbCc5zEnq9i+lYadqq70iV5KLE0tplVYqTYz1xbGhKXrUq2hfv/aa6+H5cuXO8/4sMNHWI7zn5NVbN/KUl3l9pr6CCsnltTmu2JPSSsnQ6TleMLTEvpOXuxdq3JUsVYwVV2VMsgt/Pq9Y+2lnlV9rcFSCeXaQt0jtgGf28/S7/fu3e878QOOngrLafJzskq1gha5pNrB6uZ4ic9yz/LcXPVW3R+LtZl9WkPehnc66amwfCYuJ6tUK6gRxyRQvsrQRihdhGWpgvpWWbm2E2n5nPtUWM7ylnt9IScryxvpuXaw6RmpCqupGspVcOUzUvGmqiyLFPnk0Nnkp8LylbCcrJpateoIU1JpU101CautWHIVkKUtzO1lWZ6BtHytASosJ/myyCq1b5XaaK9ujFsWedNzZkNYlrYwV2VZxoO0nCwCKiwfibLIKtcKpqqraqWSawdjVVzqK2aapGIRibXKqn8KWc+qZUxIy8daoMIa8zxZZJVrBXPVVZt2sIuw2n7TQjUl5esTbSu4elpze2Y6H2mN+WKgwhrvBOVeDC2jT71vpXNy1VXuu6rqlPQ1MPUjVWE1CcuyKa5zLG2hzhtFa6j78GLpeK8JKqwxzY9VVrl9K2t1ZRVIrPXsIixLq2ZtC6ttbSyl1jYUaY3poqDCGs/EWGWV27dqU11Z3r3S/WLPzH3jaNOb6VaBjKrKskpZ5/E2/HiuDSqsMcxL7sVQayuo86wisVY7sYrO+pwq7rbCajOeWFqtYubF0jFcGFRY45cUq6wsrWDu+9qre0uWTWnRiu2XdRGWVR7VtjA3ptxelu5lFSXSGr/1QYU1RjmxymoUraCGXW62dxFHFVtuU7/6rDpuqyhLQVuelfqH0eXzrdLik8MxWiBUWOOTDOvrC6kqpzqa3P96q1pdWdvBaqUz18KqSjo3NkuV1WY/C2mNzzqhwhqDXIxaVpYqpEt11fZ74atoYy93dpFlri1MVXRd9tB0DdIag4VChTX/SWgjK8u+lUaUq0B0Ttk2WVsjXdNHWF2/2riaoer4c3tm1iqrzfiR1vyvFyqsecxBG1lZ9q00FEt11bUdjG24WyqeUQirzea7zrVKq02Vh7TmccFQYc0ffOu7VmWEubfZy/Ms1VWXdjC1d9ZHWG02/Osx5KqsaiWZynTbGJDW/K0bKqx5YN9WVtZWcDarq9iGu/57H2G12fzWuVUWfZ/bdT9L1/E2/DwsHCqsuYfeVlbWVlAjsVQc1c1v6ysFqf0r655Z7N8T6vo2LVnbttBaZem8NvtZSGvu146eSIU1x9yXLr281RMXLFhgOt9SbVQXr9qg3377zXTvUljHHnts4/mWNjQlLMWheKyHqqxff/21ON0iaetelu63Z88eaxjFeZ9++r9W53NyPwIIqx+/Vle//PKLyf+TctPNPv/88+w1llZQ965K4/bbb28Vu06OxdJHWAsXLgzT09OtY9m4cWNxTVtRpx6kfcJLL720VSy33bYirFjRnmWrh3DyYQIIa44mw6ZNG8Obb27q9LSctCzC0IPLdlCCkCi6HJLe7t27/3Kp9fn1N9C7ykoPVwyKZVRVVhdZlRCQVpeZ1O0ahNWNW6urtEej6qrPEZNW2+qqz8Ksi6Icj6Ut07l1YfURZ7Xis1ZZsZdX+4gTafWZ1e2vRVjtmbW+ItUK/vzzz8VmrzbX//zzz3DWWWdF79+nutFi3bNnd7Ll+e6778I333wTzjvvvHDo0KGwePHixljq8uwirJSsFMO3334bLrzwwnDUUUeFc889N8pEsaglk7RyR9NeVk5W33//fdi3b18444wzwtFHHx1OOeWU6GOeeuqZXAj8vicBhNUTYO7ylKx++OGHsH379lAuCi0MCezaa68NN9xwQ+Otq9JqU109+eQT0b0iLfoPPvigWJgHDx4sNrQlrIsvvjgsW7asURhVabUVVqzKEwvJ6t133w1TU1PhmGOOKUR++umnF7FfdNFFUSZ6zcByVKWVktX7778fPvzww+L5J510Ujj11FPDaaedVnxbxZlnntn4KFpDSwb6nYOw+vFLXh3bt9Jf6p07dxayUnWlT6Z++umnQhYS1h9//BFuvPHGQhb1o7p3Y9070iKdmdnauG+lOD7++ONCmvv37y/i0PN1lMJYvXp1UWHUD0lrwYKFYe3aF0wUU1Wenr9hw4bi08Lff//98POPP/74Im5JS1/NfM455zQykbwtVZYuLlvTWJX33nvvBf1o/Hr+iSeeeFhaqjoVQ+zTW6RlmgqdT0JYndGlL0ztW0lK27ZtC7t27QqqsrRIJSv9aLGqupHU7rnnnnD++ec3LtBDh4JZFKkq76OPPirarx9//LGosFRdKQZVOMcdd1xRYUicS5YsaRywFu5jj/3dRHHNmifC1FTzqVu2bAmfffZZIe+SgYRxwgknFMKQJNSqLl26tPEGkucrr/zbFEdK4Pojsn79+kLaZZUnaYmDflRdLVq0KFxwwQXR9vD++x8sKjGO0RNAWKNnWtwxJSxVNVpgEpZkVf7ofSTtY2mhaKHefffdje2YFoMWhfVIfUKp9kvSlCgkzF9++aWIQXtHWqhqg6688spw9dVXNz6uTUWRikM8Nm/efFjekrZikDTVjqktkyRirXJbJmqRmw5Veq+++mpRaVZjUD4Uhyo9MbniiisQlnUCjvA8hDVCmPVbpaQ1MzNTVFnlvpUqm2ordtlll4WVK1c2RtflL3isyir3r1RhSVbl/pVkoUWqCmrFihWNLWEbWZUDiUnrq6++KtqwvXv3FuKsVjiqsNQWXnPNNY0fGrSVVe4Pyrp164oWud6alq2h2sLrr79+ZLmZxSk4cbdGWLOc0lRVsWnTpqISkyiqraBaMG14N31i2EUS5RBjVYX2sNSSlftXqizUjqmqufnmm8Pllx/5dn4XSeSkJUlos/vLL7883JaW+0ja02uq8sYlDo2tyx+SWZ5+E3d7hDUHKU1JS3smEsTXX39dRKJPwpr2rfS7PoszV1Xo99rLmos49KzUvpriEBN9YqhXG9QKxo6+kkjlphqH2vSbbropGkefPyRzMAUn5hEIa45S2edN91HIKlfdtMHQVxIWeVriGUUcOXla4kBWFkqjOQdhjYaj6S59pDWqxalAJyGOUUqiz79EGGUcpkk08JMQ1hxPgC6ymI1FQRx/Tfy48Jjj6ejucQhrHlKmv+htjtl6p4c4/pqFceHRZm4M7VyENbSMM14IOCaAsBwnj9AhMDQCCGtoGWe8EHBMAGE5Th6hQ2BoBBDW0DLOeCHgmADCcpw8QofA0AggrKFlnPFCwDEBhOU4eYQOgaERQFhDyzjjhYBjAgjLcfIIHQJDI4CwhpZxxgsBxwQQluPkEToEhkYAYQ0t44wXAo4JICzHySN0CAyNAMIaWsYZLwQcE0BYjpNH6BAYGgGENbSMM14IOCaAsBwnj9AhMDQCCGtoGWe8EHBMAGE5Th6hQ2BoBBDW0DLOeCHgmADCcpw8QofA0AggrKFlnPFCwDEBhOU4eYQOgaERQFhDyzjjhYBjAgjLcfIIHQJDI4CwhpZxxgsBxwQQluPkEToEhkYAYQ0t44wXAo4JICzHySN0CAyNAMIaWsYZLwQcE0BYjpNH6BAYGgGENbSMM14IOCaAsBwnj9AhMDQCCGtoGWe8EHBMAGE5Th6hQ2BoBBDW0DLOeCHgmADCcpw8QofA0AggrKFlnPFCwDEBhOU4eYQOgaERQFhDyzjjhYBjAgjLcfIIHQJDI4CwhpZxxgsBxwQQluPkEToEhkbg/4dwN210auxEAAAAAElFTkSuQmCC
;file_total_lines: 30023
;estimated_time(s): 6321.56
;nozzle_temperature(°C): 205
;build_plate_temperature(°C): 70
;work_speed(mm/minute): 3000
;max_x(mm): 23.46410155296325
;max_y(mm): 34.5
;max_z(mm): 5.999999999999998
;min_x(mm): -13.464101552963253
;min_y(mm): -34.5
;min_z(mm): 0

;Header End

; G-code for 3dp engraving
; Generated by Snapmaker Luban 4.1.3
; Tue Jan 04 2022 11:17:31

M82 ;absolute extrusion mode
;Start GCode begin
M104 S205
M140 S70
G28 ;home
G90 ;absolute positioning
G1 X-10 Y-10 F3000
G1 Z0 F1800
M109 S205;Wait for Hotend Temperature
M190 S70;Wait for Bed Temperature
G92 E0
G1 E20 F200
G92 E0
;Start GCode end
G92 E0
G92 E0
G1 F1500 E-5
;LAYER_COUNT:36
;LAYER:0
M107
G0 F1440 X100.293 Y87.904 Z0.28
;TYPE:SKIRT
G1 F1500 E0
G1 F2400 X100.695 Y87.517 E0.03897
G1 X101.148 Y87.19 E0.078
G1 X101.642 Y86.932 E0.11692
G1 X102.169 Y86.747 E0.15593
G1 X102.717 Y86.639 E0.19495
G1 X103.405 Y86.602 E0.24307
G1 X103.515 Y86.6 E0.25075
G1 X106.16 Y86.6 E0.4355
G1 X107.935 Y86.626 E0.55949
G1 X108.712 Y86.648 E0.61378
G1 X111.46 Y86.648 E0.80572
G1 X112.912 Y86.616 E0.90716
G1 X113.51 Y86.6 E0.94894
G1 X116.16 Y86.6 E1.13404
G1 X117.935 Y86.626 E1.25803
G1 X118.712 Y86.648 E1.31232
G1 X121.46 Y86.648 E1.50426
G1 X122.912 Y86.616 E1.6057
G1 X123.51 Y86.6 E1.64748
G1 X126.16 Y86.6 E1.83257
G1 X127.935 Y86.626 E1.95656
G1 X128.712 Y86.648 E2.01086
G1 X131.46 Y86.648 E2.20279
G1 X132.912 Y86.616 E2.30424
G1 X133.51 Y86.6 E2.34602
G1 X136.162 Y86.6 E2.53125
G1 X136.86 Y86.61 E2.58001
G1 X137.416 Y86.658 E2.61899
G1 X137.96 Y86.785 E2.65801
G1 X138.48 Y86.988 E2.69699
G1 X138.965 Y87.264 E2.73597
G1 X139.407 Y87.605 E2.77496
G1 X139.795 Y88.007 E2.81399
G1 X140.121 Y88.459 E2.85291
G1 X140.38 Y88.954 E2.89193
G1 X140.566 Y89.48 E2.9309
G1 X140.674 Y90.028 E2.96991
G1 X140.711 Y90.714 E3.0179
G1 X140.713 Y90.825 E3.02565
G1 X140.714 Y158.823 E7.77506
G1 X140.705 Y159.54 E7.82514
G1 X140.658 Y160.096 E7.86412
G1 X140.532 Y160.64 E7.90312
G1 X140.33 Y161.16 E7.94208
G1 X140.055 Y161.646 E7.98108
G1 X139.714 Y162.088 E8.02008
G1 X139.314 Y162.477 E8.05905
G1 X138.862 Y162.805 E8.09806
G1 X138.367 Y163.064 E8.13708
G1 X137.841 Y163.251 E8.17607
G1 X137.294 Y163.36 E8.21502
G1 X136.595 Y163.398 E8.26392
G1 X136.485 Y163.4 E8.2716
G1 X133.84 Y163.4 E8.45635
G1 X132.066 Y163.374 E8.58027
G1 X131.288 Y163.352 E8.63463
G1 X128.54 Y163.352 E8.82657
G1 X127.088 Y163.384 E8.92801
G1 X126.49 Y163.4 E8.96979
G1 X123.84 Y163.4 E9.15488
G1 X122.066 Y163.374 E9.27881
G1 X121.288 Y163.352 E9.33317
G1 X118.54 Y163.352 E9.5251
G1 X117.088 Y163.384 E9.62655
G1 X116.49 Y163.4 E9.66833
G1 X113.84 Y163.4 E9.85342
G1 X112.066 Y163.374 E9.97734
G1 X111.288 Y163.352 E10.0317
G1 X108.54 Y163.352 E10.22364
G1 X107.088 Y163.384 E10.32508
G1 X106.49 Y163.4 E10.36687
G1 X103.838 Y163.4 E10.5521
G1 X103.14 Y163.39 E10.60086
G1 X102.584 Y163.342 E10.63984
G1 X102.04 Y163.215 E10.67885
G1 X101.52 Y163.012 E10.71784
G1 X101.035 Y162.736 E10.75682
G1 X100.593 Y162.395 E10.79581
G1 X100.205 Y161.993 E10.83483
G1 X99.879 Y161.541 E10.87376
G1 X99.62 Y161.046 E10.91278
G1 X99.434 Y160.52 E10.95175
G1 X99.326 Y159.972 E10.99076
G1 X99.288 Y159.231 E11.04259
G1 X99.286 Y91.115 E15.80023
G1 X99.296 Y90.45 E15.84669
G1 X99.345 Y89.894 E15.88567
G1 X99.472 Y89.351 E15.92462
G1 X99.675 Y88.831 E15.96361
G1 X99.951 Y88.346 E16.00259
G1 X100.293 Y87.904 E16.04162
G0 F1440 X100.882 Y88.156
G1 F2400 X101.275 Y87.826 E16.07747
G1 X101.714 Y87.56 E16.11332
G1 X102.19 Y87.366 E16.14922
G1 X102.689 Y87.248 E16.18504
G1 X103.422 Y87.201 E16.23634
G1 X106.152 Y87.2 E16.42702
G1 X107.918 Y87.225 E16.55038
G1 X108.731 Y87.248 E16.60719
G1 X111.473 Y87.248 E16.79871
G1 X112.901 Y87.216 E16.89847
G1 X113.413 Y87.201 E16.93425
G1 X116.152 Y87.2 E17.12556
G1 X117.918 Y87.225 E17.24892
G1 X118.731 Y87.248 E17.30573
G1 X121.473 Y87.248 E17.49724
G1 X122.901 Y87.216 E17.59701
G1 X123.413 Y87.201 E17.63279
G1 X126.152 Y87.2 E17.8241
G1 X127.918 Y87.225 E17.94746
G1 X128.731 Y87.248 E18.00426
G1 X131.473 Y87.248 E18.19578
G1 X132.901 Y87.216 E18.29555
G1 X133.413 Y87.201 E18.33132
G1 X136.153 Y87.2 E18.5227
G1 X136.851 Y87.21 E18.57146
G1 X137.363 Y87.258 E18.60738
G1 X137.86 Y87.384 E18.64319
G1 X138.332 Y87.585 E18.67902
G1 X138.768 Y87.858 E18.71495
G1 X139.155 Y88.194 E18.75075
G1 X139.486 Y88.587 E18.78664
G1 X139.752 Y89.026 E18.82249
G1 X139.946 Y89.502 E18.85839
G1 X140.065 Y90.001 E18.89422
G1 X140.112 Y90.731 E18.94532
G1 X140.114 Y158.815 E23.70073
G1 X140.105 Y159.532 E23.75081
G1 X140.058 Y160.044 E23.78673
G1 X139.933 Y160.542 E23.82259
G1 X139.732 Y161.014 E23.85842
G1 X139.461 Y161.45 E23.89428
G1 X139.125 Y161.838 E23.93013
G1 X138.733 Y162.169 E23.96596
G1 X138.294 Y162.436 E24.00185
G1 X137.819 Y162.631 E24.03771
G1 X137.32 Y162.751 E24.07356
G1 X136.578 Y162.799 E24.1255
G1 X133.848 Y162.8 E24.31618
G1 X132.083 Y162.775 E24.43947
G1 X131.269 Y162.752 E24.49634
G1 X128.527 Y162.752 E24.68786
G1 X127.099 Y162.784 E24.78763
G1 X126.587 Y162.799 E24.8234
G1 X123.848 Y162.8 E25.01471
G1 X122.083 Y162.775 E25.138
G1 X121.269 Y162.752 E25.19488
G1 X118.527 Y162.752 E25.3864
G1 X117.099 Y162.784 E25.48617
G1 X116.587 Y162.799 E25.52194
G1 X113.848 Y162.8 E25.71325
G1 X112.083 Y162.775 E25.83654
G1 X111.269 Y162.752 E25.89342
G1 X108.527 Y162.752 E26.08494
G1 X107.099 Y162.784 E26.1847
G1 X106.587 Y162.799 E26.22048
G1 X103.847 Y162.8 E26.41186
G1 X103.149 Y162.79 E26.46062
G1 X102.637 Y162.742 E26.49654
G1 X102.14 Y162.616 E26.53235
G1 X101.668 Y162.415 E26.56818
G1 X101.232 Y162.142 E26.60411
G1 X100.845 Y161.806 E26.63991
G1 X100.514 Y161.413 E26.6758
G1 X100.248 Y160.974 E26.71165
G1 X100.054 Y160.498 E26.74755
G1 X99.935 Y159.999 E26.78338
G1 X99.888 Y159.216 E26.83817
G1 X99.886 Y91.124 E31.59414
G1 X99.896 Y90.459 E31.64059
G1 X99.944 Y89.948 E31.67644
G1 X100.07 Y89.451 E31.71225
G1 X100.272 Y88.979 E31.74811
G1 X100.545 Y88.544 E31.78399
G1 X100.882 Y88.156 E31.81988
G1 F1500 E26.81988
;MESH:/Users/florian/Library/Application Support/snapmaker-luban/Tmp/67547306_17613059.stl
G0 F1440 X104.1 Y91.414
G0 X105.314 Y157.7
;TYPE:WALL-INNER
G1 F1500 E31.81988
G1 F2400 X105.314 Y158 E31.84083
G1 X105.014 Y158 E31.85438
G1 X104.687 Y158 E31.87722
G1 X104.686 Y92.3 E36.46613
G1 X104.686 Y92 E36.48708
G1 X104.986 Y92 E36.50063
G1 X105.313 Y92 E36.52347
G1 X105.314 Y157.7 E41.11237
G0 F1440 X105.914 Y158.3
G1 F2400 X105.914 Y158.6 E41.13332
G1 X105.614 Y158.6 E41.14687
G1 X104.087 Y158.6 E41.25353
G1 X104.086 Y91.7 E45.92625
G1 X104.086 Y91.4 E45.9472
G1 X104.386 Y91.4 E45.96075
G1 X105.913 Y91.4 E46.06741
G1 X105.914 Y158.3 E50.74012
G0 F1440 X106.514 Y158.9
;TYPE:WALL-OUTER
G1 F2400 X106.514 Y159.2 E50.76108
G1 X106.214 Y159.2 E50.77463
G1 X103.487 Y159.2 E50.9651
G1 X103.486 Y91.1 E55.72163
G1 X103.486 Y90.8 E55.74258
G1 X103.786 Y90.8 E55.75613
G1 X106.513 Y90.8 E55.9466
G1 X106.514 Y158.9 E60.70314
G0 F1440 X106.514 Y159.1
G0 X105.313 Y158.175
G1 F1500 E55.70314
;MESH:/Users/florian/Library/Application Support/snapmaker-luban/Tmp/66039353_17590069.stl
G0 F1440 X114.087 Y157.7
G0 X115.314 Y157.7
;TYPE:WALL-INNER
G1 F1500 E60.70314
G1 F2400 X115.314 Y158 E60.72409
G1 X115.014 Y158 E60.73764
G1 X114.687 Y158 E60.76048
G1 X114.686 Y92.3 E65.34938
G1 X114.686 Y92 E65.37033
G1 X114.986 Y92 E65.38388
G1 X115.313 Y92 E65.40672
G1 X115.314 Y157.7 E69.99562
G0 F1440 X115.914 Y158.3
G1 F2400 X115.914 Y158.6 E70.01658
G1 X115.614 Y158.6 E70.03013
G1 X114.087 Y158.6 E70.13678
G1 X114.086 Y91.7 E74.8095
G1 X114.086 Y91.4 E74.83045
G1 X114.386 Y91.4 E74.844
G1 X115.913 Y91.4 E74.95066
G1 X115.914 Y158.3 E79.62338
G0 F1440 X116.514 Y158.9
;TYPE:WALL-OUTER
G1 F2400 X116.514 Y159.2 E79.64433
G1 X116.214 Y159.2 E79.65788
G1 X113.487 Y159.2 E79.84835
G1 X113.486 Y91.1 E84.60488
G1 X113.486 Y90.8 E84.62584
G1 X113.786 Y90.8 E84.63939
G1 X116.513 Y90.8 E84.82986
G1 X116.514 Y158.9 E89.58639
G0 F1440 X116.514 Y159.1
G0 X115.313 Y158.175
G1 F1500 E84.58639
;MESH:/Users/florian/Library/Application Support/snapmaker-luban/Tmp/77351748_17601025.stl
G0 F1440 X124.087 Y157.7
G0 X125.314 Y157.7
;TYPE:WALL-INNER
G1 F1500 E89.58639
G1 F2400 X125.314 Y158 E89.60734
G1 X125.014 Y158 E89.62089
G1 X124.687 Y158 E89.64373
G1 X124.686 Y92.3 E94.23263
G1 X124.686 Y92 E94.25359
G1 X124.986 Y92 E94.26714
G1 X125.313 Y92 E94.28998
G1 X125.314 Y157.7 E98.87888
G0 F1440 X125.914 Y158.3
G1 F2400 X125.914 Y158.6 E98.89983
G1 X125.614 Y158.6 E98.91338
G1 X124.087 Y158.6 E99.02004
G1 X124.086 Y91.7 E103.69275
G1 X124.086 Y91.4 E103.71371
G1 X124.386 Y91.4 E103.72726
G1 X125.913 Y91.4 E103.83391
G1 X125.914 Y158.3 E108.50663
G0 F1440 X126.514 Y158.9
;TYPE:WALL-OUTER
G1 F2400 X126.514 Y159.2 E108.52758
G1 X126.214 Y159.2 E108.54113
G1 X123.487 Y159.2 E108.7316
G1 X123.486 Y91.1 E113.48814
G1 X123.486 Y90.8 E113.50909
G1 X123.786 Y90.8 E113.52264
G1 X126.513 Y90.8 E113.71311
G1 X126.514 Y158.9 E118.46964
G0 F1440 X126.514 Y159.1
G0 X125.313 Y158.175
G1 F1500 E113.46964
;MESH:/Users/florian/Library/Application Support/snapmaker-luban/Tmp/83678523_17624041.stl
G0 F1440 X134.087 Y157.7
G0 X135.314 Y157.7
;TYPE:WALL-INNER
G1 F1500 E118.46964
G1 F2400 X135.314 Y158 E118.4906
G1 X135.014 Y158 E118.50415
G1 X134.687 Y158 E118.52699
G1 X134.686 Y92.3 E123.11589
G1 X134.686 Y92 E123.13684
G1 X134.986 Y92 E123.15039
G1 X135.313 Y92 E123.17323
G1 X135.314 Y157.7 E127.76213
G0 F1440 X135.914 Y158.3
G1 F2400 X135.914 Y158.6 E127.78309
G1 X135.614 Y158.6 E127.79664
G1 X134.087 Y158.6 E127.90329
G1 X134.086 Y91.7 E132.57601
G1 X134.086 Y91.4 E132.59696
G1 X134.386 Y91.4 E132.61051
G1 X135.913 Y91.4 E132.71717
G1 X135.914 Y158.3 E137.38988
G0 F1440 X136.514 Y158.9
;TYPE:WALL-OUTER
G1 F2400 X136.514 Y159.2 E137.41084
G1 X136.214 Y159.2 E137.42439
G1 X133.487 Y159.2 E137.61486
G1 X133.486 Y91.1 E142.37139
G1 X133.486 Y90.8 E142.39234
G1 X133.786 Y90.8 E142.4059
G1 X136.513 Y90.8 E142.59637
G1 X136.514 Y158.9 E147.3529
G0 F1440 X136.514 Y159.1
M104 S205
G0 X135.313 Y158.175
G1 F1500 E142.3529
;MESH:NONMESH
G0 F600 X135.313 Y158.175 Z0.44
G0 F1440 X134.087 Y158.3
G0 X132.522 Y158.301
G0 X127.467 Y160.153
G0 X112.534 Y160.153
G0 X107.478 Y158.299
G0 X105.913 Y158.3
G0 X105.941 Y158.3
;TIME_ELAPSED:69.652656
;LAYER:1
M140 S50
M106 S255
;TYPE:WALL-INNER
;MESH:/Users/florian/Library/Application Support/snapmaker-luban/Tmp/67547306_17613059.stl
G1 F1500 E147.3529
G1 F1800 X105.941 Y158.5 E147.35822
G1 X105.741 Y158.5 E147.36167
G1 X104.06 Y158.5 E147.40639
