;Header Start

;FLAVOR:Marlin
;TIME:6666
;Filament used: 0m
;Layer height: 0.16
;MINX:2.14748e+06
;MINY:2.14748e+06
;MINZ:2.14748e+06
;MAXX:-2.14748e+06
;MAXY:-2.14748e+06
;MAXZ:-2.14748e+06


;header_type: 3dp
;thumbnail: data:image/png;base64,iVBORw0KGgoAAAANSUhEUgAAASwAAACWCAYAAABkW7XSAAAPUUlEQVR4Xu2d2Y9VVRaHd4ECMoMis1CMipAoQwwghCA+OIQECUnHOHSkn/wPtO2kYxp9aSPYmH6wte0nWggvBDUxNMgYhDAog4ECCpTZCZB57Py2OXDqcm/dM62qu+XbCbFTdc4663x736/X3mefW3Xnzl244WgQgAAEAiBQh7AC6CVShAAEPAGExUCAAASCIYCwgukqEoUABBAWYwACEAiGAMIKpqtIFAIQQFiMAQhAIBgCCCuYriJRCEAAYTEGIACBYAggrGC6ikQhAAGExRiAAASCIYCwgukqEoUABBAWYwACEAiGAMIKpqtIFAIQQFiMAQhAIBgCCCuYriJRCEAAYTEGIACBYAggrGC6ikQhAAGExRiAAASCIYCwgukqEoUABBAWYwACEAiGAMIKpqtIFAIQQFiMAQhAIBgCCCuYriJRCEAAYTEGIACBYAggrGC6ikQhAAGExRiAAASCIYCwgukqEoUABBAWYwACEAiGAMIKpqtIFAIQQFiMAQhAIBgCCCuYriJRCEAAYTEGIACBYAggrGC6ikQhAAGExRiAAASCIYCwgukqEoUABBAWYwACEAiGAMIKpqtIFAIQQFiMAQhAIBgCCCuYriJRCEAAYTEGIACBYAggrGC6ikQhAAGExRiAAASCIYCwgukqEoUABBAWYwACEAiGAMIKpqtIFAIQQFiMAQhAIBgCCCuYriJRCEAAYTEGIACBYAggrGC6ikQhAAGExRiAAASCIYCwgukqEoUABBAWYwACEAiGAMIKpqtIFAIQQFiMAQhAIBgCCCuYriJRCEAAYTEGIACBYAggrGC6ikQhAAGExRiAAASCIYCwgukqEoUABBAWYwACEAiGAMIKpqtIFAIQQFiMAQhAIBgCCCuYriqf6Ntvv+XWrl3b4ndRV1fn3njjL27ixIktfm0ueOcSQFgB9/28eX9zX365qlXuQMK6ePGie//9f7oxY8a0Sg5c9M4jgLAC7fOPPvqXa2xsbPXsX3jhJTdy5MjC8iitFtetu1U9Pv74lLLXmTKl/M8LS4pANUMAYdVMV6RLJC6sa9euuR49erpvv93t+vfvXzbQwYMHXbt27Vy/fv3K/v7UqVOuT58+7sCBAxWP6dixk2to2NvkGnFhaXqqphyOHDly8zrlpqxxESW9c1V1N27cSHq4SyI45VpfP8THRHyJ0bbagQir1dDnu/DKlf9zq1at9EEOHz7svvjiC/fwww+7xx57rGzgxYsXux9//NG9+uqrZX+/Z88et2LFCjdr1qyywvrll1/c0qVL3f333+9mzpx5M0YkrKeffspJQn379nVt27Z1kuixY8fy3WTsbIlWU9AzZ864q1evFhI3kntcrp9++jniKoSuTRCEZcPVPGpcWOYXa+YCkbA0PW1sPHDzSFVCa9as8RXRmjWr3dGjR93x48czp9qlSxc3fPhwJ7GeO3cucxyd+Oijj3qpTpky1U2dOtWpcouaqq36+vpc8TnZjgDCsmObObKmVtH0qlIQVVJt2rTx//RhvuuuuzJfL82Jly9fdmfPnvUf8vHjx7tFixa5kydPVg2xZctWN27c2KrHNXfAuHHj3KFDh9zPP//srl+/njnWnDlz3Icf/jvz+ZzYegQQVuuxL3vlJLLSiaNGjXLt27f3H2CtvcSrBKtb0jVUJf3www9uyJAh7tKlS2716tWJLnfmzFk3bNiQRHKrFFBi1gL/jh07/LXztNdee93pHy0sAgirhvorqayUcseOHf3URtLaunWr06K5VZOoevTo4YYOHep69erlLly44Pbu3evlc+XKlUSXlbCida5EJ5Q5KKrqJGlJM80CfLlrIq2sPdF65yGs1mPf5MpZPsyaBo4YMcI98MADbvfu3X7xPc9UqRSFZChBae3onnvu8Yv2+/fv91OytLLQYrYW5atNdat1h6os3fPOnTudpqdp8yiNj7SqEa+t3yOsGuiPLLKK0lbVoe0I2rwpoezatSv3B7lr165u4MCBbvDgwV6A2uogGeZZ7C5KWFGV9f333+daxI93O08Ga+BDkDAFhJUQlMVh2p/0zDNPFRJakomefm3ZssX9+uuvqaotVWv33nuvr166devm5dTQ0OCnfapk8rZovShvhaU8dK9ay/r666/9A4effvopb3oOaeVG2CIBEFaLYL79ImnWq5KmqCncQw895PdRacqkBfJqsunUqZOv0LSI3qFDB3+Opn1aEytyeilhaSNnEYJWlaXqTxWlxFxU0zobrbYJIKxW6J+4rCQLTb+0DrVx48YmO8SzpKZtDgMGDHCjR4/28tHaljZcxpuO6dmzp//QS2564qZ9VNpAmWfaF11jwoQJfruFpm3af6UmYT333Gw3YcK4LLd12zmqBpW/Hj7o/nSvqgbzPD2UUD/77PNC8iOIDQGEZcO1YlSJ4c03/3rz91ob0sKxZKH/Rh/wvGlJSGPHjvVV0vbt2/1CuSooLaIPGzbMT6tOnz7tn/apUqlWiSXJR/LT7nFVQNE2C8lT7cUXX3JfffVVrkV3bfbU60WSu7Z1SIj6mbh1797d35/46ueqvLTbPkuLqkFe1clCz/YchGXLN1F0LWqr7d+/z+8O/+ST/xayoKwne6q09KHetm2bmzRpkheVpLhv3z4vrLzTvkceecRXU6+//me3fv06N3ToMH8vpe8SZnl3sBSe1ta0TqfXhLR+VdpUrSofHafXgvT+5IkTJ3JXXbqO5FX6biJCSzS8Cz0IYRWKs5hgeZ4almagxXQJSx9mVVd6taWodR+9V/jee/9wCxcu9FsW1LQbXdeUCL/77jsvjLxN8TRtlnxVPalirNaiJ6eStvZtKRe9h5i16oquF72rGZ/uMpWs1hvF/R5hFceykEhFL8ZrIV4VkESihfgiN5hGH9SuXTs3uXdNA6Npbl4oegooUXXu3NnvcE/7PmK5qita68q6h0vTXgk5/nI30srb08nOR1jJOLXIUUXLSutIWvORQDQV1DQq7xQwDkKL6B9//B9XKqyksLRgrp3ySXfLJ41rfVy0RlfKUtLS+hdTRbseQFh2bFNFLlpWurhkpelUVF1p7afI9u67893cuX/KJCxVTlpr0is2eZ7sFXk/aWJpmi225XJnT1cakumORVjpeJkcbSErTQU15Rk0aJCfThVdXQmEPphqWfZWad+XKhStTanCyjo9M+mQhEElLT3A0OJ+aUNaCSGmPAxhpQRW9OFF7naP56bFZq1d6StgvvnmG/9kreiWR1ja4KqXqfUv9Kb9c9qyUdp4T7H4nkVYxTNNHNFKVnfffbevWPTSsvYmSVh5n46Vu6nNm7f4zZpZKix9O+qMGTMSs6rlAysJSzkjrWJ7DmEVyzNxNCtZKQGtXemfdpxrC4BFdaXr6FWWrNPZSsJSpaKNrJMnT/abQas1bbzV1onz588nXuzevHmzfwdRDyM0XU7S9IQy+nYMTQXjrTlhIa0kdJMfg7CSsyr0yKxP1qoloQ+TnmLpJWZVV1q7sqiutAdr374DmYWlrQpPPPFEk9tRtbZkyRK/b+zBBx9006ZNq3a7bvny5X53u/KR5KKd9ZVO1LYIXUPvUGodTeeoIm2uSUjaeNu7d28/xdZO+zTC0rFse6jalYkOQFiJMBV7UJEbQ0szUxWg7QL6YEWv5BSb/W/Rog9g1nupVGEtW7bML8ZLuHr9plqTgDZs2OAfLujffffdV+0Ut2nTJr8TX68oJfmbiqrg1q9f778sUdNs5RZv+uMcqvSqNaRVjVD13yOs6owKPSLrBzxJEtFURQvamhJq7aqovzBTen0rYSW5z1o7JqmwItGzVyt7DyKs7OxSn2kpKyUjYWltRvuuVF0V8T1RlW4yWkzOek+/p0X3NMKKeLLtIfXHx5+AsLJxS31W1sXppBfSNgbtZ9I0StNCy+pKOUXCyroWp7Wm2bNnJ729mj5uwYIFmfJDWumxIaz0zFKdYS0q//86dXV+fUXSUnWlBWLL6io+tWlo2JOKBwffIjB4cL2bPr3pgwf4NE8AYRU8QrRdIfrmgiK+DjhJeloElqz0qov+ZqB1dRXPiffnkvQQxxRFAGFlICkpqcW/4ykuqgwhM5+i6mr69On+rxVr/5LysK6uKiUreZV+bxQvAmfuWk4sQwBhVRkWLTGlyzMy9fqNKis9FdRXBavCsth3lSfH+Lms2xRF8s6Mg7Ca6ffSJ2DR1/8W9V1Pv9ch1xwnXlX5vfZ6y9wXwqrAOS4r7aJ+9tlnnR7F6yuA33prnv/my/gXuLVMd9X+VfQVxvrjEC+//Ef/13feeefvTb6nfv78Be6VV+bW/o2QYU0SQFgVuuX55//gn7bFv5u8JnswgKRUcfXt29fvYP/ggw/9bnEaBLIQQFgVqKk6WLlyhaura+MOHmy87dWLSGTxVzLuFLlJQFErfXcv+l30cz261wMBTaNnzHgyyxjlHAjcJICwUg6Gxsbf/sKNml66/e2/TX9W+l5ZrcstjYAkn6jV1w+J/e/yP0+Jl8Mh0CwBhGU4QNLKrZzYlF7ayg0BGXYqoVuVAMJqVfxRpXarQktauUUSK52CVaqAFDf6XbwyqoHbJwUIJCaAsBKjqo0D41VbualZbWRJFhCwIYCwbLgSFQIQMCCAsAygEhICELAhgLBsuBIVAhAwIICwDKASEgIQsCGAsGy4EhUCEDAggLAMoBISAhCwIYCwbLgSFQIQMCCAsAygEhICELAhgLBsuBIVAhAwIICwDKASEgIQsCGAsGy4EhUCEDAggLAMoBISAhCwIYCwbLgSFQIQMCCAsAygEhICELAhgLBsuBIVAhAwIICwDKASEgIQsCGAsGy4EhUCEDAggLAMoBISAhCwIYCwbLgSFQIQMCCAsAygEhICELAhgLBsuBIVAhAwIICwDKASEgIQsCGAsGy4EhUCEDAggLAMoBISAhCwIYCwbLgSFQIQMCCAsAygEhICELAhgLBsuBIVAhAwIICwDKASEgIQsCGAsGy4EhUCEDAggLAMoBISAhCwIYCwbLgSFQIQMCCAsAygEhICELAhgLBsuBIVAhAwIICwDKASEgIQsCGAsGy4EhUCEDAggLAMoBISAhCwIYCwbLgSFQIQMCCAsAygEhICELAhgLBsuBIVAhAwIICwDKASEgIQsCGAsGy4EhUCEDAggLAMoBISAhCwIYCwbLgSFQIQMCCAsAygEhICELAhgLBsuBIVAhAwIICwDKASEgIQsCHwf4LEI0AZRN8WAAAAAElFTkSuQmCC
;file_total_lines: 48277
;estimated_time(s): 16371.000000000002
;nozzle_temperature(°C): 205
;build_plate_temperature(°C): 70
;work_speed(mm/minute): 3000
;max_x(mm): 74.01568356960993
;max_y(mm): 104.19105984687991
;max_z(mm): 11.5
;min_x(mm): -55.51499728838878
;min_y(mm): -74.2680435180664
;min_z(mm): 0

;Header End

; G-code for 3dp engraving
; Generated by Snapmaker Luban 4.1.3
; Thu Jan 06 2022 20:43:10

M82 ;absolute extrusion mode
;Start GCode begin
M104 S205
M140 S70
G28 ;home
G90 ;absolute positioning
G1 X-10 Y-10 F3000
G1 Z0 F1800
M109 S205;Wait for Hotend Temperature
M190 S70;Wait for Bed Temperature
G92 E0
G1 E20 F200
G92 E0
;Start GCode end
G92 E0
G92 E0
G1 F1500 E-5
;LAYER_COUNT:71
;LAYER:0
M107
G0 F1440 X58.435 Y58.882 Z0.28
;TYPE:SKIRT
G1 F1500 E0
G1 F2400 X58.937 Y58.39 E0.04909
G1 X59.668 Y57.798 E0.1148
G1 X60.013 Y57.567 E0.1438
G1 X60.65 Y57.197 E0.19525
G1 X61.015 Y57.014 E0.22377
G1 X61.511 Y56.803 E0.26142
G1 X62.057 Y56.607 E0.30193
G1 X62.745 Y56.401 E0.3521
G1 X92.935 Y47.744 E2.54574
G1 X93.621 Y47.558 E2.59538
G1 X94.126 Y47.463 E2.63127
G1 X94.639 Y47.447 E2.66712
G1 X95.254 Y47.534 E2.7105
G1 X95.893 Y47.703 E2.75667
G1 X126.159 Y56.382 E4.95584
G1 X126.59 Y56.515 E4.98734
G1 X127.496 Y56.824 E5.0542
G1 X127.883 Y56.984 E5.08345
G1 X128.385 Y57.23 E5.1225
G1 X128.734 Y57.428 E5.15052
G1 X129.25 Y57.764 E5.19353
G1 X132.064 Y59.799 E5.43609
G1 X134.338 Y61.346 E5.62819
G1 X136.636 Y62.819 E5.81884
G1 X139.005 Y64.242 E6.01186
G1 X141.378 Y65.579 E6.2021
G1 X143.798 Y66.852 E6.39309
G1 X146.254 Y68.058 E6.5842
G1 X148.734 Y69.189 E6.77458
G1 X151.255 Y70.254 E6.96573
G1 X153.81 Y71.251 E7.15729
G1 X156.377 Y72.166 E7.34764
G1 X158.991 Y73.017 E7.53965
G1 X161.618 Y73.792 E7.73095
G1 X164.238 Y74.484 E7.92022
G1 X166.895 Y75.106 E8.11082
G1 X169.62 Y75.665 E8.30512
G1 X172.294 Y76.131 E8.4947
G1 X174.969 Y76.523 E8.68354
G1 X177.72 Y76.845 E8.877
G1 X180.434 Y77.087 E9.06731
G1 X183.17 Y77.252 E9.25876
G1 X185.886 Y77.339 E9.44856
G1 X187.655 Y77.355 E9.57212
G1 X188.356 Y77.355 E9.62108
G1 X189.054 Y77.365 E9.66984
G1 X189.566 Y77.413 E9.70576
G1 X190.063 Y77.539 E9.74157
G1 X190.535 Y77.74 E9.7774
G1 X190.971 Y78.013 E9.81333
G1 X191.358 Y78.349 E9.84913
G1 X191.689 Y78.742 E9.88502
G1 X191.955 Y79.181 E9.92087
G1 X192.149 Y79.657 E9.95677
G1 X192.268 Y80.156 E9.9926
G1 X192.315 Y80.892 E10.04411
G1 X192.316 Y134.999 E13.82329
G1 X192.305 Y135.706 E13.87267
G1 X192.257 Y136.218 E13.90859
G1 X192.102 Y136.794 E13.95025
G1 X191.832 Y137.528 E14.00488
G1 X191.401 Y138.646 E14.08857
G1 X190.498 Y141.2 E14.27778
G1 X189.653 Y143.822 E14.47019
G1 X188.89 Y146.442 E14.66079
G1 X188.205 Y149.073 E14.85068
G1 X187.584 Y151.758 E15.04317
G1 X187.043 Y154.456 E15.23537
G1 X186.587 Y157.11 E15.42345
G1 X186.198 Y159.833 E15.61558
G1 X185.886 Y162.563 E15.8075
G1 X185.655 Y165.262 E15.9967
G1 X185.498 Y168.01 E16.18895
G1 X185.419 Y170.755 E16.38076
G1 X185.417 Y173.467 E16.57018
G1 X185.494 Y176.215 E16.7622
G1 X185.647 Y178.954 E16.9538
G1 X185.876 Y181.66 E17.14348
G1 X186.184 Y184.387 E17.33517
G1 X186.567 Y187.077 E17.52495
G1 X187.03 Y189.791 E17.71725
G1 X187.564 Y192.46 E17.90736
G1 X188.173 Y195.12 E18.09796
G1 X188.867 Y197.79 E18.29065
G1 X189.628 Y200.413 E18.48141
G1 X190.463 Y203.015 E18.67228
G1 X191.362 Y205.567 E18.86126
G1 X192.095 Y207.505 E19.00598
G1 X192.233 Y207.974 E19.04013
G1 X192.304 Y208.56 E19.08136
G1 X192.316 Y208.985 E19.11106
G1 X192.316 Y214.698 E19.51009
G1 X192.306 Y215.43 E19.56122
G1 X192.252 Y216.281 E19.62078
G1 X192.212 Y216.579 E19.64178
G1 X192.117 Y217.109 E19.67939
G1 X192.021 Y217.504 E19.70778
G1 X191.812 Y218.178 E19.75707
G1 X191.668 Y218.557 E19.78539
G1 X191.457 Y219.025 E19.82124
G1 X191.263 Y219.392 E19.85024
G1 X190.884 Y220.011 E19.90093
G1 X190.658 Y220.335 E19.92852
G1 X190.321 Y220.761 E19.96646
G1 X189.834 Y221.285 E20.01643
G1 X189.454 Y221.637 E20.05261
G1 X189.231 Y221.823 E20.07289
G1 X188.832 Y222.127 E20.10793
G1 X188.483 Y222.359 E20.1372
G1 X187.827 Y222.738 E20.19011
G1 X187.015 Y223.109 E20.25247
G1 X186.489 Y223.301 E20.29158
G1 X185.661 Y223.55 E20.35197
G1 X155.552 Y232.183 E22.53971
G1 X154.871 Y232.366 E22.58896
G1 X154.367 Y232.46 E22.62477
G1 X153.854 Y232.475 E22.66062
G1 X153.252 Y232.39 E22.70308
G1 X152.625 Y232.225 E22.74837
G1 X122.338 Y223.541 E24.94904
G1 X121.604 Y223.318 E25.00262
G1 X120.871 Y223.052 E25.05708
G1 X120.591 Y222.93 E25.07842
G1 X120.139 Y222.708 E25.11359
G1 X119.791 Y222.51 E25.14156
G1 X119.213 Y222.133 E25.18976
G1 X118.706 Y221.767 E25.23343
G1 X116.471 Y220.148 E25.42619
G1 X114.206 Y218.605 E25.61761
G1 X111.912 Y217.133 E25.80799
G1 X109.581 Y215.731 E25.99798
G1 X107.176 Y214.374 E26.19086
G1 X104.757 Y213.099 E26.38185
G1 X102.315 Y211.898 E26.57193
G1 X99.827 Y210.761 E26.76299
G1 X97.298 Y209.69 E26.95482
G1 X94.737 Y208.689 E27.14687
G1 X92.182 Y207.777 E27.33636
G1 X89.592 Y206.931 E27.52667
G1 X86.961 Y206.154 E27.71828
G1 X84.314 Y205.452 E27.90955
G1 X81.632 Y204.823 E28.10196
G1 X78.947 Y204.27 E28.29344
G1 X76.294 Y203.805 E28.48156
G1 X73.567 Y203.405 E28.67407
G1 X70.869 Y203.086 E28.86383
G1 X68.134 Y202.841 E29.05562
G1 X65.392 Y202.674 E29.2475
G1 X62.676 Y202.585 E29.4373
G1 X60.845 Y202.568 E29.5652
G1 X60.145 Y202.568 E29.61409
G1 X59.447 Y202.558 E29.66285
G1 X58.935 Y202.51 E29.69876
G1 X58.438 Y202.384 E29.73458
G1 X57.966 Y202.183 E29.77041
G1 X57.53 Y201.91 E29.80634
G1 X57.143 Y201.574 E29.84213
G1 X56.812 Y201.181 E29.87802
G1 X56.546 Y200.742 E29.91388
G1 X56.352 Y200.266 E29.94978
G1 X56.233 Y199.767 E29.98561
G1 X56.186 Y199.015 E30.03823
G1 X56.185 Y144.924 E33.81629
G1 X56.196 Y144.218 E33.86561
G1 X56.244 Y143.706 E33.90153
G1 X56.399 Y143.13 E33.94319
G1 X56.669 Y142.396 E33.99781
G1 X57.1 Y141.278 E34.0815
G1 X58.003 Y138.724 E34.27071
G1 X58.851 Y136.093 E34.46379
G1 X59.608 Y133.491 E34.65306
G1 X60.296 Y130.85 E34.84368
G1 X60.917 Y128.165 E35.03617
G1 X61.458 Y125.467 E35.22837
G1 X61.914 Y122.813 E35.41646
G1 X62.303 Y120.09 E35.60858
G1 X62.615 Y117.36 E35.8005
G1 X62.846 Y114.661 E35.9897
G1 X63.003 Y111.913 E36.18195
G1 X63.082 Y109.168 E36.37376
G1 X63.084 Y106.456 E36.56319
G1 X63.007 Y103.708 E36.7552
G1 X62.854 Y100.968 E36.94688
G1 X62.625 Y98.263 E37.13649
G1 X62.317 Y95.535 E37.32824
G1 X61.934 Y92.84 E37.51836
G1 X61.472 Y90.137 E37.7099
G1 X60.937 Y87.463 E37.90037
G1 X60.328 Y84.803 E38.09096
G1 X59.631 Y82.123 E38.28438
G1 X58.876 Y79.519 E38.47375
G1 X58.044 Y76.929 E38.66376
G1 X57.13 Y74.331 E38.85612
G1 X56.405 Y72.417 E38.99907
G1 X56.27 Y71.967 E39.03189
G1 X56.197 Y71.367 E39.07411
G1 X56.185 Y70.938 E39.10408
G1 X56.185 Y65.158 E39.50779
G1 X56.194 Y64.728 E39.53783
G1 X56.242 Y63.763 E39.60532
G1 X56.288 Y63.353 E39.63414
G1 X56.38 Y62.832 E39.67109
G1 X56.477 Y62.432 E39.69984
G1 X56.72 Y61.651 E39.75697
G1 X57.033 Y60.915 E39.81283
G1 X57.271 Y60.456 E39.84894
G1 X57.687 Y59.803 E39.90302
G1 X58.162 Y59.186 E39.95741
G1 X58.435 Y58.882 E39.98595
G1 F1500 E34.98595
;MESH:/Users/florian/Library/Application Support/snapmaker-luban/Tmp/21624728_43013095.stl
G0 F1440 X62.647 Y59.178
G0 X63.382 Y60.607
G0 X124.011 Y67.5
;TYPE:WALL-INNER
G1 F1500 E39.98595
G1 F2400 X124.963 Y67.571 E40.05262
G1 X125.808 Y67.397 E40.11288
G1 X126.644 Y66.965 E40.17861
G1 X127.328 Y66.298 E40.24534
G1 X127.41 Y66.154 E40.25691
G1 X127.757 Y65.548 E40.30569
G1 X127.909 Y64.937 E40.34966
G1 X127.981 Y64.648 E40.37047
G1 X127.985 Y64.955 E40.37235
G1 X127.985 Y65.548 E40.38221
G1 X127.985 Y66.247 E40.41642
G1 X127.985 Y69.81 E40.66528
G1 X127.71 Y69.83 E40.68454
G1 X127.077 Y69.908 E40.72908
G1 X126.448 Y70.017 E40.77367
G1 X125.826 Y70.158 E40.81822
G1 X125.212 Y70.328 E40.86272
G1 X124.606 Y70.527 E40.90727
G1 X124.009 Y70.758 E40.95198
G1 X123.426 Y71.016 E40.99651
G1 X122.857 Y71.303 E41.04102
G1 X122.303 Y71.617 E41.0855
G1 X121.763 Y71.958 E41.13011
G1 X121.24 Y72.326 E41.17477
G1 X120.737 Y72.718 E41.21932
G1 X120.254 Y73.135 E41.26388
G1 X119.791 Y73.576 E41.30855
G1 X119.352 Y74.038 E41.35306
G1 X118.935 Y74.521 E41.39763
G1 X118.543 Y75.024 E41.44217
G1 X118.176 Y75.546 E41.48674
G1 X117.834 Y76.084 E41.53127
G1 X117.52 Y76.64 E41.57587
G1 X117.233 Y77.209 E41.62038
G1 X116.975 Y77.792 E41.66491
G1 X116.744 Y78.389 E41.70962
G1 X116.545 Y78.995 E41.75417
G1 X116.375 Y79.609 E41.79867
G1 X116.235 Y80.23 E41.84313
G1 X116.124 Y80.86 E41.88781
G1 X116.047 Y81.495 E41.93249
G1 X116.001 Y82.131 E41.97703
G1 X115.985 Y82.749 E42.02021
G1 X115.985 Y132.787 E45.51517
G1 X116.001 Y133.405 E45.55835
G1 X116.047 Y134.041 E45.60289
G1 X116.124 Y134.675 E45.6475
G1 X116.234 Y135.307 E45.69231
G1 X116.375 Y135.927 E45.73672
G1 X116.545 Y136.541 E45.78122
G1 X116.744 Y137.147 E45.82577
G1 X116.975 Y137.744 E45.87048
G1 X117.233 Y138.327 E45.91501
G1 X117.52 Y138.896 E45.95952
G1 X117.834 Y139.45 E46.004
G1 X118.175 Y139.99 E46.04861
G1 X118.543 Y140.513 E46.09327
G1 X118.935 Y141.016 E46.13781
G1 X119.353 Y141.499 E46.18243
G1 X119.793 Y141.96 E46.22694
G1 X120.254 Y142.4 E46.27145
G1 X120.737 Y142.818 E46.31607
G1 X121.24 Y143.21 E46.36061
G1 X121.763 Y143.578 E46.40527
G1 X122.303 Y143.919 E46.44988
G1 X122.857 Y144.233 E46.49436
G1 X123.426 Y144.52 E46.53887
G1 X124.009 Y144.778 E46.5834
G1 X124.606 Y145.009 E46.62811
G1 X125.212 Y145.208 E46.67266
G1 X125.826 Y145.378 E46.71716
G1 X126.446 Y145.519 E46.76157
G1 X127.078 Y145.629 E46.80638
G1 X127.712 Y145.706 E46.85099
G1 X127.985 Y145.726 E46.87011
G1 X127.985 Y147.786 E47.01399
G1 X127.985 Y147.865 E47.01951
G1 X127.985 Y148.745 E47.08097
G1 X127.985 Y149.606 E47.14111
G1 X127.985 Y150.502 E47.20369
G1 X127.985 Y150.731 E47.21969
G1 X127.985 Y197.768 E50.50505
G1 X60.985 Y197.768 E55.18475
G1 X60.985 Y150.756 E58.46836
G1 X60.985 Y150.06 E58.51697
G1 X60.985 Y149.181 E58.57837
G1 X60.985 Y148.606 E58.61853
G1 X60.985 Y147.84 E58.67203
G1 X60.985 Y147.78 E58.67622
G1 X60.985 Y145.726 E58.81969
G1 X61.258 Y145.706 E58.83881
G1 X61.892 Y145.629 E58.88341
G1 X62.524 Y145.519 E58.92822
G1 X63.144 Y145.378 E58.97263
G1 X63.758 Y145.208 E59.01713
G1 X64.364 Y145.009 E59.06168
G1 X64.961 Y144.778 E59.10639
G1 X65.544 Y144.52 E59.15092
G1 X66.113 Y144.233 E59.19543
G1 X66.667 Y143.919 E59.23991
G1 X67.207 Y143.578 E59.28452
G1 X67.73 Y143.21 E59.32918
G1 X68.233 Y142.818 E59.37373
G1 X68.716 Y142.4 E59.41834
G1 X69.177 Y141.96 E59.46285
G1 X69.617 Y141.499 E59.50736
G1 X70.037 Y141.014 E59.55218
G1 X70.45 Y140.48 E59.59933
